; generated by Slic3r 1.2.9 on 2016-04-02 at 18:51:40

; external perimeters extrusion width = 0.30mm
; perimeters extrusion width = 0.30mm
; infill extrusion width = 0.50mm
; solid infill extrusion width = 0.30mm
; top infill extrusion width = 0.30mm

M107
M190 S50 ; set bed temperature
M201 X1000 Y1000 E600
M109 S210
M92 E161.3
G28
G92 E0.0
G1 X8.0 F2000
G1 Y60.0 E4.0  F1000.0
G1 Y100.0 E8.5  F1000.0
G92 E0.0
G21 ; set units to millimeters
G90 ; use absolute coordinates
M83 ; use relative distances for extrusion
G1 E-1.50000 F1800.00000
G1 Z0.150 F3000.000
G1 X77.306 Y93.137 F3000.000
G1 E1.50000 F1800.00000
G1 E0.02286 F1800.000 ; pressure advance
G1 X78.500 Y92.852 E0.04960 F1200.000
G1 X121.500 Y92.852 E1.73717
G1 X122.887 Y93.245 E0.05824
G1 X123.863 Y94.306 E0.05824
G1 X124.148 Y95.500 E0.04960
G1 X124.148 Y104.500 E0.36359
G1 X123.756 Y105.887 E0.05824
G1 X122.695 Y106.863 E0.05824
G1 X121.500 Y107.148 E0.04960
G1 X78.500 Y107.148 E1.73717
G1 X77.113 Y106.756 E0.05824
G1 X76.137 Y105.695 E0.05824
G1 X75.852 Y104.500 E0.04960
G1 X75.852 Y95.500 E0.36359
G1 X76.245 Y94.113 E0.05824
G1 X77.262 Y93.178 E0.05582
G1 E-0.02286 F1800.000 ; pressure discharge
G1 E-1.50000 F1800.00000
G1 X118.088 Y103.808 F3000.000
G1 E1.50000 F1800.00000
G1 E0.00035 F1800.000 ; pressure advance
G1 X117.699 Y103.891 E0.00664 F360.000
G1 X117.302 Y103.891 E0.00664
G1 X116.913 Y103.808 E0.00664
G1 X116.550 Y103.646 E0.00664
G1 X116.228 Y103.413 E0.00664
G1 X115.962 Y103.117 E0.00664
G1 X115.764 Y102.773 E0.00664
G1 X115.641 Y102.395 E0.00664
G1 X115.599 Y102.000 E0.00664
G1 X115.641 Y101.605 E0.00664
G1 X115.764 Y101.227 E0.00664
G1 X115.962 Y100.883 E0.00664
G1 X116.228 Y100.588 E0.00664
G1 X116.550 Y100.354 E0.00664
G1 X116.913 Y100.192 E0.00664
G1 X117.302 Y100.110 E0.00664
G1 X117.699 Y100.110 E0.00664
G1 X118.088 Y100.192 E0.00664
G1 X118.451 Y100.354 E0.00664
G1 X118.772 Y100.588 E0.00664
G1 X119.038 Y100.883 E0.00664
G1 X119.237 Y101.227 E0.00664
G1 X119.360 Y101.605 E0.00664
G1 X119.401 Y102.000 E0.00664
G1 X119.360 Y102.395 E0.00664
G1 X119.237 Y102.773 E0.00664
G1 X119.038 Y103.117 E0.00664
G1 X118.772 Y103.413 E0.00664
G1 X118.451 Y103.646 E0.00664
G1 X118.142 Y103.784 E0.00563
G1 X117.991 Y104.194 F3000.000
G1 E-0.00035 F1800.000 ; pressure discharge
G1 E-1.50000 F1800.00000
G1 X87.670 Y100.500 F3000.000
G1 E1.50000 F1800.00000
G1 X87.601 Y101.159 E0.01107 F360.000
G1 X87.396 Y101.790 E0.01107
G1 X87.065 Y102.364 E0.01107
G1 X86.621 Y102.856 E0.01107
G1 X86.085 Y103.246 E0.01107
G1 X85.480 Y103.515 E0.01107
G1 X84.832 Y103.653 E0.01107
G1 X84.169 Y103.653 E0.01107
G1 X83.521 Y103.515 E0.01107
G1 X82.915 Y103.246 E0.01107
G1 X82.379 Y102.856 E0.01107
G1 X81.936 Y102.364 E0.01107
G1 X81.603 Y101.787 E0.01112
G1 X81.395 Y101.113 E0.01177
G1 X81.330 Y100.500 E0.01030
G1 X81.399 Y99.841 E0.01107
G1 X81.604 Y99.211 E0.01107
G1 X81.936 Y98.637 E0.01107
G1 X82.379 Y98.144 E0.01107
G1 X82.915 Y97.755 E0.01107
G1 X83.521 Y97.485 E0.01107
G1 X84.169 Y97.347 E0.01107
G1 X84.832 Y97.347 E0.01107
G1 X85.480 Y97.485 E0.01107
G1 X86.085 Y97.755 E0.01107
G1 X86.621 Y98.144 E0.01107
G1 X87.065 Y98.637 E0.01107
G1 X87.398 Y99.213 E0.01112
G1 X87.606 Y99.887 E0.01177
G1 X87.664 Y100.441 E0.00930
G1 X87.401 Y100.500 F3000.000
G1 X87.338 Y101.103 E0.01013 F360.000
G1 X87.150 Y101.680 E0.01013
G1 X86.847 Y102.205 E0.01013
G1 X86.441 Y102.656 E0.01013
G1 X85.951 Y103.012 E0.01013
G1 X85.397 Y103.259 E0.01013
G1 X84.803 Y103.385 E0.01013
G1 X84.197 Y103.385 E0.01013
G1 X83.604 Y103.259 E0.01013
G1 X83.050 Y103.012 E0.01013
G1 X82.559 Y102.656 E0.01013
G1 X82.153 Y102.205 E0.01013
G1 X81.850 Y101.679 E0.01015
G1 X81.658 Y101.059 E0.01083
G1 X81.599 Y100.500 E0.00939
G1 X81.663 Y99.897 E0.01013
G1 X81.850 Y99.320 E0.01013
G1 X82.153 Y98.795 E0.01013
G1 X82.559 Y98.344 E0.01013
G1 X83.050 Y97.988 E0.01013
G1 X83.604 Y97.741 E0.01013
G1 X84.197 Y97.615 E0.01013
G1 X84.803 Y97.615 E0.01013
G1 X85.397 Y97.741 E0.01013
G1 X85.951 Y97.988 E0.01013
G1 X86.441 Y98.344 E0.01013
G1 X86.847 Y98.795 E0.01013
G1 X87.151 Y99.321 E0.01015
G1 X87.342 Y99.941 E0.01083
G1 X87.395 Y100.441 E0.00839
G1 X87.740 Y100.712 F3000.000
G1 E-1.50000 F1800.00000
G1 X89.330 Y100.500 F3000.000
G1 E1.50000 F1800.00000
G1 X89.399 Y99.841 E0.01107 F360.000
G1 X89.604 Y99.211 E0.01107
G1 X89.936 Y98.637 E0.01107
G1 X90.379 Y98.144 E0.01107
G1 X90.915 Y97.755 E0.01107
G1 X91.521 Y97.485 E0.01107
G1 X92.169 Y97.347 E0.01107
G1 X92.832 Y97.347 E0.01107
G1 X93.480 Y97.485 E0.01107
G1 X94.085 Y97.755 E0.01107
G1 X94.621 Y98.144 E0.01107
G1 X95.065 Y98.637 E0.01107
G1 X95.398 Y99.213 E0.01112
G1 X95.606 Y99.887 E0.01177
G1 X95.670 Y100.500 E0.01030
G1 X95.601 Y101.159 E0.01107
G1 X95.396 Y101.790 E0.01107
G1 X95.065 Y102.364 E0.01107
G1 X94.621 Y102.856 E0.01107
G1 X94.085 Y103.246 E0.01107
G1 X93.480 Y103.515 E0.01107
G1 X92.832 Y103.653 E0.01107
G1 X92.169 Y103.653 E0.01107
G1 X91.521 Y103.515 E0.01107
G1 X90.915 Y103.246 E0.01107
G1 X90.379 Y102.856 E0.01107
G1 X89.936 Y102.364 E0.01107
G1 X89.603 Y101.787 E0.01112
G1 X89.395 Y101.113 E0.01177
G1 X89.336 Y100.560 E0.00929
G1 X89.599 Y100.500 F3000.000
G1 X89.663 Y99.897 E0.01013 F360.000
G1 X89.850 Y99.320 E0.01013
G1 X90.153 Y98.795 E0.01013
G1 X90.559 Y98.344 E0.01013
G1 X91.050 Y97.988 E0.01013
G1 X91.604 Y97.741 E0.01013
G1 X92.197 Y97.615 E0.01013
G1 X92.803 Y97.615 E0.01013
G1 X93.397 Y97.741 E0.01013
G1 X93.951 Y97.988 E0.01013
G1 X94.441 Y98.344 E0.01013
G1 X94.847 Y98.795 E0.01013
G1 X95.151 Y99.321 E0.01015
G1 X95.342 Y99.941 E0.01083
G1 X95.401 Y100.500 E0.00939
G1 X95.338 Y101.103 E0.01013
G1 X95.150 Y101.680 E0.01013
G1 X94.847 Y102.205 E0.01013
G1 X94.441 Y102.656 E0.01013
G1 X93.951 Y103.012 E0.01013
G1 X93.397 Y103.259 E0.01013
G1 X92.803 Y103.385 E0.01013
G1 X92.197 Y103.385 E0.01013
G1 X91.604 Y103.259 E0.01013
G1 X91.050 Y103.012 E0.01013
G1 X90.559 Y102.656 E0.01013
G1 X90.153 Y102.205 E0.01013
G1 X89.850 Y101.679 E0.01015
G1 X89.658 Y101.059 E0.01083
G1 X89.606 Y100.560 E0.00839
G1 X89.260 Y100.288 F3000.000
G1 E-1.50000 F1800.00000
G1 X96.330 Y100.500 F3000.000
G1 E1.50000 F1800.00000
G1 X96.399 Y99.841 E0.01107 F360.000
G1 X96.604 Y99.211 E0.01107
G1 X96.936 Y98.637 E0.01107
G1 X97.379 Y98.144 E0.01107
G1 X97.915 Y97.755 E0.01107
G1 X98.521 Y97.485 E0.01107
G1 X99.169 Y97.347 E0.01107
G1 X99.832 Y97.347 E0.01107
G1 X100.480 Y97.485 E0.01107
G1 X101.085 Y97.755 E0.01107
G1 X101.621 Y98.144 E0.01107
G1 X102.065 Y98.637 E0.01107
G1 X102.398 Y99.213 E0.01112
G1 X102.606 Y99.887 E0.01177
G1 X102.670 Y100.500 E0.01030
G1 X102.601 Y101.159 E0.01107
G1 X102.396 Y101.790 E0.01107
G1 X102.065 Y102.364 E0.01107
G1 X101.621 Y102.856 E0.01107
G1 X101.085 Y103.246 E0.01107
G1 X100.480 Y103.515 E0.01107
G1 X99.832 Y103.653 E0.01107
G1 X99.169 Y103.653 E0.01107
G1 X98.521 Y103.515 E0.01107
G1 X97.915 Y103.246 E0.01107
G1 X97.379 Y102.856 E0.01107
G1 X96.936 Y102.364 E0.01107
G1 X96.603 Y101.787 E0.01112
G1 X96.395 Y101.113 E0.01177
G1 X96.336 Y100.560 E0.00929
G1 X96.599 Y100.500 F3000.000
G1 X96.663 Y99.897 E0.01013 F360.000
G1 X96.850 Y99.320 E0.01013
G1 X97.153 Y98.795 E0.01013
G1 X97.559 Y98.344 E0.01013
G1 X98.050 Y97.988 E0.01013
G1 X98.604 Y97.741 E0.01013
G1 X99.197 Y97.615 E0.01013
G1 X99.803 Y97.615 E0.01013
G1 X100.397 Y97.741 E0.01013
G1 X100.951 Y97.988 E0.01013
G1 X101.441 Y98.344 E0.01013
G1 X101.847 Y98.795 E0.01013
G1 X102.151 Y99.321 E0.01015
G1 X102.342 Y99.941 E0.01083
G1 X102.401 Y100.500 E0.00939
G1 X102.338 Y101.103 E0.01013
G1 X102.150 Y101.680 E0.01013
G1 X101.847 Y102.205 E0.01013
G1 X101.441 Y102.656 E0.01013
G1 X100.951 Y103.012 E0.01013
G1 X100.397 Y103.259 E0.01013
G1 X99.803 Y103.385 E0.01013
G1 X99.197 Y103.385 E0.01013
G1 X98.604 Y103.259 E0.01013
G1 X98.050 Y103.012 E0.01013
G1 X97.559 Y102.656 E0.01013
G1 X97.153 Y102.205 E0.01013
G1 X96.850 Y101.679 E0.01015
G1 X96.658 Y101.059 E0.01083
G1 X96.606 Y100.560 E0.00839
G1 X96.260 Y100.288 F3000.000
G1 E-1.50000 F1800.00000
G1 X104.330 Y100.500 F3000.000
G1 E1.50000 F1800.00000
G1 X104.399 Y99.841 E0.01107 F360.000
G1 X104.604 Y99.211 E0.01107
G1 X104.936 Y98.637 E0.01107
G1 X105.379 Y98.144 E0.01107
G1 X105.915 Y97.755 E0.01107
G1 X106.521 Y97.485 E0.01107
G1 X107.169 Y97.347 E0.01107
G1 X107.832 Y97.347 E0.01107
G1 X108.480 Y97.485 E0.01107
G1 X109.085 Y97.755 E0.01107
G1 X109.621 Y98.144 E0.01107
G1 X110.065 Y98.637 E0.01107
G1 X110.398 Y99.213 E0.01112
G1 X110.606 Y99.887 E0.01177
G1 X110.670 Y100.500 E0.01030
G1 X110.601 Y101.159 E0.01107
G1 X110.396 Y101.790 E0.01107
G1 X110.065 Y102.364 E0.01107
G1 X109.621 Y102.856 E0.01107
G1 X109.085 Y103.246 E0.01107
G1 X108.480 Y103.515 E0.01107
G1 X107.832 Y103.653 E0.01107
G1 X107.169 Y103.653 E0.01107
G1 X106.521 Y103.515 E0.01107
G1 X105.915 Y103.246 E0.01107
G1 X105.379 Y102.856 E0.01107
G1 X104.936 Y102.364 E0.01107
G1 X104.603 Y101.787 E0.01112
G1 X104.395 Y101.113 E0.01177
G1 X104.336 Y100.560 E0.00929
G1 X104.599 Y100.500 F3000.000
G1 X104.663 Y99.897 E0.01013 F360.000
G1 X104.850 Y99.320 E0.01013
G1 X105.153 Y98.795 E0.01013
G1 X105.559 Y98.344 E0.01013
G1 X106.050 Y97.988 E0.01013
G1 X106.604 Y97.741 E0.01013
G1 X107.197 Y97.615 E0.01013
G1 X107.803 Y97.615 E0.01013
G1 X108.397 Y97.741 E0.01013
G1 X108.951 Y97.988 E0.01013
G1 X109.441 Y98.344 E0.01013
G1 X109.847 Y98.795 E0.01013
G1 X110.151 Y99.321 E0.01015
G1 X110.342 Y99.941 E0.01083
G1 X110.401 Y100.500 E0.00939
G1 X110.338 Y101.103 E0.01013
G1 X110.150 Y101.680 E0.01013
G1 X109.847 Y102.205 E0.01013
G1 X109.441 Y102.656 E0.01013
G1 X108.951 Y103.012 E0.01013
G1 X108.397 Y103.259 E0.01013
G1 X107.803 Y103.385 E0.01013
G1 X107.197 Y103.385 E0.01013
G1 X106.604 Y103.259 E0.01013
G1 X106.050 Y103.012 E0.01013
G1 X105.559 Y102.656 E0.01013
G1 X105.153 Y102.205 E0.01013
G1 X104.850 Y101.679 E0.01015
G1 X104.658 Y101.059 E0.01083
G1 X104.606 Y100.560 E0.00839
G1 X104.260 Y100.288 F3000.000
G1 E-1.50000 F1800.00000
G1 X106.641 Y103.815 F3000.000
G1 E1.50000 F1800.00000
G1 E0.00250 F1800.000 ; pressure advance
G1 X100.359 Y103.815 E0.10492 F960.000
G1 X100.563 Y103.771 E0.00348
G1 X101.220 Y103.479 E0.01201
G1 X101.802 Y103.056 E0.01201
G1 X102.283 Y102.522 E0.01201
G1 X102.642 Y101.899 E0.01201
G1 X102.864 Y101.215 E0.01201
G1 X102.940 Y100.500 E0.01201
G1 X102.869 Y99.833 E0.01121
G1 X102.645 Y99.106 E0.01271
G1 X102.283 Y98.479 E0.01209
G1 X101.802 Y97.944 E0.01201
G1 X101.220 Y97.522 E0.01201
G1 X100.563 Y97.229 E0.01201
G1 X99.860 Y97.080 E0.01201
G1 X99.141 Y97.080 E0.01201
G1 X98.437 Y97.229 E0.01201
G1 X97.781 Y97.522 E0.01201
G1 X97.199 Y97.944 E0.01201
G1 X96.718 Y98.479 E0.01201
G1 X96.358 Y99.101 E0.01201
G1 X96.136 Y99.785 E0.01201
G1 X96.061 Y100.500 E0.01201
G1 X96.131 Y101.167 E0.01120
G1 X96.356 Y101.895 E0.01271
G1 X96.718 Y102.522 E0.01209
G1 X97.199 Y103.056 E0.01201
G1 X97.781 Y103.479 E0.01201
G1 X98.437 Y103.771 E0.01201
G1 X98.641 Y103.815 E0.00348
G1 X93.359 Y103.815 E0.08822
G1 X93.563 Y103.771 E0.00348
G1 X94.220 Y103.479 E0.01201
G1 X94.802 Y103.056 E0.01201
G1 X95.283 Y102.522 E0.01201
G1 X95.642 Y101.899 E0.01201
G1 X95.864 Y101.215 E0.01201
G1 X95.940 Y100.500 E0.01201
G1 X95.869 Y99.833 E0.01121
G1 X95.645 Y99.106 E0.01271
G1 X95.283 Y98.479 E0.01209
G1 X94.802 Y97.944 E0.01201
G1 X94.220 Y97.522 E0.01201
G1 X93.563 Y97.229 E0.01201
G1 X92.860 Y97.080 E0.01201
G1 X92.141 Y97.080 E0.01201
G1 X91.437 Y97.229 E0.01201
G1 X90.781 Y97.522 E0.01201
G1 X90.199 Y97.944 E0.01201
G1 X89.718 Y98.479 E0.01201
G1 X89.358 Y99.101 E0.01201
G1 X89.136 Y99.785 E0.01201
G1 X89.061 Y100.500 E0.01201
G1 X89.131 Y101.167 E0.01120
G1 X89.356 Y101.895 E0.01271
G1 X89.718 Y102.522 E0.01209
G1 X90.199 Y103.056 E0.01201
G1 X90.781 Y103.479 E0.01201
G1 X91.437 Y103.771 E0.01201
G1 X91.641 Y103.815 E0.00348
G1 X85.359 Y103.815 E0.10492
G1 X85.563 Y103.771 E0.00348
G1 X86.220 Y103.479 E0.01201
G1 X86.802 Y103.056 E0.01201
G1 X87.283 Y102.522 E0.01201
G1 X87.642 Y101.899 E0.01201
G1 X87.864 Y101.215 E0.01201
G1 X87.940 Y100.500 E0.01201
G1 X87.869 Y99.833 E0.01120
G1 X87.645 Y99.106 E0.01271
G1 X87.283 Y98.479 E0.01209
G1 X86.802 Y97.944 E0.01201
G1 X86.220 Y97.522 E0.01201
G1 X85.563 Y97.229 E0.01201
G1 X84.860 Y97.080 E0.01201
G1 X84.141 Y97.080 E0.01201
G1 X83.437 Y97.229 E0.01201
G1 X82.781 Y97.522 E0.01201
G1 X82.199 Y97.944 E0.01201
G1 X81.718 Y98.479 E0.01201
G1 X81.358 Y99.101 E0.01201
G1 X81.136 Y99.785 E0.01201
G1 X81.061 Y100.500 E0.01201
G1 X81.131 Y101.167 E0.01120
G1 X81.356 Y101.895 E0.01271
G1 X81.718 Y102.522 E0.01209
G1 X82.199 Y103.056 E0.01201
G1 X82.781 Y103.479 E0.01201
G1 X83.437 Y103.771 E0.01201
G1 X83.641 Y103.815 E0.00348
G1 X79.186 Y103.815 E0.07441
G1 X79.186 Y96.186 E0.12741
G1 X120.815 Y96.186 E0.69526
G1 X120.815 Y103.815 E0.12741
G1 X119.130 Y103.815 E0.02813
G1 X119.474 Y103.434 E0.00856
G1 X119.729 Y102.992 E0.00852
G1 X119.886 Y102.507 E0.00852
G1 X119.940 Y102.000 E0.00852
G1 X119.886 Y101.493 E0.00852
G1 X119.729 Y101.008 E0.00852
G1 X119.474 Y100.566 E0.00852
G1 X119.132 Y100.187 E0.00852
G1 X118.720 Y99.888 E0.00852
G1 X118.254 Y99.680 E0.00852
G1 X117.755 Y99.574 E0.00852
G1 X117.245 Y99.574 E0.00852
G1 X116.746 Y99.680 E0.00852
G1 X116.281 Y99.888 E0.00852
G1 X115.868 Y100.187 E0.00852
G1 X115.527 Y100.566 E0.00852
G1 X115.272 Y101.008 E0.00852
G1 X115.114 Y101.493 E0.00852
G1 X115.061 Y102.000 E0.00852
G1 X115.114 Y102.507 E0.00852
G1 X115.272 Y102.992 E0.00852
G1 X115.527 Y103.434 E0.00852
G1 X115.870 Y103.815 E0.00856
G1 X108.359 Y103.815 E0.12544
G1 X108.563 Y103.771 E0.00348
G1 X109.220 Y103.479 E0.01201
G1 X109.802 Y103.056 E0.01201
G1 X110.283 Y102.522 E0.01201
G1 X110.642 Y101.899 E0.01201
G1 X110.864 Y101.215 E0.01201
G1 X110.940 Y100.500 E0.01201
G1 X110.869 Y99.833 E0.01121
G1 X110.645 Y99.106 E0.01271
G1 X110.283 Y98.479 E0.01209
G1 X109.802 Y97.944 E0.01201
G1 X109.220 Y97.522 E0.01201
G1 X108.563 Y97.229 E0.01201
G1 X107.860 Y97.080 E0.01201
G1 X107.141 Y97.080 E0.01201
G1 X106.437 Y97.229 E0.01201
G1 X105.781 Y97.522 E0.01201
G1 X105.199 Y97.944 E0.01201
G1 X104.718 Y98.479 E0.01201
G1 X104.358 Y99.101 E0.01201
G1 X104.136 Y99.785 E0.01201
G1 X104.061 Y100.500 E0.01201
G1 X104.131 Y101.167 E0.01120
G1 X104.356 Y101.895 E0.01271
G1 X104.718 Y102.522 E0.01209
G1 X105.199 Y103.056 E0.01201
G1 X105.781 Y103.479 E0.01201
G1 X106.437 Y103.771 E0.01201
G1 X106.582 Y103.802 E0.00248
G1 E-0.00250 F1800.000 ; pressure discharge
G1 E-1.50000 F1800.00000
G1 X116.916 Y104.082 F3000.000
G1 E1.50000 F1800.00000
G1 X78.918 Y104.082 E0.63461 F960.000
G1 X78.918 Y95.918 E0.13636
G1 X121.082 Y95.918 E0.70420
G1 X121.082 Y104.082 E0.13636
G1 X118.085 Y104.082 E0.05006
G1 X118.171 Y104.064 E0.00147
G1 X118.585 Y103.880 E0.00758
G1 X118.952 Y103.613 E0.00758
G1 X119.256 Y103.276 E0.00758
G1 X119.483 Y102.883 E0.00758
G1 X119.623 Y102.451 E0.00758
G1 X119.670 Y102.000 E0.00758
G1 X119.623 Y101.549 E0.00758
G1 X119.483 Y101.118 E0.00758
G1 X119.256 Y100.725 E0.00758
G1 X118.952 Y100.387 E0.00758
G1 X118.585 Y100.121 E0.00758
G1 X118.171 Y99.936 E0.00758
G1 X117.727 Y99.842 E0.00758
G1 X117.273 Y99.842 E0.00758
G1 X116.830 Y99.936 E0.00758
G1 X116.415 Y100.121 E0.00758
G1 X116.048 Y100.387 E0.00758
G1 X115.745 Y100.725 E0.00758
G1 X115.518 Y101.118 E0.00758
G1 X115.377 Y101.549 E0.00758
G1 X115.330 Y102.000 E0.00758
G1 X115.377 Y102.451 E0.00758
G1 X115.518 Y102.883 E0.00758
G1 X115.745 Y103.276 E0.00758
G1 X116.048 Y103.613 E0.00758
G1 X116.415 Y103.880 E0.00758
G1 X116.857 Y104.070 E0.00803
G1 E-1.50000 F1800.00000
G1 X121.350 Y104.350 F3000.000
G1 E1.50000 F1800.00000
G1 E0.00062 F1800.000 ; pressure advance
G1 X78.650 Y104.350 E0.71315 F480.000
G1 X78.650 Y95.650 E0.14530
G1 X121.350 Y95.650 E0.71315
G1 X121.350 Y104.290 E0.14430
G1 X121.004 Y104.150 F3000.000
G1 E-0.00062 F1800.000 ; pressure discharge
G1 E-1.50000 F1800.00000
G1 X119.628 Y103.496 F3000.000
G1 E1.50000 F1800.00000
G1 E0.00251 F1800.000 ; pressure advance
G1 X119.761 Y103.629 E0.00315 F960.000
G1 X119.767 Y103.255 E0.00626
G1 X120.141 Y103.629 E0.00885
G1 X120.521 Y103.629 E0.00635
G1 X119.902 Y103.011 E0.01464
