; generated by Slic3r 1.2.9 on 2016-04-02 at 18:44:57

; - layer
; - speed

; external perimeters extrusion width = 0.45mm
; perimeters extrusion width = 0.45mm
; infill extrusion width = 0.45mm
; solid infill extrusion width = 0.45mm
; top infill extrusion width = 0.45mm

M107
M190 S50 ; set bed temperature
M201 X1000 Y1000 E600
M109 S210
M92 E161.3
G28
G92 E0.0
G1 X8.0 F2000
G1 Y60.0 E4.0  F1000.0
G1 Y100.0 E8.5  F1000.0
G92 E0.0
G21 ; set units to millimeters
G90 ; use absolute coordinates
M83 ; use relative distances for extrusion
G1 E-1.50000 F1800.00000
G1 Z0.350 F3000.000
G1 X77.563 Y93.318 F3000.000
G1 E1.50000 F1800.00000
G1 E0.01043 F1800.000 ; pressure advance
G1 X78.500 Y93.125 E0.05222 F600.000
G1 X121.500 Y93.125 E2.34571
G1 X122.807 Y93.517 E0.07440
G1 X123.682 Y94.562 E0.07440
G1 X123.875 Y95.500 E0.05222
G1 X123.875 Y104.500 E0.49096
G1 X123.484 Y105.807 E0.07440
G1 X122.438 Y106.682 E0.07440
G1 X121.500 Y106.875 E0.05222
G1 X78.500 Y106.875 E2.34571
G1 X77.194 Y106.483 E0.07440
G1 X76.318 Y105.438 E0.07440
G1 X76.125 Y104.500 E0.05222
G1 X76.125 Y95.500 E0.49096
G1 X76.517 Y94.194 E0.07440
G1 X77.517 Y93.357 E0.07112
G1 E-0.01043 F1800.000 ; pressure discharge
G1 E-1.50000 F1800.00000
G1 X118.188 Y104.117 F3000.000
G1 E1.50000 F1800.00000
G1 E0.00667 F1800.000 ; pressure advance
G1 X117.733 Y104.214 E0.02538 F480.000
G1 X117.267 Y104.214 E0.02539
G1 X116.812 Y104.117 E0.02538
G1 X116.387 Y103.928 E0.02539
G1 X116.011 Y103.655 E0.02539
G1 X115.699 Y103.309 E0.02539
G1 X115.466 Y102.906 E0.02539
G1 X115.323 Y102.463 E0.02539
G1 X115.274 Y102.000 E0.02539
G1 X115.323 Y101.537 E0.02539
G1 X115.466 Y101.095 E0.02539
G1 X115.699 Y100.692 E0.02539
G1 X116.011 Y100.346 E0.02539
G1 X116.387 Y100.072 E0.02539
G1 X116.812 Y99.883 E0.02539
G1 X117.267 Y99.786 E0.02538
G1 X117.733 Y99.786 E0.02539
G1 X118.188 Y99.883 E0.02538
G1 X118.613 Y100.072 E0.02539
G1 X118.990 Y100.346 E0.02539
G1 X119.301 Y100.692 E0.02539
G1 X119.534 Y101.095 E0.02539
G1 X119.678 Y101.537 E0.02539
G1 X119.726 Y102.000 E0.02539
G1 X119.678 Y102.463 E0.02539
G1 X119.534 Y102.906 E0.02539
G1 X119.301 Y103.309 E0.02539
G1 X118.990 Y103.655 E0.02539
G1 X118.613 Y103.928 E0.02539
G1 X118.243 Y104.093 E0.02212
G1 X118.091 Y104.506 F3000.000
G1 E-0.00667 F1800.000 ; pressure discharge
G1 E-1.50000 F1800.00000
G1 X120.042 Y103.525 F3000.000
G1 E1.50000 F1800.00000
G1 X120.223 Y103.212 E0.01972 F480.000
G1 X120.415 Y102.620 E0.03399
G1 X120.480 Y102.000 E0.03399
G1 X120.415 Y101.381 E0.03399
G1 X120.223 Y100.788 E0.03399
G1 X119.911 Y100.249 E0.03398
G1 X119.494 Y99.786 E0.03398
G1 X118.990 Y99.419 E0.03399
G1 X118.421 Y99.166 E0.03399
G1 X117.812 Y99.036 E0.03398
G1 X117.189 Y99.036 E0.03399
G1 X116.579 Y99.166 E0.03398
G1 X116.010 Y99.419 E0.03399
G1 X115.506 Y99.786 E0.03399
G1 X115.089 Y100.249 E0.03398
G1 X114.778 Y100.788 E0.03398
G1 X114.585 Y101.381 E0.03399
G1 X114.520 Y102.000 E0.03399
G1 X114.585 Y102.620 E0.03399
G1 X114.778 Y103.212 E0.03399
G1 X114.958 Y103.525 E0.01972
G1 X110.071 Y103.525 E0.26664
G1 X110.163 Y103.458 E0.00625
G1 X110.720 Y102.840 E0.04540
G1 X111.136 Y102.119 E0.04539
G1 X111.393 Y101.328 E0.04539
G1 X111.480 Y100.500 E0.04539
G1 X111.393 Y99.673 E0.04539
G1 X111.136 Y98.881 E0.04539
G1 X110.720 Y98.161 E0.04539
G1 X110.163 Y97.542 E0.04540
G1 X109.490 Y97.053 E0.04539
G1 X108.730 Y96.715 E0.04539
G1 X107.916 Y96.542 E0.04539
G1 X107.084 Y96.542 E0.04539
G1 X106.270 Y96.715 E0.04539
G1 X105.510 Y97.053 E0.04539
G1 X104.837 Y97.542 E0.04539
G1 X104.280 Y98.161 E0.04540
G1 X103.864 Y98.881 E0.04539
G1 X103.607 Y99.673 E0.04539
G1 X103.520 Y100.500 E0.04539
G1 X103.607 Y101.328 E0.04539
G1 X103.864 Y102.119 E0.04539
G1 X104.280 Y102.840 E0.04539
G1 X104.837 Y103.458 E0.04540
G1 X104.930 Y103.525 E0.00625
G1 X102.071 Y103.525 E0.15596
G1 X102.163 Y103.458 E0.00625
G1 X102.720 Y102.840 E0.04540
G1 X103.136 Y102.119 E0.04539
G1 X103.393 Y101.328 E0.04539
G1 X103.480 Y100.500 E0.04539
G1 X103.393 Y99.673 E0.04539
G1 X103.136 Y98.881 E0.04539
G1 X102.720 Y98.161 E0.04539
G1 X102.163 Y97.542 E0.04540
G1 X101.490 Y97.053 E0.04539
G1 X100.730 Y96.715 E0.04539
G1 X99.916 Y96.542 E0.04539
G1 X99.084 Y96.542 E0.04539
G1 X98.270 Y96.715 E0.04539
G1 X97.510 Y97.053 E0.04539
G1 X96.837 Y97.542 E0.04539
G1 X96.280 Y98.161 E0.04540
G1 X96.000 Y98.646 E0.03055
G1 X95.720 Y98.161 E0.03055
G1 X95.163 Y97.542 E0.04540
G1 X94.490 Y97.053 E0.04539
G1 X93.730 Y96.715 E0.04539
G1 X92.916 Y96.542 E0.04539
G1 X92.084 Y96.542 E0.04539
G1 X91.270 Y96.715 E0.04539
G1 X90.510 Y97.053 E0.04539
G1 X89.837 Y97.542 E0.04539
G1 X89.280 Y98.161 E0.04540
G1 X88.864 Y98.881 E0.04539
G1 X88.607 Y99.673 E0.04539
G1 X88.520 Y100.500 E0.04539
G1 X88.607 Y101.328 E0.04539
G1 X88.864 Y102.119 E0.04539
G1 X89.280 Y102.840 E0.04539
G1 X89.837 Y103.458 E0.04540
G1 X89.930 Y103.525 E0.00625
G1 X87.071 Y103.525 E0.15597
G1 X87.163 Y103.458 E0.00626
G1 X87.720 Y102.840 E0.04539
G1 X88.136 Y102.119 E0.04539
G1 X88.393 Y101.328 E0.04539
G1 X88.480 Y100.500 E0.04539
G1 X88.393 Y99.673 E0.04539
G1 X88.136 Y98.881 E0.04539
G1 X87.720 Y98.161 E0.04539
G1 X87.163 Y97.542 E0.04539
G1 X86.490 Y97.053 E0.04539
G1 X85.730 Y96.715 E0.04539
G1 X84.916 Y96.542 E0.04539
G1 X84.084 Y96.542 E0.04539
G1 X83.270 Y96.715 E0.04539
G1 X82.510 Y97.053 E0.04539
G1 X81.837 Y97.542 E0.04539
G1 X81.422 Y98.003 E0.03381
G1 X81.280 Y98.161 E0.01158
G1 X80.864 Y98.881 E0.04539
G1 X80.607 Y99.673 E0.04539
G1 X80.520 Y100.500 E0.04539
G1 X80.607 Y101.328 E0.04539
G1 X80.864 Y102.119 E0.04539
G1 X81.280 Y102.840 E0.04539
G1 X81.837 Y103.458 E0.04539
G1 X81.930 Y103.525 E0.00626
G1 X79.475 Y103.525 E0.13391
G1 X79.475 Y96.475 E0.38461
G1 X120.525 Y96.475 E2.23936
G1 X120.525 Y103.525 E0.38461
G1 X120.102 Y103.525 E0.02310
G1 X119.273 Y103.900 F3000.000
G1 X119.606 Y103.530 E0.02716 F480.000
G1 X119.878 Y103.059 E0.02969
G1 X120.047 Y102.541 E0.02969
G1 X120.103 Y102.000 E0.02969
G1 X120.047 Y101.459 E0.02969
G1 X119.878 Y100.941 E0.02969
G1 X119.606 Y100.470 E0.02969
G1 X119.242 Y100.066 E0.02968
G1 X118.802 Y99.746 E0.02969
G1 X118.305 Y99.524 E0.02969
G1 X117.772 Y99.411 E0.02968
G1 X117.228 Y99.411 E0.02969
G1 X116.696 Y99.524 E0.02968
G1 X116.199 Y99.746 E0.02969
G1 X115.758 Y100.066 E0.02969
G1 X115.394 Y100.470 E0.02968
G1 X115.122 Y100.941 E0.02969
G1 X114.954 Y101.459 E0.02969
G1 X114.897 Y102.000 E0.02969
G1 X114.954 Y102.541 E0.02969
G1 X115.122 Y103.059 E0.02969
G1 X115.394 Y103.530 E0.02969
G1 X115.727 Y103.900 E0.02716
G1 X108.674 Y103.900 E0.38478
G1 X109.302 Y103.621 E0.03750
G1 X109.911 Y103.178 E0.04109
G1 X110.415 Y102.618 E0.04110
G1 X110.792 Y101.966 E0.04109
G1 X111.025 Y101.249 E0.04109
G1 X111.103 Y100.500 E0.04109
G1 X111.025 Y99.751 E0.04109
G1 X110.792 Y99.035 E0.04109
G1 X110.415 Y98.382 E0.04109
G1 X109.911 Y97.822 E0.04110
G1 X109.302 Y97.380 E0.04109
G1 X108.614 Y97.073 E0.04109
G1 X107.877 Y96.917 E0.04109
G1 X107.124 Y96.917 E0.04109
G1 X106.387 Y97.073 E0.04109
G1 X105.699 Y97.380 E0.04109
G1 X105.089 Y97.822 E0.04109
G1 X104.585 Y98.382 E0.04110
G1 X104.209 Y99.035 E0.04109
G1 X103.976 Y99.751 E0.04109
G1 X103.897 Y100.500 E0.04109
G1 X103.976 Y101.249 E0.04109
G1 X104.209 Y101.966 E0.04109
G1 X104.585 Y102.618 E0.04109
G1 X105.089 Y103.178 E0.04109
G1 X105.699 Y103.621 E0.04109
G1 X106.327 Y103.900 E0.03751
G1 X100.674 Y103.900 E0.30837
G1 X101.302 Y103.621 E0.03750
G1 X101.911 Y103.178 E0.04109
G1 X102.415 Y102.618 E0.04110
G1 X102.792 Y101.966 E0.04109
G1 X103.025 Y101.249 E0.04109
G1 X103.103 Y100.500 E0.04109
G1 X103.025 Y99.751 E0.04109
G1 X102.792 Y99.035 E0.04109
G1 X102.415 Y98.382 E0.04109
G1 X101.911 Y97.822 E0.04110
G1 X101.302 Y97.380 E0.04109
G1 X100.614 Y97.073 E0.04109
G1 X99.877 Y96.917 E0.04109
G1 X99.124 Y96.917 E0.04109
G1 X98.387 Y97.073 E0.04109
G1 X97.699 Y97.380 E0.04109
G1 X97.089 Y97.822 E0.04109
G1 X96.585 Y98.382 E0.04110
G1 X96.209 Y99.035 E0.04109
G1 X96.000 Y99.676 E0.03678
G1 X95.792 Y99.035 E0.03678
G1 X95.415 Y98.382 E0.04109
G1 X94.911 Y97.822 E0.04109
G1 X94.302 Y97.380 E0.04109
G1 X93.614 Y97.073 E0.04109
G1 X92.877 Y96.917 E0.04109
G1 X92.124 Y96.917 E0.04109
G1 X91.387 Y97.073 E0.04109
G1 X90.699 Y97.380 E0.04109
G1 X90.089 Y97.822 E0.04109
G1 X89.585 Y98.382 E0.04110
G1 X89.209 Y99.035 E0.04109
G1 X88.976 Y99.751 E0.04109
G1 X88.897 Y100.500 E0.04109
G1 X88.976 Y101.249 E0.04109
G1 X89.209 Y101.966 E0.04109
G1 X89.585 Y102.618 E0.04109
G1 X90.089 Y103.178 E0.04109
G1 X90.699 Y103.621 E0.04109
G1 X91.327 Y103.900 E0.03751
G1 X85.674 Y103.900 E0.30838
G1 X86.302 Y103.621 E0.03751
G1 X86.911 Y103.178 E0.04109
G1 X87.415 Y102.618 E0.04109
G1 X87.792 Y101.966 E0.04109
G1 X88.025 Y101.249 E0.04109
G1 X88.103 Y100.500 E0.04109
G1 X88.025 Y99.751 E0.04109
G1 X87.792 Y99.035 E0.04109
G1 X87.415 Y98.382 E0.04109
G1 X86.911 Y97.822 E0.04109
G1 X86.302 Y97.380 E0.04109
G1 X85.614 Y97.073 E0.04109
G1 X84.877 Y96.917 E0.04109
G1 X84.124 Y96.917 E0.04109
G1 X83.387 Y97.073 E0.04109
G1 X82.699 Y97.380 E0.04109
G1 X82.089 Y97.822 E0.04109
G1 X81.585 Y98.382 E0.04109
G1 X81.209 Y99.035 E0.04109
G1 X80.976 Y99.751 E0.04109
G1 X80.897 Y100.500 E0.04109
G1 X80.976 Y101.249 E0.04109
G1 X81.209 Y101.966 E0.04109
G1 X81.585 Y102.618 E0.04109
G1 X82.089 Y103.178 E0.04109
G1 X82.699 Y103.621 E0.04109
G1 X83.327 Y103.900 E0.03751
G1 X79.100 Y103.900 E0.23057
G1 X79.100 Y96.100 E0.42551
G1 X120.900 Y96.100 E2.28026
G1 X120.900 Y103.900 E0.42551
G1 X119.333 Y103.900 E0.08549
G1 E-1.50000 F1800.00000
G1 X110.656 Y101.171 F3000.000
G1 E1.50000 F1800.00000
G1 X110.447 Y101.812 E0.03679 F480.000
G1 X110.110 Y102.397 E0.03679
G1 X109.659 Y102.898 E0.03679
G1 X109.113 Y103.294 E0.03679
G1 X108.497 Y103.569 E0.03679
G1 X107.837 Y103.709 E0.03680
G1 X107.163 Y103.709 E0.03679
G1 X106.503 Y103.569 E0.03680
G1 X105.887 Y103.294 E0.03679
G1 X105.341 Y102.898 E0.03679
G1 X104.890 Y102.397 E0.03679
G1 X104.553 Y101.812 E0.03679
G1 X104.345 Y101.171 E0.03679
G1 X104.274 Y100.500 E0.03679
G1 X104.345 Y99.829 E0.03679
G1 X104.553 Y99.188 E0.03679
G1 X104.890 Y98.604 E0.03679
G1 X105.341 Y98.103 E0.03679
G1 X105.887 Y97.706 E0.03679
G1 X106.503 Y97.432 E0.03679
G1 X107.163 Y97.292 E0.03680
G1 X107.837 Y97.292 E0.03679
G1 X108.497 Y97.432 E0.03680
G1 X109.113 Y97.706 E0.03679
G1 X109.659 Y98.103 E0.03679
G1 X110.110 Y98.604 E0.03679
G1 X110.447 Y99.188 E0.03679
G1 X110.656 Y99.829 E0.03679
G1 X110.726 Y100.500 E0.03679
G1 X110.662 Y101.111 E0.03352
G1 X110.944 Y101.449 F3000.000
G1 E-1.50000 F1800.00000
G1 X102.726 Y100.500 F3000.000
G1 E1.50000 F1800.00000
G1 X102.656 Y101.171 E0.03679 F480.000
G1 X102.447 Y101.812 E0.03679
G1 X102.110 Y102.397 E0.03679
G1 X101.659 Y102.898 E0.03679
G1 X101.113 Y103.294 E0.03679
G1 X100.497 Y103.569 E0.03679
G1 X99.837 Y103.709 E0.03680
G1 X99.163 Y103.709 E0.03679
G1 X98.503 Y103.569 E0.03680
G1 X97.887 Y103.294 E0.03679
G1 X97.341 Y102.898 E0.03679
G1 X96.890 Y102.397 E0.03679
G1 X96.553 Y101.812 E0.03679
G1 X96.345 Y101.171 E0.03679
G1 X96.274 Y100.500 E0.03679
G1 X96.345 Y99.829 E0.03679
G1 X96.553 Y99.188 E0.03679
G1 X96.890 Y98.604 E0.03679
G1 X97.341 Y98.103 E0.03679
G1 X97.887 Y97.706 E0.03679
G1 X98.503 Y97.432 E0.03679
G1 X99.163 Y97.292 E0.03680
G1 X99.837 Y97.292 E0.03679
G1 X100.497 Y97.432 E0.03680
G1 X101.113 Y97.706 E0.03679
G1 X101.659 Y98.103 E0.03679
G1 X102.110 Y98.604 E0.03679
G1 X102.447 Y99.188 E0.03679
G1 X102.656 Y99.829 E0.03679
G1 X102.720 Y100.441 E0.03352
G1 X103.066 Y100.712 F3000.000
G1 E-1.50000 F1800.00000
G1 X96.930 Y103.525 F3000.000
G1 E1.50000 F1800.00000
G1 X95.071 Y103.525 E0.10141 F480.000
G1 X95.163 Y103.458 E0.00625
G1 X95.720 Y102.840 E0.04540
G1 X96.000 Y102.355 E0.03055
G1 X96.280 Y102.840 E0.03055
G1 X96.881 Y103.490 E0.04831
G1 E-1.50000 F1800.00000
G1 X98.327 Y103.900 F3000.000
G1 E1.50000 F1800.00000
G1 X93.674 Y103.900 E0.25382 F480.000
G1 X94.302 Y103.621 E0.03750
G1 X94.911 Y103.178 E0.04109
G1 X95.415 Y102.618 E0.04109
G1 X95.792 Y101.966 E0.04109
G1 X96.000 Y101.324 E0.03678
G1 X96.209 Y101.966 E0.03678
G1 X96.585 Y102.618 E0.04109
G1 X97.089 Y103.178 E0.04109
G1 X97.699 Y103.621 E0.04109
G1 X98.272 Y103.876 E0.03423
G1 E-1.50000 F1800.00000
G1 X95.110 Y102.397 F3000.000
G1 E1.50000 F1800.00000
G1 X94.659 Y102.898 E0.03679 F480.000
G1 X94.113 Y103.294 E0.03679
G1 X93.497 Y103.569 E0.03679
G1 X92.837 Y103.709 E0.03680
G1 X92.163 Y103.709 E0.03679
G1 X91.503 Y103.569 E0.03680
G1 X90.887 Y103.294 E0.03679
G1 X90.341 Y102.898 E0.03679
G1 X89.890 Y102.397 E0.03679
G1 X89.553 Y101.812 E0.03679
G1 X89.345 Y101.171 E0.03679
G1 X89.274 Y100.500 E0.03679
G1 X89.345 Y99.829 E0.03679
G1 X89.553 Y99.188 E0.03679
G1 X89.890 Y98.604 E0.03679
G1 X90.341 Y98.103 E0.03679
G1 X90.887 Y97.706 E0.03679
G1 X91.503 Y97.432 E0.03679
G1 X92.163 Y97.292 E0.03680
G1 X92.837 Y97.292 E0.03679
G1 X93.497 Y97.432 E0.03680
G1 X94.113 Y97.706 E0.03679
G1 X94.659 Y98.103 E0.03679
G1 X95.110 Y98.604 E0.03679
G1 X95.448 Y99.188 E0.03679
G1 X95.656 Y99.829 E0.03679
G1 X95.726 Y100.500 E0.03679
G1 X95.656 Y101.171 E0.03679
G1 X95.448 Y101.812 E0.03679
G1 X95.140 Y102.345 E0.03352
G1 X95.260 Y102.767 F3000.000
G1 E-1.50000 F1800.00000
G1 X87.656 Y101.171 F3000.000
G1 E1.50000 F1800.00000
G1 X87.448 Y101.812 E0.03679 F480.000
G1 X87.110 Y102.397 E0.03679
G1 X86.659 Y102.898 E0.03679
G1 X86.113 Y103.294 E0.03679
G1 X85.497 Y103.569 E0.03679
G1 X84.837 Y103.709 E0.03679
G1 X84.163 Y103.709 E0.03679
G1 X83.503 Y103.569 E0.03679
G1 X82.887 Y103.294 E0.03679
G1 X82.341 Y102.898 E0.03679
G1 X81.890 Y102.397 E0.03679
G1 X81.553 Y101.812 E0.03679
G1 X81.344 Y101.171 E0.03679
G1 X81.274 Y100.500 E0.03679
G1 X81.344 Y99.829 E0.03679
G1 X81.553 Y99.188 E0.03679
G1 X81.890 Y98.604 E0.03679
G1 X82.341 Y98.103 E0.03679
G1 X82.887 Y97.706 E0.03679
G1 X83.503 Y97.432 E0.03679
G1 X84.163 Y97.292 E0.03679
G1 X84.837 Y97.292 E0.03679
G1 X85.497 Y97.432 E0.03679
G1 X86.113 Y97.706 E0.03679
G1 X86.659 Y98.103 E0.03679
G1 X87.110 Y98.604 E0.03679
G1 X87.448 Y99.188 E0.03679
G1 X87.656 Y99.829 E0.03679
G1 X87.726 Y100.500 E0.03679
G1 X87.662 Y101.111 E0.03352
G1 X87.944 Y101.449 F3000.000
G1 E-1.50000 F1800.00000
G1 X78.725 Y104.275 F3000.000
G1 E1.50000 F1800.00000
G1 X78.725 Y95.725 E0.46641 F480.000
G1 X121.275 Y95.725 E2.32116
G1 X121.275 Y104.275 E0.46641
G1 X78.785 Y104.275 E2.31789
G1 X78.925 Y103.929 F3000.000
G1 E-1.50000 F1800.00000
G1 X79.750 Y103.051 F3000.000
G1 E1.50000 F1800.00000
G1 X79.949 Y103.250 E0.01557 F480.000
G1 X80.487 Y103.250 E0.02975
G1 X79.750 Y102.513 E0.05764
G1 X79.750 Y101.976 F3000.000
G1 X81.025 Y103.250 E0.09972 F480.000
G1 E-1.50000 F1800.00000
G1 X80.599 Y102.287 F3000.000
G1 E1.50000 F1800.00000
G1 X79.750 Y101.438 E0.06642 F480.000
G1 X80.340 Y101.490 E0.03278
G1 X79.750 Y100.900 E0.04617
G1 X80.275 Y100.887 E0.02904
G1 X79.750 Y100.363 E0.04106
G1 X80.268 Y100.342 E0.02865
G1 X79.750 Y99.825 E0.04048
G1 X79.750 Y99.287 E0.02975
G1 X80.319 Y99.856 E0.04448
G1 X80.421 Y99.420 E0.02474
G1 X79.750 Y98.749 E0.05250
G1 X79.750 Y98.212 E0.02975
G1 X80.553 Y99.014 E0.06281
G1 X80.718 Y98.642 E0.02255
G1 X79.750 Y97.674 E0.07572
G1 X79.750 Y97.136 E0.02975
G1 X80.915 Y98.301 E0.09112
G1 X81.124 Y97.972 E0.02155
G1 X79.902 Y96.750 E0.09559
G1 X80.440 Y96.750 E0.02975
G1 X81.378 Y97.689 E0.07345
G1 X81.633 Y97.406 E0.02106
G1 X80.977 Y96.750 E0.05131
G1 X81.515 Y96.750 E0.02975
G1 X81.935 Y97.170 E0.03283
G1 X82.053 Y96.750 E0.02412
G1 X82.246 Y96.944 E0.01513
G1 E-1.50000 F1800.00000
G1 X87.061 Y96.750 F3000.000
G1 E1.50000 F1800.00000
G1 X88.804 Y98.493 E0.15180 F480.000
G1 X89.023 Y98.114 E0.02698
G1 X87.659 Y96.750 E0.11876
G1 X88.257 Y96.750 E0.03685
G1 X89.292 Y97.785 E0.09010
G1 X89.576 Y97.470 E0.02609
G1 X88.856 Y96.750 E0.06268
G1 X89.454 Y96.750 E0.03685
G1 X89.900 Y97.196 E0.03877
G1 X90.053 Y96.750 E0.02899
G1 X90.246 Y96.944 E0.01684
G1 E-1.50000 F1800.00000
G1 X88.390 Y98.678 F3000.000
G1 E1.50000 F1800.00000
G1 X88.580 Y98.868 E0.01656 F480.000
G1 E-1.50000 F1800.00000
G1 X94.769 Y96.770 F3000.000
G1 E1.50000 F1800.00000
G1 X95.018 Y97.020 E0.02091 F480.000
