; generated by Slic3r 1.2.9 on 2016-03-29 at 18:24:57

; external perimeters extrusion width = 0.65mm
; perimeters extrusion width = 0.65mm
; infill extrusion width = 0.65mm
; solid infill extrusion width = 0.65mm
; top infill extrusion width = 0.75mm

M107
M190 S50 ; set bed temperature
M201 X1000 Y1000 E600
M109 S210
M92 E161.3
G28
G92 E0.0
G1 X8.0 F2000
G1 Y60.0 E4.0  F1000.0
G1 Y100.0 E8.5  F1000.0
G92 E0.0
G21 ; set units to millimeters
G90 ; use absolute coordinates
M83 ; use relative distances for extrusion
G1 E-1.50000 F1800.00000
G1 Z0.250 F6000.000
G1 X18.443 Y67.232 F6000.000
G1 E1.50000 F1800.00000
G1 E0.05977 F1800.000 ; pressure advance
G1 X19.500 Y66.998 E0.05659 F1500.000
G1 X180.500 Y66.998 E8.41143
G1 X181.845 Y67.390 E0.07318
G1 X182.769 Y68.443 E0.07318
G1 X183.003 Y69.500 E0.05659
G1 X183.003 Y130.500 E3.18694
G1 X182.611 Y131.845 E0.07318
G1 X181.558 Y132.768 E0.07318
G1 X180.500 Y133.003 E0.05659
G1 X19.500 Y133.003 E8.41143
G1 X18.155 Y132.611 E0.07318
G1 X17.232 Y131.558 E0.07318
G1 X16.998 Y130.500 E0.05659
G1 X16.998 Y69.500 E3.18694
G1 X17.390 Y68.155 E0.07318
G1 X18.398 Y67.271 E0.07005
G1 E-0.05977 F1800.000 ; pressure discharge
G1 E-1.50000 F1800.00000
G1 X20.175 Y129.825 F6000.000
G1 E1.50000 F1800.00000
G1 E0.05379 F1800.000 ; pressure advance
G1 X20.175 Y70.175 E3.69731 F1200.000
G1 X179.825 Y70.175 E9.89564
G1 X179.825 Y129.825 E3.69731
G1 X20.235 Y129.825 E9.89192
G1 X19.775 Y129.825 F6000.000
G1 X19.825 Y130.175 F6000.000
G1 X19.825 Y69.825 E3.74069 F1200.000
G1 X180.175 Y69.825 E9.93903
G1 X180.175 Y130.175 E3.74069
G1 X19.885 Y130.175 E9.93531
G1 X20.025 Y129.829 F6000.000
M106 S252.45
G1 E-0.05379 F1800.000 ; pressure discharge
G1 E-1.50000 F1800.00000
G1 Z0.500 F6000.000
G1 X20.175 Y129.825 F6000.000
G1 E1.50000 F1800.00000
G1 E0.21515 F1800.000 ; pressure advance
G1 X20.175 Y70.175 E3.69731 F2400.000
G1 X179.825 Y70.175 E9.89564
G1 X179.825 Y129.825 E3.69731
G1 X20.235 Y129.825 E9.89192
G1 X19.775 Y129.825 F6000.000
G1 X19.825 Y130.175 F6000.000
G1 X19.825 Y69.825 E3.74069 F2400.000
G1 X180.175 Y69.825 E9.93903
G1 X180.175 Y130.175 E3.74069
G1 X19.885 Y130.175 E9.93531
G1 X20.025 Y129.829 F6000.000
G1 E-0.21515 F1800.000 ; pressure discharge
G1 E-1.50000 F1800.00000
G1 Z0.750 F6000.000
G1 X20.175 Y129.825 F6000.000
G1 E1.50000 F1800.00000
G1 X20.175 Y70.175 E3.69731 F2400.000
G1 X179.825 Y70.175 E9.89564
G1 X179.825 Y129.825 E3.69731
G1 X20.235 Y129.825 E9.89192
G1 X19.775 Y129.825 F6000.000
G1 X19.825 Y130.175 F6000.000
G1 X19.825 Y69.825 E3.74069 F2400.000
G1 X180.175 Y69.825 E9.93903
G1 X180.175 Y130.175 E3.74069
G1 X19.885 Y130.175 E9.93531
G1 X20.025 Y129.829 F6000.000
G1 E-1.50000 F1800.00000
G1 Z1.000 F6000.000
G1 X20.175 Y129.825 F6000.000
G1 E1.50000 F1800.00000
G1 X20.175 Y70.175 E3.69731 F2400.000
G1 X179.825 Y70.175 E9.89564
G1 X179.825 Y129.825 E3.69731
G1 X20.235 Y129.825 E9.89192
G1 X19.775 Y129.825 F6000.000
G1 X19.825 Y130.175 F6000.000
G1 X19.825 Y69.825 E3.74069 F2400.000
G1 X180.175 Y69.825 E9.93903
G1 X180.175 Y130.175 E3.74069
G1 X19.885 Y130.175 E9.93531
G1 X20.025 Y129.829 F6000.000
G1 E-1.50000 F1800.00000
G1 Z1.250 F6000.000
G1 X20.175 Y129.825 F6000.000
G1 E1.50000 F1800.00000
G1 X20.175 Y70.175 E3.69731 F2400.000
G1 X179.825 Y70.175 E9.89564
G1 X179.825 Y129.825 E3.69731
G1 X20.235 Y129.825 E9.89192
G1 X19.775 Y129.825 F6000.000
G1 X19.825 Y130.175 F6000.000
G1 X19.825 Y69.825 E3.74069 F2400.000
G1 X180.175 Y69.825 E9.93903
G1 X180.175 Y130.175 E3.74069
G1 X19.885 Y130.175 E9.93531
G1 X20.025 Y129.829 F6000.000
G1 E-1.50000 F1800.00000
G1 Z1.500 F6000.000
G1 X20.175 Y129.825 F6000.000
G1 E1.50000 F1800.00000
G1 X20.175 Y70.175 E3.69731 F2400.000
G1 X179.825 Y70.175 E9.89564
G1 X179.825 Y129.825 E3.69731
G1 X20.235 Y129.825 E9.89192
G1 X19.775 Y129.825 F6000.000
G1 X19.825 Y130.175 F6000.000
G1 X19.825 Y69.825 E3.74069 F2400.000
G1 X180.175 Y69.825 E9.93903
G1 X180.175 Y130.175 E3.74069
G1 X19.885 Y130.175 E9.93531
G1 X20.025 Y129.829 F6000.000
G1 E-1.50000 F1800.00000
G1 Z1.750 F6000.000
G1 X20.175 Y129.825 F6000.000
G1 E1.50000 F1800.00000
G1 X20.175 Y70.175 E3.69731 F2400.000
G1 X179.825 Y70.175 E9.89564
G1 X179.825 Y129.825 E3.69731
G1 X20.235 Y129.825 E9.89192
G1 X19.775 Y129.825 F6000.000
G1 X19.825 Y130.175 F6000.000
G1 X19.825 Y69.825 E3.74069 F2400.000
G1 X180.175 Y69.825 E9.93903
G1 X180.175 Y130.175 E3.74069
G1 X19.885 Y130.175 E9.93531
G1 X20.025 Y129.829 F6000.000
G1 E-1.50000 F1800.00000
G1 Z2.000 F6000.000
G1 X20.175 Y129.825 F6000.000
G1 E1.50000 F1800.00000
G1 X20.175 Y70.175 E3.69731 F2400.000
G1 X179.825 Y70.175 E9.89564
G1 X179.825 Y129.825 E3.69731
G1 X20.235 Y129.825 E9.89192
G1 X19.775 Y129.825 F6000.000
G1 X19.825 Y130.175 F6000.000
G1 X19.825 Y69.825 E3.74069 F2400.000
G1 X180.175 Y69.825 E9.93903
G1 X180.175 Y130.175 E3.74069
G1 X19.885 Y130.175 E9.93531
G1 X20.025 Y129.829 F6000.000
G1 E-1.50000 F1800.00000
G1 Z2.250 F6000.000
G1 X20.175 Y129.825 F6000.000
G1 E1.50000 F1800.00000
G1 X20.175 Y70.175 E3.69731 F2400.000
G1 X179.825 Y70.175 E9.89564
G1 X179.825 Y129.825 E3.69731
G1 X20.235 Y129.825 E9.89192
G1 X19.775 Y129.825 F6000.000
G1 X19.825 Y130.175 F6000.000
G1 X19.825 Y69.825 E3.74069 F2400.000
G1 X180.175 Y69.825 E9.93903
G1 X180.175 Y130.175 E3.74069
G1 X19.885 Y130.175 E9.93531
G1 X20.025 Y129.829 F6000.000
G1 E-1.50000 F1800.00000
G1 Z2.500 F6000.000
G1 X20.175 Y129.825 F6000.000
G1 E1.50000 F1800.00000
G1 X20.175 Y70.175 E3.69731 F2400.000
G1 X179.825 Y70.175 E9.89564
G1 X179.825 Y129.825 E3.69731
G1 X20.235 Y129.825 E9.89192
G1 X19.775 Y129.825 F6000.000
G1 X19.825 Y130.175 F6000.000
G1 X19.825 Y69.825 E3.74069 F2400.000
G1 X180.175 Y69.825 E9.93903
G1 X180.175 Y130.175 E3.74069
G1 X19.885 Y130.175 E9.93531
G1 X20.025 Y129.829 F6000.000
G1 E-1.50000 F1800.00000
G1 Z2.750 F6000.000
G1 X20.175 Y129.825 F6000.000
G1 E1.50000 F1800.00000
G1 X20.175 Y70.175 E3.69731 F2400.000
G1 X179.825 Y70.175 E9.89564
G1 X179.825 Y129.825 E3.69731
G1 X20.235 Y129.825 E9.89192
G1 X19.775 Y129.825 F6000.000
G1 X19.825 Y130.175 F6000.000
G1 X19.825 Y69.825 E3.74069 F2400.000
G1 X180.175 Y69.825 E9.93903
G1 X180.175 Y130.175 E3.74069
G1 X19.885 Y130.175 E9.93531
G1 X20.025 Y129.829 F6000.000
G1 E-1.50000 F1800.00000
G1 Z3.000 F6000.000
G1 X20.175 Y129.825 F6000.000
G1 E1.50000 F1800.00000
G1 X20.175 Y70.175 E3.69731 F2400.000
G1 X179.825 Y70.175 E9.89564
G1 X179.825 Y129.825 E3.69731
G1 X20.235 Y129.825 E9.89192
G1 X19.775 Y129.825 F6000.000
G1 X19.825 Y130.175 F6000.000
G1 X19.825 Y69.825 E3.74069 F2400.000
G1 X180.175 Y69.825 E9.93903
G1 X180.175 Y130.175 E3.74069
G1 X19.885 Y130.175 E9.93531
G1 X20.025 Y129.829 F6000.000
G1 E-1.50000 F1800.00000
G1 Z3.250 F6000.000
G1 X20.175 Y129.825 F6000.000
G1 E1.50000 F1800.00000
G1 X20.175 Y70.175 E3.69731 F2400.000
G1 X179.825 Y70.175 E9.89564
G1 X179.825 Y129.825 E3.69731
G1 X20.235 Y129.825 E9.89192
G1 X19.775 Y129.825 F6000.000
G1 X19.825 Y130.175 F6000.000
G1 X19.825 Y69.825 E3.74069 F2400.000
G1 X180.175 Y69.825 E9.93903
G1 X180.175 Y130.175 E3.74069
G1 X19.885 Y130.175 E9.93531
G1 X20.025 Y129.829 F6000.000
G1 E-1.50000 F1800.00000
G1 Z3.500 F6000.000
G1 X20.175 Y129.825 F6000.000
G1 E1.50000 F1800.00000
G1 X20.175 Y70.175 E3.69731 F2400.000
G1 X179.825 Y70.175 E9.89564
G1 X179.825 Y129.825 E3.69731
G1 X20.235 Y129.825 E9.89192
G1 X19.775 Y129.825 F6000.000
G1 X19.825 Y130.175 F6000.000
G1 X19.825 Y69.825 E3.74069 F2400.000
G1 X180.175 Y69.825 E9.93903
G1 X180.175 Y130.175 E3.74069
G1 X19.885 Y130.175 E9.93531
G1 X20.025 Y129.829 F6000.000
G1 E-1.50000 F1800.00000
G1 Z3.750 F6000.000
G1 X20.175 Y129.825 F6000.000
G1 E1.50000 F1800.00000
G1 X20.175 Y70.175 E3.69731 F2400.000
G1 X179.825 Y70.175 E9.89564
G1 X179.825 Y129.825 E3.69731
G1 X20.235 Y129.825 E9.89192
G1 X19.775 Y129.825 F6000.000
G1 X19.825 Y130.175 F6000.000
G1 X19.825 Y69.825 E3.74069 F2400.000
G1 X180.175 Y69.825 E9.93903
G1 X180.175 Y130.175 E3.74069
G1 X19.885 Y130.175 E9.93531
G1 X20.025 Y129.829 F6000.000
G1 E-1.50000 F1800.00000
G1 Z4.000 F6000.000
G1 X20.175 Y129.825 F6000.000
G1 E1.50000 F1800.00000
G1 X20.175 Y70.175 E3.69731 F2400.000
G1 X179.825 Y70.175 E9.89564
G1 X179.825 Y129.825 E3.69731
G1 X20.235 Y129.825 E9.89192
G1 X19.775 Y129.825 F6000.000
G1 X19.825 Y130.175 F6000.000
G1 X19.825 Y69.825 E3.74069 F2400.000
G1 X180.175 Y69.825 E9.93903
G1 X180.175 Y130.175 E3.74069
G1 X19.885 Y130.175 E9.93531
G1 X20.025 Y129.829 F6000.000
G1 E-1.50000 F1800.00000
G1 Z4.250 F6000.000
G1 X20.175 Y129.825 F6000.000
G1 E1.50000 F1800.00000
G1 X20.175 Y70.175 E3.69731 F2400.000
G1 X179.825 Y70.175 E9.89564
G1 X179.825 Y129.825 E3.69731
G1 X20.235 Y129.825 E9.89192
G1 X19.775 Y129.825 F6000.000
G1 X19.825 Y130.175 F6000.000
G1 X19.825 Y69.825 E3.74069 F2400.000
G1 X180.175 Y69.825 E9.93903
G1 X180.175 Y130.175 E3.74069
G1 X19.885 Y130.175 E9.93531
G1 X20.025 Y129.829 F6000.000
G1 E-1.50000 F1800.00000
G1 Z4.500 F6000.000
G1 X20.175 Y129.825 F6000.000
G1 E1.50000 F1800.00000
G1 X20.175 Y70.175 E3.69731 F2400.000
G1 X179.825 Y70.175 E9.89564
G1 X179.825 Y129.825 E3.69731
G1 X20.235 Y129.825 E9.89192
G1 X19.775 Y129.825 F6000.000
G1 X19.825 Y130.175 F6000.000
G1 X19.825 Y69.825 E3.74069 F2400.000
G1 X180.175 Y69.825 E9.93903
G1 X180.175 Y130.175 E3.74069
G1 X19.885 Y130.175 E9.93531
G1 X20.025 Y129.829 F6000.000
G1 E-1.50000 F1800.00000
G1 Z4.750 F6000.000
G1 X20.175 Y129.825 F6000.000
G1 E1.50000 F1800.00000
G1 X20.175 Y70.175 E3.69731 F2400.000
G1 X179.825 Y70.175 E9.89564
G1 X179.825 Y129.825 E3.69731
G1 X20.235 Y129.825 E9.89192
G1 X19.775 Y129.825 F6000.000
G1 X19.825 Y130.175 F6000.000
G1 X19.825 Y69.825 E3.74069 F2400.000
G1 X180.175 Y69.825 E9.93903
G1 X180.175 Y130.175 E3.74069
G1 X19.885 Y130.175 E9.93531
G1 X20.025 Y129.829 F6000.000
G1 E-1.50000 F1800.00000
G1 Z5.000 F6000.000
G1 X20.175 Y129.825 F6000.000
G1 E1.50000 F1800.00000
G1 X20.175 Y70.175 E3.69731 F2400.000
G1 X179.825 Y70.175 E9.89564
G1 X179.825 Y129.825 E3.69731
G1 X20.235 Y129.825 E9.89192
G1 X19.775 Y129.825 F6000.000
G1 X19.825 Y130.175 F6000.000
G1 X19.825 Y69.825 E3.74069 F2400.000
G1 X180.175 Y69.825 E9.93903
G1 X180.175 Y130.175 E3.74069
G1 X19.885 Y130.175 E9.93531
G1 X20.025 Y129.829 F6000.000
G1 E0.00000 F1800.000 ; pressure discharge
G1 E-1.50000 F1800.00000
M107
M104 S0 ; turn off temperature
M140 S0 ; turn off heatbed
G28 X0  ; home X axis
M84     ; disable motors
; filament used = 1114.8mm (2.7cm3)

; avoid_crossing_perimeters = 0
; bed_shape = 200.01x-0.00091,200.012x0.005409,200.01x0.006186,200.01x199.994,200.012x199.995,200.01x200.001,200.011x200.017,200.01x200.016,199.998x200.01,199.991x200.01,199.99x200.01,189.99x200.01,189.99x195.01,170.01x195.01,170.01x199.99,170.01x199.99,170.01x200,170.01x200.01,170x200.01,29.99x200.01,29.99x195.01,10.01x195.01,10.01x200.01,0.009509x200.01,0.009496x200.01,0.002241x200.01,-0.010875x200.017,-0.010069x200.001,-0.011561x199.995,-0.01001x199.994,-0.01001x0.006186,-0.011561x0.005409,-0.010069x-0.00091,-0.010875x-0.016628,0.002241x-0.01007,0.009496x-0.010256,0.009509x-0.01001,10.01x-0.01001,10.01x4.98999,29.99x4.98999,29.99x-0.01001,170x-0.01001,170.01x-0.010373,170.01x-8.9e-05,170.01x0.009652,170.01x0.009658,170.01x4.98999,189.99x4.98999,189.99x-0.01001,199.99x-0.01001,199.991x-0.010256,199.998x-0.01007,200.01x-0.016188,200.011x-0.016628
; bed_temperature = 50
; before_layer_gcode = 
; bridge_acceleration = 0
; bridge_fan_speed = 100
; brim_width = 0
; complete_objects = 0
; cooling = 1
; default_acceleration = 0
; disable_fan_first_layers = 1
; duplicate_distance = 6
; end_gcode = M104 S0 ; turn off temperature\nM140 S0 ; turn off heatbed\nG28 X0  ; home X axis\nM84     ; disable motors
; extruder_clearance_height = 20
; extruder_clearance_radius = 20
; extruder_offset = 0x0
; extrusion_axis = E
; extrusion_multiplier = 1
; fan_always_on = 1
; fan_below_layer_time = 100
; filament_colour = #FF14E2
; filament_diameter = 1.75
; first_layer_acceleration = 0
; first_layer_bed_temperature = 50
; first_layer_extrusion_width = 0
; first_layer_speed = 50%
; first_layer_temperature = 210
; gcode_arcs = 0
; gcode_comments = 0
; gcode_flavor = reprap
; infill_acceleration = 0
; infill_first = 0
; layer_gcode = 
; max_fan_speed = 100
; max_print_speed = 80
; max_volumetric_speed = 0
; min_fan_speed = 85
; min_print_speed = 5
; min_skirt_length = 4
; notes = 
; nozzle_diameter = 0.4
; only_retract_when_crossing_perimeters = 0
; ooze_prevention = 0
; output_filename_format = [input_filename_base].gcode
; perimeter_acceleration = 0
; post_process = 
; pressure_advance = 0.035
; resolution = 0
; retract_before_travel = 1
; retract_layer_change = 1
; retract_length = 1.5
; retract_length_toolchange = 3
; retract_lift = 0
; retract_restart_extra = 0
; retract_restart_extra_toolchange = 0
; retract_speed = 30
; skirt_distance = 2
; skirt_height = 1
; skirts = 1
; slowdown_below_layer_time = 20
; spiral_vase = 0
; standby_temperature_delta = -5
; start_gcode = M201 X1000 Y1000 E600\nM109 S[first_layer_temperature]\nM92 E161.3\nG28\nG92 E0.0\nG1 X8.0 F2000\nG1 Y60.0 E4.0  F1000.0\nG1 Y100.0 E8.5  F1000.0\nG92 E0.0
; temperature = 210
; threads = 1
; toolchange_gcode = 
; travel_speed = 100
; use_firmware_retraction = 0
; use_relative_e_distances = 1
; use_volumetric_e = 0
; vibration_limit = 0
; wipe = 0
; z_offset = 0
; dont_support_bridges = 1
; extrusion_width = 0.65
; first_layer_height = 0.25
; infill_only_where_needed = 0
; interface_shells = 0
; layer_height = 0.25
; raft_layers = 0
; seam_position = nearest
; support_material = 0
; support_material_angle = 0
; support_material_contact_distance = 0.1
; support_material_enforce_layers = 0
; support_material_extruder = 1
; support_material_extrusion_width = 0.6
; support_material_interface_extruder = 1
; support_material_interface_layers = 3
; support_material_interface_spacing = 0
; support_material_interface_speed = 100%
; support_material_pattern = rectilinear
; support_material_spacing = 1
; support_material_speed = 50
; support_material_threshold = 43
; xy_size_compensation = 0
; bottom_solid_layers = 4
; bridge_flow_ratio = 0.65
; bridge_speed = 15
; external_fill_pattern = rectilinear
; external_perimeter_extrusion_width = 0
; external_perimeter_speed = 40
; external_perimeters_first = 0
; extra_perimeters = 0
; fill_angle = 45
; fill_density = 22%
; fill_pattern = honeycomb
; gap_fill_speed = 20
; infill_every_layers = 1
; infill_extruder = 1
; infill_extrusion_width = 0
; infill_overlap = 0.1
; infill_speed = 55
; overhangs = 0
; perimeter_extruder = 1
; perimeter_extrusion_width = 0
; perimeter_speed = 40
; perimeters = 2
; small_perimeter_speed = 40
; solid_infill_below_area = 0
; solid_infill_every_layers = 0
; solid_infill_extruder = 1
; solid_infill_extrusion_width = 0
; solid_infill_speed = 40
; thin_walls = 0
; top_infill_extrusion_width = 0.75
; top_solid_infill_speed = 20
; top_solid_layers = 5
