; generated by Slic3r 1.2.9 on 2016-04-03 at 11:29:39

; external perimeters extrusion width = 0.45mm
; perimeters extrusion width = 0.45mm
; infill extrusion width = 0.45mm
; solid infill extrusion width = 0.45mm
; top infill extrusion width = 0.45mm

M107
M190 S50 ; set bed temperature
M201 X1000 Y1000 E600
M109 S210
M92 E161.3
G28
G92 E0.0
G1 X8.0 F2000
G1 Y60.0 E4.0  F1000.0
G1 Y100.0 E8.5  F1000.0
G92 E0.0
G21 ; set units to millimeters
G90 ; use absolute coordinates
M83 ; use relative distances for extrusion
G1 E-1.50000 F1800.00000
G1 Z0.200 F6000.000
G1 X31.792 Y54.656 F6000.000
G1 E1.50000 F1800.00000
G1 E0.04904 F1800.000 ; pressure advance
G1 X32.128 Y54.485 E0.01275 F2100.000
G1 X33.070 Y54.095 E0.03452
G1 X33.429 Y53.978 E0.01281
G1 X34.421 Y53.740 E0.03453
G1 X34.794 Y53.681 E0.01278
G1 X36.000 Y53.593 E0.04092
G1 X161.000 Y53.593 E4.23110
G1 X162.206 Y53.681 E0.04092
G1 X162.578 Y53.739 E0.01277
G1 X163.571 Y53.978 E0.03454
G1 X163.930 Y54.095 E0.01279
G1 X164.872 Y54.485 E0.03452
G1 X165.209 Y54.656 E0.01277
G1 X166.154 Y55.237 E0.03755
G1 X182.333 Y65.996 E0.65768
G1 X183.212 Y67.051 E0.04648
G1 X183.407 Y68.000 E0.03281
G1 X183.407 Y132.000 E2.16632
G1 X183.016 Y133.316 E0.04648
G1 X182.333 Y134.005 E0.03281
G1 X166.079 Y144.811 E0.66067
G1 X165.209 Y145.344 E0.03456
G1 X164.874 Y145.515 E0.01273
G1 X163.930 Y145.906 E0.03457
G1 X163.562 Y146.025 E0.01309
G1 X162.579 Y146.261 E0.03422
G1 X162.206 Y146.320 E0.01279
G1 X161.000 Y146.407 E0.04092
G1 X36.000 Y146.407 E4.23110
G1 X34.794 Y146.320 E0.04092
G1 X34.421 Y146.261 E0.01278
G1 X33.429 Y146.023 E0.03453
G1 X33.070 Y145.906 E0.01281
G1 X32.128 Y145.515 E0.03452
G1 X31.792 Y145.344 E0.01275
G1 X30.922 Y144.811 E0.03453
G1 X30.657 Y144.623 E0.01099
G1 X17.478 Y133.865 E0.57586
G1 X16.706 Y132.729 E0.04648
G1 X16.593 Y132.000 E0.02497
G1 X16.593 Y68.000 E2.16632
G1 X16.985 Y66.684 E0.04648
G1 X17.478 Y66.136 E0.02497
G1 X30.657 Y55.377 E0.57586
G1 X30.922 Y55.189 E0.01099
G1 X31.741 Y54.687 E0.03250
G1 E-0.04904 F1800.000 ; pressure discharge
G1 E-1.50000 F1800.00000
G1 X36.869 Y135.549 F6000.000
G1 E1.50000 F1800.00000
G1 E0.03144 F1800.000 ; pressure advance
G1 X37.256 Y135.772 E0.01512 F1680.000
G1 X37.588 Y136.071 E0.01513
G1 X37.849 Y136.432 E0.01509
G1 X38.032 Y136.840 E0.01512
G1 X38.124 Y137.277 E0.01512
G1 X38.124 Y137.723 E0.01510
G1 X38.032 Y138.160 E0.01512
G1 X37.849 Y138.568 E0.01512
G1 X37.588 Y138.929 E0.01509
G1 X37.256 Y139.228 E0.01513
G1 X36.869 Y139.451 E0.01512
G1 X36.444 Y139.589 E0.01510
G1 X36.000 Y139.636 E0.01512
G1 X35.556 Y139.589 E0.01512
G1 X35.132 Y139.451 E0.01510
G1 X34.745 Y139.228 E0.01512
G1 X34.413 Y138.929 E0.01513
G1 X34.151 Y138.568 E0.01509
G1 X33.969 Y138.160 E0.01512
G1 X33.876 Y137.723 E0.01512
G1 X33.876 Y137.277 E0.01510
G1 X33.969 Y136.840 E0.01512
G1 X34.151 Y136.432 E0.01512
G1 X34.413 Y136.071 E0.01509
G1 X34.745 Y135.772 E0.01513
G1 X35.132 Y135.549 E0.01512
G1 X35.556 Y135.411 E0.01510
G1 X36.000 Y135.365 E0.01512
G1 X36.444 Y135.411 E0.01512
G1 X36.812 Y135.531 E0.01307
G1 X36.702 Y135.923 F6000.000
G1 X37.015 Y136.104 E0.01223 F1680.000
G1 X37.283 Y136.345 E0.01222
G1 X37.495 Y136.637 E0.01220
G1 X37.642 Y136.967 E0.01222
G1 X37.717 Y137.320 E0.01222
G1 X37.717 Y137.681 E0.01221
G1 X37.642 Y138.034 E0.01222
G1 X37.495 Y138.363 E0.01222
G1 X37.283 Y138.655 E0.01220
G1 X37.015 Y138.897 E0.01222
G1 X36.702 Y139.077 E0.01223
G1 X36.359 Y139.189 E0.01221
G1 X36.000 Y139.226 E0.01222
G1 X35.641 Y139.189 E0.01222
G1 X35.298 Y139.077 E0.01220
G1 X34.985 Y138.897 E0.01223
G1 X34.717 Y138.655 E0.01222
G1 X34.505 Y138.363 E0.01220
G1 X34.358 Y138.034 E0.01222
G1 X34.283 Y137.681 E0.01222
G1 X34.283 Y137.320 E0.01221
G1 X34.358 Y136.967 E0.01222
G1 X34.505 Y136.637 E0.01222
G1 X34.717 Y136.345 E0.01220
G1 X34.985 Y136.104 E0.01222
G1 X35.298 Y135.923 E0.01223
G1 X35.641 Y135.812 E0.01221
G1 X36.000 Y135.774 E0.01222
G1 X36.359 Y135.812 E0.01222
G1 X36.645 Y135.905 E0.01017
G1 X37.002 Y135.721 F6000.000
G1 E-0.03144 F1800.000 ; pressure discharge
G1 E-1.50000 F1800.00000
G1 X41.868 Y131.632 F6000.000
G1 E1.50000 F1800.00000
G1 X41.868 Y137.475 E0.19778 F1680.000
G1 X41.794 Y138.418 E0.03200
G1 X41.579 Y139.313 E0.03116
G1 X41.227 Y140.163 E0.03115
G1 X40.746 Y140.948 E0.03115
G1 X40.148 Y141.648 E0.03116
G1 X39.441 Y142.250 E0.03145
G1 X38.663 Y142.727 E0.03087
G1 X37.813 Y143.079 E0.03115
G1 X36.918 Y143.294 E0.03116
G1 X36.000 Y143.366 E0.03116
G1 X35.082 Y143.294 E0.03116
G1 X34.187 Y143.079 E0.03116
G1 X33.337 Y142.727 E0.03115
G1 X32.552 Y142.246 E0.03116
G1 X31.853 Y141.648 E0.03114
G1 X31.254 Y140.948 E0.03117
G1 X30.773 Y140.163 E0.03115
G1 X30.421 Y139.313 E0.03115
G1 X30.206 Y138.418 E0.03116
G1 X30.132 Y137.475 E0.03200
G1 X30.132 Y131.632 E0.19778
G1 X41.808 Y131.632 E0.39521
G1 E-1.50000 F1800.00000
G1 X36.000 Y64.636 F6000.000
G1 E1.50000 F1800.00000
G1 X35.556 Y64.589 E0.01512 F1680.000
G1 X35.132 Y64.451 E0.01510
G1 X34.745 Y64.228 E0.01512
G1 X34.413 Y63.929 E0.01513
G1 X34.151 Y63.568 E0.01509
G1 X33.969 Y63.160 E0.01512
G1 X33.876 Y62.723 E0.01512
G1 X33.876 Y62.277 E0.01510
G1 X33.969 Y61.840 E0.01512
G1 X34.151 Y61.432 E0.01512
G1 X34.413 Y61.071 E0.01509
G1 X34.745 Y60.772 E0.01513
G1 X35.132 Y60.549 E0.01512
G1 X35.556 Y60.411 E0.01510
G1 X36.000 Y60.365 E0.01512
G1 X36.444 Y60.411 E0.01512
G1 X36.869 Y60.549 E0.01510
G1 X37.256 Y60.772 E0.01512
G1 X37.588 Y61.071 E0.01513
G1 X37.849 Y61.432 E0.01509
G1 X38.032 Y61.840 E0.01512
G1 X38.124 Y62.277 E0.01512
G1 X38.124 Y62.723 E0.01510
G1 X38.032 Y63.160 E0.01512
G1 X37.849 Y63.568 E0.01512
G1 X37.588 Y63.929 E0.01509
G1 X37.256 Y64.228 E0.01513
G1 X36.869 Y64.451 E0.01512
G1 X36.444 Y64.589 E0.01510
G1 X36.060 Y64.629 E0.01309
G1 X36.000 Y64.226 F6000.000
G1 X35.641 Y64.189 E0.01222 F1680.000
G1 X35.298 Y64.077 E0.01221
G1 X34.985 Y63.897 E0.01223
G1 X34.717 Y63.655 E0.01222
G1 X34.505 Y63.363 E0.01220
G1 X34.358 Y63.034 E0.01222
G1 X34.283 Y62.681 E0.01222
G1 X34.283 Y62.320 E0.01221
G1 X34.358 Y61.967 E0.01222
G1 X34.505 Y61.637 E0.01222
G1 X34.717 Y61.345 E0.01220
G1 X34.985 Y61.104 E0.01222
G1 X35.298 Y60.923 E0.01223
G1 X35.641 Y60.812 E0.01221
G1 X36.000 Y60.774 E0.01222
G1 X36.359 Y60.812 E0.01222
G1 X36.702 Y60.923 E0.01221
G1 X37.015 Y61.104 E0.01223
G1 X37.283 Y61.345 E0.01222
G1 X37.495 Y61.637 E0.01220
G1 X37.642 Y61.967 E0.01222
G1 X37.717 Y62.320 E0.01222
G1 X37.717 Y62.681 E0.01221
G1 X37.642 Y63.034 E0.01222
G1 X37.495 Y63.363 E0.01222
G1 X37.283 Y63.655 E0.01220
G1 X37.015 Y63.897 E0.01222
G1 X36.702 Y64.077 E0.01223
G1 X36.359 Y64.189 E0.01221
G1 X36.060 Y64.220 E0.01019
G1 X35.809 Y64.533 F6000.000
G1 E-1.50000 F1800.00000
G1 X30.132 Y68.368 F6000.000
G1 E1.50000 F1800.00000
G1 X30.132 Y62.525 E0.19778 F1680.000
G1 X30.206 Y61.583 E0.03200
G1 X30.421 Y60.687 E0.03116
G1 X30.773 Y59.837 E0.03115
G1 X31.254 Y59.052 E0.03115
G1 X31.853 Y58.352 E0.03117
G1 X32.552 Y57.755 E0.03114
G1 X33.337 Y57.274 E0.03116
G1 X34.187 Y56.921 E0.03115
G1 X35.082 Y56.706 E0.03116
G1 X36.000 Y56.634 E0.03116
G1 X36.918 Y56.706 E0.03116
G1 X37.813 Y56.921 E0.03116
G1 X38.663 Y57.274 E0.03115
G1 X39.448 Y57.755 E0.03116
G1 X40.148 Y58.352 E0.03114
G1 X40.746 Y59.052 E0.03117
G1 X41.227 Y59.837 E0.03115
G1 X41.579 Y60.687 E0.03115
G1 X41.794 Y61.583 E0.03116
G1 X41.868 Y62.525 E0.03200
G1 X41.868 Y68.368 E0.19778
G1 X30.192 Y68.368 E0.39521
G1 E-1.50000 F1800.00000
G1 X158.876 Y62.723 F6000.000
G1 E1.50000 F1800.00000
G1 X158.876 Y62.277 E0.01511 F1680.000
G1 X158.969 Y61.840 E0.01511
G1 X159.151 Y61.432 E0.01511
G1 X159.413 Y61.071 E0.01511
G1 X159.745 Y60.772 E0.01511
G1 X160.132 Y60.549 E0.01511
G1 X160.556 Y60.411 E0.01511
G1 X161.000 Y60.365 E0.01511
G1 X161.444 Y60.411 E0.01511
G1 X161.869 Y60.549 E0.01511
G1 X162.255 Y60.772 E0.01511
G1 X162.587 Y61.071 E0.01511
G1 X162.850 Y61.432 E0.01511
G1 X163.031 Y61.840 E0.01511
G1 X163.124 Y62.277 E0.01511
G1 X163.124 Y62.723 E0.01511
G1 X163.031 Y63.160 E0.01511
G1 X162.850 Y63.568 E0.01511
G1 X162.587 Y63.929 E0.01511
G1 X162.255 Y64.228 E0.01511
G1 X161.869 Y64.451 E0.01511
G1 X161.444 Y64.589 E0.01511
G1 X161.000 Y64.636 E0.01511
G1 X160.556 Y64.589 E0.01511
G1 X160.132 Y64.451 E0.01511
G1 X159.745 Y64.228 E0.01511
G1 X159.413 Y63.929 E0.01511
G1 X159.151 Y63.568 E0.01511
G1 X158.969 Y63.160 E0.01511
G1 X158.889 Y62.782 E0.01308
G1 X159.283 Y62.681 F6000.000
G1 X159.283 Y62.320 E0.01222 F1680.000
G1 X159.358 Y61.967 E0.01221
G1 X159.505 Y61.637 E0.01222
G1 X159.717 Y61.345 E0.01221
G1 X159.986 Y61.104 E0.01222
G1 X160.298 Y60.923 E0.01222
G1 X160.641 Y60.812 E0.01221
G1 X161.000 Y60.774 E0.01222
G1 X161.359 Y60.812 E0.01222
G1 X161.702 Y60.923 E0.01221
G1 X162.015 Y61.104 E0.01222
G1 X162.283 Y61.345 E0.01222
G1 X162.495 Y61.637 E0.01222
G1 X162.642 Y61.967 E0.01222
G1 X162.717 Y62.320 E0.01222
G1 X162.717 Y62.681 E0.01222
G1 X162.642 Y63.034 E0.01221
G1 X162.495 Y63.363 E0.01222
G1 X162.283 Y63.655 E0.01221
G1 X162.015 Y63.897 E0.01222
G1 X161.702 Y64.077 E0.01222
G1 X161.359 Y64.189 E0.01222
G1 X161.000 Y64.226 E0.01222
G1 X160.641 Y64.189 E0.01222
G1 X160.298 Y64.077 E0.01221
G1 X159.986 Y63.897 E0.01222
G1 X159.717 Y63.655 E0.01222
G1 X159.505 Y63.363 E0.01222
G1 X159.358 Y63.034 E0.01222
G1 X159.296 Y62.739 E0.01019
G1 X158.959 Y62.522 F6000.000
G1 E-1.50000 F1800.00000
G1 X155.132 Y68.368 F6000.000
G1 E1.50000 F1800.00000
G1 X155.132 Y62.525 E0.19778 F1680.000
G1 X155.206 Y61.583 E0.03200
G1 X155.421 Y60.688 E0.03116
G1 X155.774 Y59.837 E0.03116
G1 X156.255 Y59.052 E0.03116
G1 X156.852 Y58.352 E0.03116
G1 X157.552 Y57.755 E0.03116
G1 X158.337 Y57.274 E0.03116
G1 X159.188 Y56.921 E0.03116
G1 X160.082 Y56.707 E0.03114
G1 X161.009 Y56.635 E0.03147
G1 X161.918 Y56.706 E0.03086
G1 X162.813 Y56.921 E0.03116
G1 X163.663 Y57.274 E0.03116
G1 X164.448 Y57.755 E0.03116
G1 X165.148 Y58.352 E0.03116
G1 X165.740 Y59.046 E0.03086
G1 X166.227 Y59.838 E0.03147
G1 X166.579 Y60.688 E0.03114
G1 X166.794 Y61.583 E0.03116
G1 X166.868 Y62.525 E0.03200
G1 X166.868 Y68.368 E0.19778
G1 X155.192 Y68.368 E0.39521
G1 E-1.50000 F1800.00000
G1 X173.623 Y119.907 F6000.000
G1 E1.50000 F1800.00000
G1 X174.296 Y119.689 E0.02396 F1680.000
G1 X174.937 Y119.621 E0.02181
G1 X175.698 Y119.687 E0.02587
G1 X176.377 Y119.907 E0.02416
G1 X176.990 Y120.261 E0.02396
G1 X177.516 Y120.735 E0.02396
G1 X177.932 Y121.307 E0.02396
G1 X178.220 Y121.954 E0.02396
G1 X178.367 Y122.646 E0.02396
G1 X178.367 Y123.354 E0.02396
G1 X178.220 Y124.046 E0.02396
G1 X177.932 Y124.693 E0.02396
G1 X177.516 Y125.266 E0.02396
G1 X176.990 Y125.739 E0.02396
G1 X176.377 Y126.093 E0.02396
G1 X175.704 Y126.312 E0.02396
G1 X175.000 Y126.386 E0.02396
G1 X174.296 Y126.312 E0.02396
G1 X173.623 Y126.093 E0.02396
G1 X173.010 Y125.739 E0.02396
G1 X172.484 Y125.266 E0.02396
G1 X172.068 Y124.693 E0.02396
G1 X171.780 Y124.046 E0.02396
G1 X171.633 Y123.354 E0.02396
G1 X171.633 Y122.646 E0.02396
G1 X171.780 Y121.954 E0.02396
G1 X172.068 Y121.307 E0.02396
G1 X172.484 Y120.735 E0.02396
G1 X173.010 Y120.261 E0.02396
G1 X173.571 Y119.937 E0.02193
G1 X173.790 Y120.281 F6000.000
G1 X174.381 Y120.089 E0.02106 F1680.000
G1 X174.941 Y120.030 E0.01904
G1 X175.617 Y120.088 E0.02297
G1 X176.211 Y120.281 E0.02113
G1 X176.750 Y120.592 E0.02106
G1 X177.212 Y121.009 E0.02106
G1 X177.578 Y121.512 E0.02106
G1 X177.831 Y122.080 E0.02106
G1 X177.960 Y122.689 E0.02106
G1 X177.960 Y123.311 E0.02106
G1 X177.831 Y123.920 E0.02106
G1 X177.578 Y124.488 E0.02106
G1 X177.212 Y124.992 E0.02106
G1 X176.750 Y125.408 E0.02106
G1 X176.211 Y125.719 E0.02106
G1 X175.619 Y125.911 E0.02106
G1 X175.000 Y125.976 E0.02106
G1 X174.381 Y125.911 E0.02106
G1 X173.790 Y125.719 E0.02106
G1 X173.251 Y125.408 E0.02106
G1 X172.788 Y124.992 E0.02106
G1 X172.423 Y124.488 E0.02106
G1 X172.170 Y123.920 E0.02106
G1 X172.040 Y123.311 E0.02106
G1 X172.040 Y122.689 E0.02106
G1 X172.170 Y122.080 E0.02106
G1 X172.423 Y121.512 E0.02106
G1 X172.788 Y121.009 E0.02106
G1 X173.251 Y120.592 E0.02106
G1 X173.738 Y120.311 E0.01903
G1 X173.845 Y119.885 F6000.000
G1 E-1.50000 F1800.00000
G1 X174.296 Y118.312 F6000.000
G1 E1.50000 F1800.00000
G1 X173.623 Y118.093 E0.02396 F1680.000
G1 X173.010 Y117.739 E0.02396
G1 X172.484 Y117.266 E0.02396
G1 X172.068 Y116.693 E0.02396
G1 X171.780 Y116.046 E0.02396
G1 X171.633 Y115.354 E0.02396
G1 X171.633 Y114.646 E0.02396
G1 X171.780 Y113.954 E0.02396
G1 X172.068 Y113.307 E0.02396
G1 X172.484 Y112.735 E0.02396
G1 X173.010 Y112.261 E0.02396
G1 X173.623 Y111.907 E0.02396
G1 X174.296 Y111.689 E0.02396
G1 X174.937 Y111.621 E0.02181
G1 X175.698 Y111.687 E0.02587
G1 X176.377 Y111.907 E0.02416
G1 X176.990 Y112.261 E0.02396
G1 X177.516 Y112.735 E0.02396
G1 X177.932 Y113.307 E0.02396
G1 X178.220 Y113.954 E0.02396
G1 X178.367 Y114.646 E0.02396
G1 X178.367 Y115.354 E0.02396
G1 X178.220 Y116.046 E0.02396
G1 X177.932 Y116.693 E0.02396
G1 X177.516 Y117.266 E0.02396
G1 X176.990 Y117.739 E0.02396
G1 X176.377 Y118.093 E0.02396
G1 X175.704 Y118.312 E0.02396
G1 X175.000 Y118.386 E0.02396
G1 X174.356 Y118.318 E0.02193
G1 X174.381 Y117.911 F6000.000
G1 X173.790 Y117.719 E0.02106 F1680.000
G1 X173.251 Y117.408 E0.02106
G1 X172.788 Y116.992 E0.02106
G1 X172.423 Y116.488 E0.02106
G1 X172.170 Y115.920 E0.02106
G1 X172.040 Y115.311 E0.02106
G1 X172.040 Y114.689 E0.02106
G1 X172.170 Y114.080 E0.02106
G1 X172.423 Y113.512 E0.02106
G1 X172.788 Y113.009 E0.02106
G1 X173.251 Y112.592 E0.02106
G1 X173.790 Y112.281 E0.02106
G1 X174.381 Y112.089 E0.02106
G1 X174.941 Y112.030 E0.01904
G1 X175.617 Y112.088 E0.02297
G1 X176.211 Y112.281 E0.02113
G1 X176.750 Y112.592 E0.02106
G1 X177.212 Y113.009 E0.02106
G1 X177.578 Y113.512 E0.02106
G1 X177.831 Y114.080 E0.02106
G1 X177.960 Y114.689 E0.02106
G1 X177.960 Y115.311 E0.02106
G1 X177.831 Y115.920 E0.02106
G1 X177.578 Y116.488 E0.02106
G1 X177.212 Y116.992 E0.02106
G1 X176.750 Y117.408 E0.02106
G1 X176.211 Y117.719 E0.02106
G1 X175.619 Y117.911 E0.02106
G1 X175.000 Y117.976 E0.02106
G1 X174.441 Y117.918 E0.01903
G1 X174.104 Y118.199 F6000.000
G1 E-1.50000 F1800.00000
G1 X175.000 Y111.386 F6000.000
G1 E1.50000 F1800.00000
G1 X174.296 Y111.312 E0.02396 F1680.000
G1 X173.623 Y111.093 E0.02396
G1 X173.010 Y110.739 E0.02396
G1 X172.484 Y110.266 E0.02396
G1 X172.068 Y109.693 E0.02396
G1 X171.780 Y109.046 E0.02396
G1 X171.633 Y108.354 E0.02396
G1 X171.633 Y107.646 E0.02396
G1 X171.780 Y106.954 E0.02396
G1 X172.068 Y106.307 E0.02396
G1 X172.484 Y105.735 E0.02396
G1 X173.010 Y105.261 E0.02396
G1 X173.623 Y104.907 E0.02396
G1 X174.296 Y104.689 E0.02396
G1 X174.937 Y104.621 E0.02181
G1 X175.698 Y104.687 E0.02587
G1 X176.377 Y104.907 E0.02416
G1 X176.990 Y105.261 E0.02396
G1 X177.516 Y105.735 E0.02396
G1 X177.932 Y106.307 E0.02396
G1 X178.220 Y106.954 E0.02396
G1 X178.367 Y107.646 E0.02396
G1 X178.367 Y108.354 E0.02396
G1 X178.220 Y109.046 E0.02396
G1 X177.932 Y109.693 E0.02396
G1 X177.516 Y110.266 E0.02396
G1 X176.990 Y110.739 E0.02396
G1 X176.377 Y111.093 E0.02396
G1 X175.704 Y111.312 E0.02396
G1 X175.060 Y111.379 E0.02193
G1 X175.000 Y110.976 F6000.000
G1 X174.381 Y110.911 E0.02106 F1680.000
G1 X173.790 Y110.719 E0.02106
G1 X173.251 Y110.408 E0.02106
G1 X172.788 Y109.992 E0.02106
G1 X172.423 Y109.488 E0.02106
G1 X172.170 Y108.920 E0.02106
G1 X172.040 Y108.311 E0.02106
G1 X172.040 Y107.689 E0.02106
G1 X172.170 Y107.080 E0.02106
G1 X172.423 Y106.512 E0.02106
G1 X172.788 Y106.009 E0.02106
G1 X173.251 Y105.592 E0.02106
G1 X173.790 Y105.281 E0.02106
G1 X174.381 Y105.089 E0.02106
G1 X174.941 Y105.030 E0.01904
G1 X175.617 Y105.088 E0.02297
G1 X176.211 Y105.281 E0.02113
G1 X176.750 Y105.592 E0.02106
G1 X177.212 Y106.009 E0.02106
G1 X177.578 Y106.512 E0.02106
G1 X177.831 Y107.080 E0.02106
G1 X177.960 Y107.689 E0.02106
G1 X177.960 Y108.311 E0.02106
G1 X177.831 Y108.920 E0.02106
G1 X177.578 Y109.488 E0.02106
G1 X177.212 Y109.992 E0.02106
G1 X176.750 Y110.408 E0.02106
G1 X176.211 Y110.719 E0.02106
G1 X175.619 Y110.911 E0.02106
G1 X175.060 Y110.970 E0.01903
G1 X174.788 Y111.316 F6000.000
G1 E-1.50000 F1800.00000
G1 X175.000 Y103.386 F6000.000
G1 E1.50000 F1800.00000
