; generated by Slic3r 1.2.9 on 2016-08-16 at 14:54:23

; external perimeters extrusion width = 0.45mm
; perimeters extrusion width = 0.45mm
; infill extrusion width = 0.45mm
; solid infill extrusion width = 0.45mm
; top infill extrusion width = 0.40mm

M107
M83  ; extruder relative mode
M104 S210 ; set extruder temp
M140 S55 ; set bed temp
M190 S55 ; wait for bed temp
M109 S210 ; wait for extruder temp
G28 W ; home all without mesh bed level
G80 ; mesh bed leveling
G1 Y-3.0 F1000.0 ; go outside pritn area
G1 X60.0 E9.0  F1000.0 ; intro line
G1 X100.0 E12.5  F1000.0 ; intro line
G21 ; set units to millimeters
G90 ; use absolute coordinates
M83 ; use relative distances for extrusion
G1 E-0.80000 F2100.00000
G1 Z0.150 F7200.000
G1 X42.207 Y26.648 F7200.000
G1 E0.80000 F2100.00000
M204 S1000
G1 X42.428 Y26.345 E0.00907 F1200.000
G1 X42.938 Y25.748 E0.01899
G1 X43.202 Y25.484 E0.00903
G1 X43.799 Y24.974 E0.01899
G1 X44.102 Y24.754 E0.00907
G1 X44.771 Y24.344 E0.01897
G1 X45.103 Y24.174 E0.00903
G1 X45.830 Y23.873 E0.01901
G1 X46.186 Y23.758 E0.00906
G1 X46.949 Y23.575 E0.01898
G1 X47.319 Y23.516 E0.00905
G1 X48.288 Y23.447 E0.02351
G1 X119.288 Y23.447 E1.71713
G1 X120.258 Y23.516 E0.02351
G1 X120.628 Y23.575 E0.00905
G1 X121.391 Y23.758 E0.01897
G1 X121.747 Y23.873 E0.00905
G1 X122.472 Y24.174 E0.01899
G1 X122.806 Y24.344 E0.00906
G1 X123.475 Y24.754 E0.01897
G1 X123.778 Y24.974 E0.00907
G1 X124.451 Y25.552 E0.02146
G1 X222.990 Y117.338 E3.25684
G1 X223.687 Y118.131 E0.02554
G1 X223.908 Y118.435 E0.00907
G1 X224.318 Y119.104 E0.01897
G1 X224.488 Y119.437 E0.00906
G1 X224.788 Y120.162 E0.01898
G1 X224.904 Y120.519 E0.00907
G1 X225.087 Y121.282 E0.01898
G1 X225.145 Y121.652 E0.00905
G1 X225.214 Y122.621 E0.02351
G1 X225.214 Y173.621 E1.23343
G1 X225.145 Y174.591 E0.02351
G1 X225.087 Y174.961 E0.00906
G1 X224.904 Y175.724 E0.01897
G1 X224.788 Y176.080 E0.00907
G1 X224.488 Y176.805 E0.01898
G1 X224.318 Y177.139 E0.00906
G1 X223.908 Y177.808 E0.01898
G1 X223.687 Y178.111 E0.00906
G1 X223.178 Y178.708 E0.01898
G1 X222.913 Y178.972 E0.00905
G1 X222.316 Y179.482 E0.01898
G1 X222.013 Y179.702 E0.00906
G1 X221.344 Y180.112 E0.01897
G1 X221.011 Y180.282 E0.00906
G1 X220.286 Y180.582 E0.01898
G1 X219.929 Y180.698 E0.00907
G1 X219.166 Y180.881 E0.01898
G1 X218.796 Y180.940 E0.00905
G1 X217.827 Y181.009 E0.02351
G1 X146.827 Y181.009 E1.71713
G1 X145.857 Y180.940 E0.02351
G1 X145.487 Y180.881 E0.00905
G1 X144.724 Y180.698 E0.01897
G1 X144.368 Y180.582 E0.00907
G1 X143.643 Y180.282 E0.01898
G1 X143.309 Y180.112 E0.00906
G1 X142.640 Y179.702 E0.01897
G1 X142.337 Y179.482 E0.00906
G1 X141.664 Y178.904 E0.02146
G1 X43.125 Y87.118 E3.25684
G1 X42.428 Y86.325 E0.02554
G1 X42.207 Y86.021 E0.00907
G1 X41.797 Y85.351 E0.01901
G1 X41.627 Y85.019 E0.00902
G1 X41.327 Y84.294 E0.01898
G1 X41.211 Y83.937 E0.00907
G1 X41.028 Y83.174 E0.01897
G1 X40.970 Y82.804 E0.00906
G1 X40.901 Y81.835 E0.02351
G1 X40.901 Y30.835 E1.23343
G1 X40.970 Y29.865 E0.02351
G1 X41.028 Y29.495 E0.00906
G1 X41.212 Y28.731 E0.01900
G1 X41.327 Y28.376 E0.00904
G1 X41.628 Y27.650 E0.01899
G1 X41.798 Y27.317 E0.00904
G1 X42.176 Y26.699 E0.01752
G1 F5760
G1 X42.428 Y26.345 E-0.15055
G1 F5760
G1 X42.938 Y25.748 E-0.27194
G1 F5760
G1 X43.202 Y25.484 E-0.12936
G1 F5760
G1 X43.659 Y25.094 E-0.20815
G1 E-0.04000 F2100.00000
G1 X91.522 Y53.534 F7200.000
G1 E0.80000 F2100.00000
G1 X91.770 Y52.768 E0.01947 F480.000
G1 X92.173 Y52.071 E0.01947
G1 X92.712 Y51.473 E0.01947
G1 X93.363 Y51.000 E0.01947
G1 X94.098 Y50.672 E0.01947
G1 X94.886 Y50.505 E0.01947
G1 X95.691 Y50.505 E0.01947
G1 X96.479 Y50.672 E0.01947
G1 X97.214 Y51.000 E0.01947
G1 X97.865 Y51.473 E0.01947
G1 X98.404 Y52.071 E0.01947
G1 X98.807 Y52.768 E0.01947
G1 X99.055 Y53.534 E0.01947
G1 X99.140 Y54.335 E0.01947
G1 X99.055 Y55.135 E0.01947
G1 X98.807 Y55.901 E0.01947
G1 X98.404 Y56.598 E0.01947
G1 X97.865 Y57.197 E0.01947
G1 X97.214 Y57.670 E0.01947
G1 X96.479 Y57.997 E0.01947
G1 X95.691 Y58.165 E0.01947
G1 X94.886 Y58.165 E0.01947
G1 X94.098 Y57.997 E0.01947
G1 X93.363 Y57.670 E0.01947
G1 X92.712 Y57.197 E0.01947
G1 X92.173 Y56.598 E0.01947
G1 X91.770 Y55.901 E0.01947
G1 X91.522 Y55.135 E0.01947
G1 X91.437 Y54.335 E0.01947
G1 X91.515 Y53.594 E0.01802
G1 X91.903 Y53.615 F7200.000
G1 X92.127 Y52.927 E0.01750 F480.000
G1 X92.488 Y52.300 E0.01750
G1 X92.973 Y51.763 E0.01750
G1 X93.558 Y51.337 E0.01750
G1 X94.219 Y51.043 E0.01750
G1 X94.927 Y50.893 E0.01750
G1 X95.650 Y50.893 E0.01750
G1 X96.358 Y51.043 E0.01750
G1 X97.019 Y51.337 E0.01750
G1 X97.604 Y51.763 E0.01750
G1 X98.089 Y52.300 E0.01750
G1 X98.450 Y52.927 E0.01750
G1 X98.674 Y53.615 E0.01750
G1 X98.750 Y54.335 E0.01750
G1 X98.674 Y55.054 E0.01750
G1 X98.450 Y55.743 E0.01750
G1 X98.089 Y56.369 E0.01750
G1 X97.604 Y56.907 E0.01750
G1 X97.019 Y57.332 E0.01750
G1 X96.358 Y57.627 E0.01750
G1 X95.650 Y57.777 E0.01750
G1 X94.927 Y57.777 E0.01750
G1 X94.219 Y57.627 E0.01750
G1 X93.558 Y57.332 E0.01750
G1 X92.973 Y56.907 E0.01750
G1 X92.488 Y56.369 E0.01750
G1 X92.127 Y55.743 E0.01750
G1 X91.903 Y55.054 E0.01750
G1 X91.827 Y54.335 E0.01750
G1 X91.897 Y53.675 E0.01605
G1 X91.615 Y53.337 F7200.000
G1 F5760
G1 X92.127 Y52.927 E-0.27098
G1 F5760
G1 X92.488 Y52.300 E-0.25062
G1 F5760
G1 X92.949 Y51.789 E-0.23841
G1 E-0.04000 F2100.00000
G1 X119.267 Y26.433 F7200.000
G1 E0.80000 F2100.00000
G1 X119.977 Y26.489 E0.01722 F480.000
G1 X120.648 Y26.650 E0.01670
G1 X121.286 Y26.914 E0.01670
G1 X121.875 Y27.275 E0.01670
G1 X122.400 Y27.723 E0.01670
G1 X122.848 Y28.248 E0.01670
G1 X123.209 Y28.837 E0.01670
G1 X123.473 Y29.473 E0.01665
G1 X123.635 Y30.147 E0.01675
G1 X123.691 Y30.858 E0.01727
G1 X123.691 Y81.811 E1.23229
G1 X123.635 Y82.523 E0.01727
G1 X123.474 Y83.193 E0.01665
G1 X123.209 Y83.833 E0.01675
G1 X122.848 Y84.421 E0.01669
G1 X122.400 Y84.946 E0.01670
G1 X121.875 Y85.395 E0.01670
G1 X121.286 Y85.756 E0.01670
G1 X120.648 Y86.020 E0.01670
G1 X119.977 Y86.181 E0.01670
G1 X119.265 Y86.237 E0.01727
G1 X48.312 Y86.237 E1.71599
G1 X47.600 Y86.181 E0.01727
G1 X46.929 Y86.020 E0.01670
G1 X46.291 Y85.756 E0.01670
G1 X45.702 Y85.395 E0.01670
G1 X45.177 Y84.946 E0.01670
G1 X44.729 Y84.421 E0.01670
G1 X44.368 Y83.833 E0.01670
G1 X44.103 Y83.195 E0.01670
G1 X43.942 Y82.523 E0.01670
G1 X43.886 Y81.811 E0.01727
G1 X43.886 Y30.858 E1.23229
G1 X43.942 Y30.146 E0.01727
G1 X44.103 Y29.477 E0.01665
G1 X44.368 Y28.837 E0.01675
G1 X44.729 Y28.248 E0.01669
G1 X45.177 Y27.723 E0.01670
G1 X45.702 Y27.275 E0.01670
G1 X46.291 Y26.914 E0.01670
G1 X46.929 Y26.650 E0.01670
G1 X47.600 Y26.489 E0.01670
G1 X48.312 Y26.433 E0.01727
G1 X119.207 Y26.433 E1.71459
G1 X119.282 Y26.045 F7200.000
G1 X120.038 Y26.104 E0.01832 F720.000
G1 X120.768 Y26.280 E0.01818
G1 X121.463 Y26.567 E0.01818
G1 X122.104 Y26.960 E0.01817
G1 X122.675 Y27.448 E0.01818
G1 X123.163 Y28.020 E0.01818
G1 X123.556 Y28.660 E0.01817
G1 X123.843 Y29.353 E0.01813
G1 X124.019 Y30.086 E0.01823
G1 X124.078 Y30.843 E0.01838
G1 X124.078 Y81.827 E1.23303
G1 X124.019 Y82.584 E0.01838
G1 X123.844 Y83.313 E0.01812
G1 X123.556 Y84.009 E0.01823
G1 X123.163 Y84.650 E0.01817
G1 X122.675 Y85.221 E0.01818
G1 X122.104 Y85.709 E0.01818
G1 X121.463 Y86.102 E0.01817
G1 X120.768 Y86.390 E0.01818
G1 X120.038 Y86.565 E0.01818
G1 X119.280 Y86.625 E0.01838
G1 X48.297 Y86.625 E1.71673
G1 X47.539 Y86.565 E0.01838
G1 X46.808 Y86.390 E0.01818
G1 X46.114 Y86.102 E0.01818
G1 X45.473 Y85.709 E0.01817
G1 X44.902 Y85.221 E0.01818
G1 X44.414 Y84.650 E0.01818
G1 X44.021 Y84.009 E0.01817
G1 X43.734 Y83.315 E0.01818
G1 X43.558 Y82.584 E0.01818
G1 X43.498 Y81.827 E0.01838
G1 X43.498 Y30.843 E1.23303
G1 X43.558 Y30.086 E0.01838
G1 X43.733 Y29.357 E0.01812
G1 X44.021 Y28.660 E0.01823
G1 X44.414 Y28.020 E0.01817
G1 X44.902 Y27.448 E0.01818
G1 X45.473 Y26.960 E0.01818
G1 X46.114 Y26.567 E0.01817
G1 X46.808 Y26.280 E0.01818
G1 X47.539 Y26.104 E0.01818
G1 X48.297 Y26.045 E0.01838
G1 X119.222 Y26.045 E1.71533
G1 X119.464 Y26.401 F7200.000
G1 F5760
G1 X120.038 Y26.104 E-0.28314
G1 F5760
G1 X120.768 Y26.280 E-0.26029
G1 F5760
G1 X121.346 Y26.519 E-0.21657
G1 E-0.04000 F2100.00000
G1 X120.560 Y26.900 F7200.000
G1 E0.80000 F2100.00000
G1 X123.223 Y29.564 E0.09126 F960.000
G1 X123.412 Y30.302 E0.01846
G1 X119.821 Y26.711 E0.12303
G1 X119.225 Y26.664 E0.01449
G1 X123.459 Y30.898 E0.14507
G1 X123.463 Y31.452 E0.01342
G1 X118.671 Y26.660 E0.16419
G1 X118.122 Y26.660 E0.01331
G1 X123.463 Y32.001 E0.18301
G1 X123.463 Y32.551 E0.01331
G1 X117.573 Y26.660 E0.20184
G1 X117.023 Y26.660 E0.01331
G1 X123.463 Y33.100 E0.22066
G1 X123.463 Y33.650 E0.01331
G1 X116.474 Y26.660 E0.23949
G1 X115.924 Y26.660 E0.01331
G1 X123.463 Y34.199 E0.25832
G1 X123.463 Y34.749 E0.01331
G1 X115.375 Y26.660 E0.27714
G1 X114.825 Y26.660 E0.01331
G1 X123.463 Y35.298 E0.29597
G1 X123.463 Y35.847 E0.01331
G1 X114.276 Y26.660 E0.31479
G1 X113.727 Y26.660 E0.01331
G1 X123.463 Y36.397 E0.33362
G1 X123.463 Y36.946 E0.01331
G1 X113.177 Y26.660 E0.35244
G1 X112.628 Y26.660 E0.01331
G1 X123.463 Y37.496 E0.37127
G1 X123.463 Y38.045 E0.01331
G1 X112.078 Y26.660 E0.39009
G1 X111.529 Y26.660 E0.01331
G1 X123.463 Y38.595 E0.40892
G1 X123.463 Y39.144 E0.01331
G1 X110.979 Y26.660 E0.42775
G1 X110.430 Y26.660 E0.01331
G1 X123.463 Y39.693 E0.44657
G1 X123.463 Y40.243 E0.01331
G1 X109.881 Y26.660 E0.46540
G1 X109.331 Y26.660 E0.01331
G1 X123.463 Y40.792 E0.48422
G1 X123.463 Y41.342 E0.01331
G1 X108.782 Y26.660 E0.50305
G1 X108.232 Y26.660 E0.01331
G1 X123.463 Y41.891 E0.52187
G1 X123.463 Y42.441 E0.01331
G1 X107.683 Y26.660 E0.54070
G1 X107.133 Y26.660 E0.01331
G1 X123.463 Y42.990 E0.55952
G1 X123.463 Y43.539 E0.01331
G1 X106.584 Y26.660 E0.57835
G1 X106.035 Y26.660 E0.01331
G1 X123.463 Y44.089 E0.59718
G1 X123.463 Y44.638 E0.01331
G1 X105.485 Y26.660 E0.61600
G1 X104.936 Y26.660 E0.01331
G1 X123.463 Y45.188 E0.63483
G1 X123.463 Y45.737 E0.01331
G1 X104.386 Y26.660 E0.65365
G1 X103.837 Y26.660 E0.01331
G1 X123.463 Y46.287 E0.67248
G1 X123.463 Y46.836 E0.01331
G1 X103.287 Y26.660 E0.69130
G1 X102.738 Y26.660 E0.01331
G1 X123.463 Y47.385 E0.71013
G1 X123.463 Y47.935 E0.01331
G1 X102.189 Y26.660 E0.72895
G1 X101.639 Y26.660 E0.01331
G1 X123.463 Y48.484 E0.74778
G1 X123.463 Y49.034 E0.01331
G1 X101.090 Y26.660 E0.76661
G1 X100.540 Y26.660 E0.01331
G1 X123.463 Y49.583 E0.78543
G1 X123.463 Y50.133 E0.01331
G1 X99.991 Y26.660 E0.80426
G1 X99.441 Y26.660 E0.01331
G1 X123.463 Y50.682 E0.82308
G1 X123.463 Y51.231 E0.01331
G1 X98.892 Y26.660 E0.84191
G1 X98.343 Y26.660 E0.01331
G1 X123.463 Y51.781 E0.86073
G1 X123.463 Y52.330 E0.01331
G1 X97.793 Y26.660 E0.87956
G1 X97.244 Y26.660 E0.01331
G1 X123.463 Y52.880 E0.89838
G1 X123.463 Y53.429 E0.01331
G1 X96.694 Y26.660 E0.91721
G1 X96.145 Y26.660 E0.01331
G1 X123.463 Y53.979 E0.93604
G1 X123.463 Y54.528 E0.01331
G1 X95.595 Y26.660 E0.95486
G1 X95.046 Y26.660 E0.01331
G1 X123.463 Y55.077 E0.97369
G1 X123.463 Y55.627 E0.01331
G1 X94.497 Y26.660 E0.99251
G1 X93.947 Y26.660 E0.01331
G1 X123.463 Y56.176 E1.01134
G1 X123.463 Y56.726 E0.01331
G1 X93.398 Y26.660 E1.03016
G1 X92.848 Y26.660 E0.01331
G1 X123.463 Y57.275 E1.04899
G1 X123.463 Y57.825 E0.01331
G1 X92.299 Y26.660 E1.06781
G1 X91.749 Y26.660 E0.01331
G1 X123.463 Y58.374 E1.08664
G1 X123.463 Y58.923 E0.01331
G1 X91.200 Y26.660 E1.10547
G1 X90.651 Y26.660 E0.01331
G1 X123.463 Y59.473 E1.12429
G1 X123.463 Y60.022 E0.01331
G1 X90.101 Y26.660 E1.14312
G1 X89.552 Y26.660 E0.01331
G1 X123.463 Y60.572 E1.16194
G1 X123.463 Y61.121 E0.01331
G1 X89.002 Y26.660 E1.18077
G1 X88.453 Y26.660 E0.01331
G1 X123.463 Y61.671 E1.19959
G1 X123.463 Y62.220 E0.01331
G1 X87.903 Y26.660 E1.21842
G1 X87.354 Y26.660 E0.01331
G1 X123.463 Y62.769 E1.23724
G1 X123.463 Y63.319 E0.01331
G1 X86.805 Y26.660 E1.25607
G1 X86.255 Y26.660 E0.01331
G1 X123.463 Y63.868 E1.27490
G1 X123.463 Y64.418 E0.01331
G1 X85.706 Y26.660 E1.29372
G1 X85.156 Y26.660 E0.01331
G1 X123.463 Y64.967 E1.31255
G1 X123.463 Y65.517 E0.01331
G1 X84.607 Y26.660 E1.33137
G1 X84.057 Y26.660 E0.01331
G1 X123.463 Y66.066 E1.35020
G1 X123.463 Y66.615 E0.01331
G1 X83.508 Y26.660 E1.36902
G1 X82.959 Y26.660 E0.01331
G1 X123.463 Y67.165 E1.38785
G1 X123.463 Y67.714 E0.01331
G1 X82.409 Y26.660 E1.40667
G1 X81.860 Y26.660 E0.01331
G1 X123.463 Y68.264 E1.42550
G1 X123.463 Y68.813 E0.01331
G1 X81.310 Y26.660 E1.44433
G1 X80.761 Y26.660 E0.01331
G1 X123.463 Y69.363 E1.46315
G1 X123.463 Y69.912 E0.01331
G1 X80.211 Y26.660 E1.48198
G1 X79.662 Y26.660 E0.01331
G1 X123.463 Y70.461 E1.50080
G1 X123.463 Y71.011 E0.01331
G1 X79.113 Y26.660 E1.51963
G1 X78.563 Y26.660 E0.01331
G1 X123.463 Y71.560 E1.53845
G1 X123.463 Y72.110 E0.01331
G1 X78.014 Y26.660 E1.55728
G1 X77.464 Y26.660 E0.01331
G1 X123.463 Y72.659 E1.57610
G1 X123.463 Y73.209 E0.01331
G1 X76.915 Y26.660 E1.59493
G1 X76.365 Y26.660 E0.01331
G1 X123.463 Y73.758 E1.61376
G1 X123.463 Y74.307 E0.01331
G1 X75.816 Y26.660 E1.63258
G1 X75.267 Y26.660 E0.01331
G1 X123.463 Y74.857 E1.65141
G1 X123.463 Y75.406 E0.01331
G1 X74.717 Y26.660 E1.67023
G1 X74.168 Y26.660 E0.01331
G1 X123.463 Y75.956 E1.68906
G1 X123.463 Y76.505 E0.01331
G1 X73.618 Y26.660 E1.70788
G1 X73.069 Y26.660 E0.01331
G1 X97.036 Y50.627 E0.82120
G1 X96.226 Y50.367 E0.02061
G1 X72.519 Y26.660 E0.81229
G1 X71.970 Y26.660 E0.01331
G1 X95.587 Y50.277 E0.80922
G1 X95.038 Y50.277 E0.01331
G1 X71.421 Y26.660 E0.80922
G1 X70.871 Y26.660 E0.01331
G1 X94.567 Y50.356 E0.81191
G1 X94.114 Y50.452 E0.01122
G1 X70.322 Y26.660 E0.81521
G1 X69.772 Y26.660 E0.01331
G1 X93.729 Y50.617 E0.82085
G1 X93.349 Y50.786 E0.01008
G1 X69.223 Y26.660 E0.82665
G1 X68.673 Y26.660 E0.01331
G1 X93.021 Y51.007 E0.83424
G1 X92.703 Y51.239 E0.00953
G1 X68.124 Y26.660 E0.84216
G1 X67.575 Y26.660 E0.01331
G1 X92.421 Y51.506 E0.85134
G1 X92.161 Y51.796 E0.00943
G1 X67.025 Y26.660 E0.86124
G1 X66.476 Y26.660 E0.01331
G1 X91.924 Y52.108 E0.87195
G1 X91.723 Y52.456 E0.00974
G1 X65.926 Y26.660 E0.88388
G1 X65.377 Y26.660 E0.01331
G1 X91.537 Y52.820 E0.89635
G1 X91.402 Y53.235 E0.01056
G1 X64.827 Y26.660 E0.91056
G1 X64.278 Y26.660 E0.01331
G1 X91.287 Y53.669 E0.92543
G1 X91.235 Y54.166 E0.01211
G1 X63.729 Y26.660 E0.94247
G1 X63.179 Y26.660 E0.01331
G1 X91.240 Y54.721 E0.96148
G1 X91.322 Y55.352 E0.01542
G1 X62.630 Y26.660 E0.98311
G1 X62.080 Y26.660 E0.01331
G1 X91.620 Y56.200 E1.01214
G1 F5760
G1 X90.068 Y54.648 E-0.76000
G1 E-0.04000 F2100.00000
G1 X93.400 Y57.980 F7200.000
G1 E0.80000 F2100.00000
G1 X121.053 Y85.633 E0.94751 F960.000
G1 X121.416 Y85.446 E0.00988
G1 X94.251 Y58.282 E0.93075
G1 X94.911 Y58.392 E0.01621
G1 X121.756 Y85.237 E0.91981
G1 X122.055 Y84.986 E0.00945
G1 X95.461 Y58.392 E0.91122
G1 X95.945 Y58.328 E0.01185
G1 X122.331 Y84.713 E0.90405
G1 X122.591 Y84.424 E0.00942
G1 X96.399 Y58.231 E0.89747
G1 X96.794 Y58.077 E0.01028
G1 X122.816 Y84.099 E0.89160
G1 X123.022 Y83.756 E0.00970
G1 X97.174 Y57.908 E0.88565
G1 X97.511 Y57.695 E0.00965
G1 X123.183 Y83.367 E0.87963
G1 X123.316 Y82.951 E0.01060
G1 X97.829 Y57.464 E0.87327
G1 X98.119 Y57.204 E0.00943
G1 X123.415 Y82.500 E0.86673
G1 X123.455 Y81.991 E0.01238
G1 X98.379 Y56.915 E0.85918
G1 X98.625 Y56.611 E0.00947
G1 X123.463 Y81.450 E0.85107
G1 X123.463 Y80.900 E0.01331
G1 X98.826 Y56.263 E0.84418
G1 X99.021 Y55.909 E0.00980
G1 X123.463 Y80.351 E0.83750
G1 X123.463 Y79.802 E0.01331
G1 X99.156 Y55.494 E0.83288
G1 X99.283 Y55.071 E0.01069
G1 X123.463 Y79.252 E0.82852
G1 X123.463 Y78.703 E0.01331
G1 X99.335 Y54.574 E0.82673
G1 X99.346 Y54.036 E0.01305
G1 X123.463 Y78.153 E0.82636
G1 X123.463 Y77.604 E0.01331
G1 X99.281 Y53.422 E0.82857
G1 X99.028 Y52.619 E0.02039
G1 X123.463 Y77.055 E0.83724
G1 F5760
G1 X121.912 Y75.503 E-0.76000
G1 E-0.04000 F2100.00000
G1 X120.665 Y85.794 F7200.000
G1 E0.80000 F2100.00000
G1 X61.531 Y26.660 E2.02616 F960.000
G1 X60.981 Y26.660 E0.01331
G1 X120.226 Y85.905 E2.02995
G1 X119.749 Y85.977 E0.01169
G1 X60.432 Y26.660 E2.03243
G1 X59.883 Y26.660 E0.01331
G1 X119.232 Y86.010 E2.03355
G1 X118.683 Y86.010 E0.01331
G1 X59.333 Y26.660 E2.03355
G1 X58.784 Y26.660 E0.01331
G1 X118.133 Y86.010 E2.03355
G1 X117.584 Y86.010 E0.01331
G1 X58.234 Y26.660 E2.03355
