; generated by Slic3r 1.2.9 on 2016-08-15 at 23:33:57

; external perimeters extrusion width = 0.45mm
; perimeters extrusion width = 0.45mm
; infill extrusion width = 0.45mm
; solid infill extrusion width = 0.45mm
; top infill extrusion width = 0.40mm

M107
M83  ; extruder relative mode
M104 S210 ; set extruder temp
M140 S55 ; set bed temp
M190 S55 ; wait for bed temp
M109 S210 ; wait for extruder temp
G28 W ; home all without mesh bed level
G80 ; mesh bed leveling
G1 Y-3.0 F1000.0 ; go outside pritn area
G1 X60.0 E9.0  F1000.0 ; intro line
G1 X100.0 E12.5  F1000.0 ; intro line
G21 ; set units to millimeters
G90 ; use absolute coordinates
M83 ; use relative distances for extrusion
G1 E-0.80000 F2100.00000
G1 Z0.150 F7200.000
G1 X17.345 Y14.586 F7200.000
G1 E0.80000 F2100.00000
M204 S1000
G1 X17.610 Y14.321 E0.00906 F1200.000
G1 X18.207 Y13.812 E0.01898
G1 X18.510 Y13.592 E0.00907
G1 X19.179 Y13.182 E0.01897
G1 X19.513 Y13.012 E0.00906
G1 X20.238 Y12.711 E0.01898
G1 X20.594 Y12.595 E0.00907
G1 X21.357 Y12.412 E0.01897
G1 X21.726 Y12.354 E0.00904
G1 X22.697 Y12.285 E0.02353
G1 X93.697 Y12.285 E1.71713
G1 X94.666 Y12.354 E0.02351
G1 X95.035 Y12.412 E0.00904
G1 X95.799 Y12.595 E0.01899
G1 X96.158 Y12.712 E0.00914
G1 X96.880 Y13.012 E0.01890
G1 X97.214 Y13.181 E0.00905
G1 X97.883 Y13.592 E0.01898
G1 X98.186 Y13.812 E0.00907
G1 X98.783 Y14.321 E0.01898
G1 X99.048 Y14.586 E0.00905
G1 X99.555 Y15.180 E0.01889
G1 X99.778 Y15.486 E0.00915
G1 X100.188 Y16.155 E0.01898
G1 X100.358 Y16.489 E0.00905
G1 X100.658 Y17.214 E0.01898
G1 X100.774 Y17.570 E0.00907
G1 X100.957 Y18.333 E0.01897
G1 X101.015 Y18.703 E0.00906
G1 X101.083 Y19.606 E0.02190
G1 X102.972 Y87.018 E1.63099
G1 X102.973 Y138.085 E1.23505
G1 X102.904 Y139.054 E0.02351
G1 X102.845 Y139.424 E0.00906
G1 X102.662 Y140.187 E0.01897
G1 X102.546 Y140.544 E0.00907
G1 X102.246 Y141.269 E0.01898
G1 X102.076 Y141.602 E0.00906
G1 X101.666 Y142.271 E0.01898
G1 X101.446 Y142.575 E0.00906
G1 X100.936 Y143.171 E0.01898
G1 X100.671 Y143.436 E0.00905
G1 X100.075 Y143.945 E0.01898
G1 X99.772 Y144.166 E0.00906
G1 X99.103 Y144.576 E0.01897
G1 X98.769 Y144.746 E0.00906
G1 X98.044 Y145.046 E0.01898
G1 X97.687 Y145.162 E0.00907
G1 X96.924 Y145.345 E0.01898
G1 X96.555 Y145.404 E0.00905
G1 X95.585 Y145.473 E0.02351
G1 X24.585 Y145.473 E1.71713
G1 X23.615 Y145.404 E0.02351
G1 X23.246 Y145.345 E0.00905
G1 X22.483 Y145.162 E0.01897
G1 X22.126 Y145.046 E0.00907
G1 X21.401 Y144.746 E0.01898
G1 X21.067 Y144.576 E0.00906
G1 X20.398 Y144.166 E0.01897
G1 X20.095 Y143.945 E0.00906
G1 X19.499 Y143.436 E0.01898
G1 X19.234 Y143.171 E0.00906
G1 X18.724 Y142.574 E0.01898
G1 X18.504 Y142.271 E0.00907
G1 X18.094 Y141.602 E0.01897
G1 X17.924 Y141.269 E0.00906
G1 X17.624 Y140.544 E0.01898
G1 X17.508 Y140.187 E0.00907
G1 X17.325 Y139.424 E0.01898
G1 X17.266 Y139.054 E0.00905
G1 X17.198 Y138.152 E0.02190
G1 X15.309 Y70.673 E1.63261
G1 X15.309 Y19.673 E1.23343
G1 X15.378 Y18.703 E0.02351
G1 X15.436 Y18.333 E0.00906
G1 X15.620 Y17.569 E0.01899
G1 X15.735 Y17.214 E0.00905
G1 X16.036 Y16.488 E0.01899
G1 X16.206 Y16.155 E0.00904
G1 X16.616 Y15.486 E0.01897
G1 X16.836 Y15.183 E0.00907
G1 X17.306 Y14.632 E0.01752
G1 F5760
G1 X17.610 Y14.321 E-0.15041
G1 F5760
G1 X18.207 Y13.812 E-0.27176
G1 F5760
G1 X18.510 Y13.592 E-0.12982
G1 F5760
G1 X19.022 Y13.278 E-0.20801
G1 E-0.04000 F2100.00000
G1 X66.430 Y39.372 F7200.000
G1 E0.80000 F2100.00000
G1 X66.678 Y38.606 E0.01947 F480.000
G1 X67.081 Y37.909 E0.01947
G1 X67.620 Y37.311 E0.01947
G1 X68.271 Y36.837 E0.01947
G1 X69.007 Y36.510 E0.01947
G1 X69.794 Y36.343 E0.01947
G1 X70.599 Y36.343 E0.01947
G1 X71.387 Y36.510 E0.01947
G1 X72.122 Y36.837 E0.01947
G1 X72.773 Y37.311 E0.01947
G1 X73.312 Y37.909 E0.01947
G1 X73.715 Y38.606 E0.01947
G1 X73.964 Y39.372 E0.01947
G1 X74.048 Y40.173 E0.01947
G1 X73.964 Y40.973 E0.01947
G1 X73.715 Y41.739 E0.01947
G1 X73.312 Y42.436 E0.01947
G1 X72.773 Y43.034 E0.01947
G1 X72.122 Y43.508 E0.01947
G1 X71.387 Y43.835 E0.01947
G1 X70.599 Y44.003 E0.01947
G1 X69.794 Y44.003 E0.01947
G1 X69.007 Y43.835 E0.01947
G1 X68.271 Y43.508 E0.01947
G1 X67.620 Y43.034 E0.01947
G1 X67.081 Y42.436 E0.01947
G1 X66.678 Y41.739 E0.01947
G1 X66.430 Y40.973 E0.01947
G1 X66.345 Y40.173 E0.01947
G1 X66.423 Y39.432 E0.01802
G1 X66.811 Y39.453 F7200.000
G1 X67.035 Y38.765 E0.01750 F480.000
G1 X67.396 Y38.138 E0.01750
G1 X67.881 Y37.600 E0.01750
G1 X68.466 Y37.175 E0.01750
G1 X69.127 Y36.881 E0.01750
G1 X69.835 Y36.730 E0.01750
G1 X70.558 Y36.730 E0.01750
G1 X71.266 Y36.881 E0.01750
G1 X71.927 Y37.175 E0.01750
G1 X72.513 Y37.600 E0.01750
G1 X72.997 Y38.138 E0.01750
G1 X73.358 Y38.765 E0.01750
G1 X73.582 Y39.453 E0.01750
G1 X73.658 Y40.173 E0.01750
G1 X73.582 Y40.892 E0.01750
G1 X73.358 Y41.580 E0.01750
G1 X72.997 Y42.207 E0.01750
G1 X72.513 Y42.745 E0.01750
G1 X71.927 Y43.170 E0.01750
G1 X71.266 Y43.464 E0.01750
G1 X70.558 Y43.615 E0.01750
G1 X69.835 Y43.615 E0.01750
G1 X69.127 Y43.464 E0.01750
G1 X68.466 Y43.170 E0.01750
G1 X67.881 Y42.745 E0.01750
G1 X67.396 Y42.207 E0.01750
G1 X67.035 Y41.580 E0.01750
G1 X66.811 Y40.892 E0.01750
G1 X66.735 Y40.173 E0.01750
G1 X66.805 Y39.513 E0.01605
G1 X66.523 Y39.175 F7200.000
G1 F5760
G1 X67.035 Y38.765 E-0.27098
G1 F5760
G1 X67.396 Y38.138 E-0.25061
G1 F5760
G1 X67.857 Y37.627 E-0.23841
G1 E-0.04000 F2100.00000
G1 X93.676 Y15.271 F7200.000
G1 E0.80000 F2100.00000
G1 X94.385 Y15.326 E0.01719 F480.000
G1 X95.056 Y15.488 E0.01670
G1 X95.694 Y15.752 E0.01670
G1 X96.283 Y16.113 E0.01670
G1 X96.808 Y16.561 E0.01670
G1 X97.257 Y17.086 E0.01670
G1 X97.617 Y17.675 E0.01670
G1 X97.882 Y18.313 E0.01670
G1 X98.043 Y18.984 E0.01670
G1 X98.099 Y19.696 E0.01727
G1 X98.099 Y70.649 E1.23229
G1 X98.043 Y71.361 E0.01727
G1 X97.882 Y72.029 E0.01662
G1 X97.617 Y72.670 E0.01678
G1 X97.257 Y73.259 E0.01669
G1 X96.808 Y73.784 E0.01670
G1 X96.283 Y74.233 E0.01670
G1 X95.694 Y74.593 E0.01670
G1 X95.056 Y74.858 E0.01670
G1 X94.385 Y75.019 E0.01670
G1 X93.673 Y75.075 E0.01727
G1 X22.720 Y75.075 E1.71599
G1 X22.008 Y75.019 E0.01727
G1 X21.337 Y74.858 E0.01670
G1 X20.699 Y74.593 E0.01670
G1 X20.110 Y74.233 E0.01670
G1 X19.585 Y73.784 E0.01670
G1 X19.137 Y73.259 E0.01670
G1 X18.776 Y72.670 E0.01670
G1 X18.512 Y72.032 E0.01670
G1 X18.350 Y71.361 E0.01670
G1 X18.294 Y70.649 E0.01727
G1 X18.294 Y19.696 E1.23229
G1 X18.350 Y18.984 E0.01727
G1 X18.511 Y18.316 E0.01662
G1 X18.776 Y17.675 E0.01678
G1 X19.137 Y17.086 E0.01669
G1 X19.585 Y16.561 E0.01670
G1 X20.110 Y16.113 E0.01670
G1 X20.699 Y15.752 E0.01670
G1 X21.337 Y15.488 E0.01670
G1 X22.008 Y15.326 E0.01670
G1 X22.720 Y15.270 E0.01727
G1 X93.616 Y15.271 E1.71462
G1 X93.692 Y14.883 F7200.000
G1 X94.446 Y14.942 E0.01829 F720.000
G1 X95.177 Y15.118 E0.01818
G1 X95.871 Y15.405 E0.01818
G1 X96.512 Y15.798 E0.01817
G1 X97.083 Y16.286 E0.01818
G1 X97.571 Y16.857 E0.01818
G1 X97.964 Y17.498 E0.01817
G1 X98.252 Y18.193 E0.01818
G1 X98.427 Y18.923 E0.01818
G1 X98.487 Y19.681 E0.01838
G1 X98.487 Y70.664 E1.23303
G1 X98.427 Y71.422 E0.01838
G1 X98.252 Y72.149 E0.01809
G1 X97.964 Y72.847 E0.01826
G1 X97.571 Y73.488 E0.01817
G1 X97.083 Y74.059 E0.01818
G1 X96.512 Y74.547 E0.01818
G1 X95.871 Y74.940 E0.01817
G1 X95.177 Y75.228 E0.01818
G1 X94.446 Y75.403 E0.01818
G1 X93.688 Y75.463 E0.01838
G1 X22.705 Y75.463 E1.71673
G1 X21.947 Y75.403 E0.01838
G1 X21.217 Y75.228 E0.01818
G1 X20.522 Y74.940 E0.01818
G1 X19.881 Y74.547 E0.01817
G1 X19.310 Y74.059 E0.01818
G1 X18.822 Y73.488 E0.01818
G1 X18.429 Y72.847 E0.01817
G1 X18.142 Y72.153 E0.01818
G1 X17.966 Y71.422 E0.01818
G1 X17.907 Y70.664 E0.01838
G1 X17.907 Y19.681 E1.23303
G1 X17.966 Y18.923 E0.01838
G1 X18.141 Y18.196 E0.01809
G1 X18.429 Y17.498 E0.01826
G1 X18.822 Y16.857 E0.01817
G1 X19.310 Y16.286 E0.01818
G1 X19.881 Y15.798 E0.01818
G1 X20.522 Y15.405 E0.01817
G1 X21.217 Y15.118 E0.01818
G1 X21.947 Y14.942 E0.01818
G1 X22.705 Y14.883 E0.01838
G1 X93.632 Y14.883 E1.71536
G1 X93.873 Y15.239 F7200.000
G1 F5760
G1 X94.446 Y14.942 E-0.28270
G1 F5760
G1 X95.177 Y15.118 E-0.26029
G1 F5760
G1 X95.755 Y15.357 E-0.21701
G1 E-0.04000 F2100.00000
G1 X94.968 Y15.738 F7200.000
G1 E0.80000 F2100.00000
G1 X97.631 Y18.401 E0.09126 F960.000
G1 X97.820 Y19.140 E0.01846
G1 X94.229 Y15.549 E0.12303
G1 X93.633 Y15.502 E0.01449
G1 X97.867 Y19.736 E0.14507
G1 X97.871 Y20.290 E0.01342
G1 X93.080 Y15.498 E0.16418
G1 X92.530 Y15.498 E0.01331
G1 X97.871 Y20.839 E0.18301
G1 X97.871 Y21.389 E0.01331
G1 X91.981 Y15.498 E0.20184
G1 X91.431 Y15.498 E0.01331
G1 X97.871 Y21.938 E0.22066
G1 X97.871 Y22.487 E0.01331
G1 X90.882 Y15.498 E0.23949
G1 X90.332 Y15.498 E0.01331
G1 X97.871 Y23.037 E0.25831
G1 X97.871 Y23.586 E0.01331
G1 X89.783 Y15.498 E0.27714
G1 X89.234 Y15.498 E0.01331
G1 X97.871 Y24.136 E0.29596
G1 X97.871 Y24.685 E0.01331
G1 X88.684 Y15.498 E0.31479
G1 X88.135 Y15.498 E0.01331
G1 X97.871 Y25.235 E0.33361
G1 X97.871 Y25.784 E0.01331
G1 X87.585 Y15.498 E0.35244
G1 X87.036 Y15.498 E0.01331
G1 X97.871 Y26.333 E0.37127
G1 X97.871 Y26.883 E0.01331
G1 X86.486 Y15.498 E0.39009
G1 X85.937 Y15.498 E0.01331
G1 X97.871 Y27.432 E0.40892
G1 X97.871 Y27.982 E0.01331
G1 X85.388 Y15.498 E0.42774
G1 X84.838 Y15.498 E0.01331
G1 X97.871 Y28.531 E0.44657
G1 X97.871 Y29.081 E0.01331
G1 X84.289 Y15.498 E0.46539
G1 X83.739 Y15.498 E0.01331
G1 X97.871 Y29.630 E0.48422
G1 X97.871 Y30.179 E0.01331
G1 X83.190 Y15.498 E0.50304
G1 X82.640 Y15.498 E0.01331
G1 X97.871 Y30.729 E0.52187
G1 X97.871 Y31.278 E0.01331
G1 X82.091 Y15.498 E0.54070
G1 X81.542 Y15.498 E0.01331
G1 X97.871 Y31.828 E0.55952
G1 X97.871 Y32.377 E0.01331
G1 X80.992 Y15.498 E0.57835
G1 X80.443 Y15.498 E0.01331
G1 X97.871 Y32.927 E0.59717
G1 X97.871 Y33.476 E0.01331
G1 X79.893 Y15.498 E0.61600
G1 X79.344 Y15.498 E0.01331
G1 X97.871 Y34.025 E0.63482
G1 X97.871 Y34.575 E0.01331
G1 X78.794 Y15.498 E0.65365
G1 X78.245 Y15.498 E0.01331
G1 X97.871 Y35.124 E0.67247
G1 X97.871 Y35.674 E0.01331
G1 X77.696 Y15.498 E0.69130
G1 X77.146 Y15.498 E0.01331
G1 X97.871 Y36.223 E0.71013
G1 X97.871 Y36.773 E0.01331
G1 X76.597 Y15.498 E0.72895
G1 X76.047 Y15.498 E0.01331
G1 X97.871 Y37.322 E0.74778
G1 X97.871 Y37.871 E0.01331
G1 X75.498 Y15.498 E0.76660
G1 X74.948 Y15.498 E0.01331
G1 X97.871 Y38.421 E0.78543
G1 X97.871 Y38.970 E0.01331
G1 X74.399 Y15.498 E0.80425
G1 X73.850 Y15.498 E0.01331
G1 X97.871 Y39.520 E0.82308
G1 X97.871 Y40.069 E0.01331
G1 X73.300 Y15.498 E0.84190
G1 X72.751 Y15.498 E0.01331
G1 X97.871 Y40.619 E0.86073
G1 X97.871 Y41.168 E0.01331
G1 X72.201 Y15.498 E0.87956
G1 X71.652 Y15.498 E0.01331
G1 X97.871 Y41.717 E0.89838
G1 X97.871 Y42.267 E0.01331
G1 X71.102 Y15.498 E0.91721
G1 X70.553 Y15.498 E0.01331
G1 X97.871 Y42.816 E0.93603
G1 X97.871 Y43.366 E0.01331
G1 X70.004 Y15.498 E0.95486
G1 X69.454 Y15.498 E0.01331
G1 X97.871 Y43.915 E0.97368
G1 X97.871 Y44.465 E0.01331
G1 X68.905 Y15.498 E0.99251
G1 X68.355 Y15.498 E0.01331
G1 X97.871 Y45.014 E1.01134
G1 X97.871 Y45.563 E0.01331
G1 X67.806 Y15.498 E1.03016
G1 X67.256 Y15.498 E0.01331
G1 X97.871 Y46.113 E1.04899
G1 X97.871 Y46.662 E0.01331
G1 X66.707 Y15.498 E1.06781
G1 X66.158 Y15.498 E0.01331
G1 X97.871 Y47.212 E1.08664
G1 X97.871 Y47.761 E0.01331
G1 X65.608 Y15.498 E1.10546
G1 X65.059 Y15.498 E0.01331
G1 X97.871 Y48.311 E1.12429
G1 X97.871 Y48.860 E0.01331
G1 X64.509 Y15.498 E1.14311
G1 X63.960 Y15.498 E0.01331
G1 X97.871 Y49.409 E1.16194
G1 X97.871 Y49.959 E0.01331
G1 X63.410 Y15.498 E1.18077
G1 X62.861 Y15.498 E0.01331
G1 X97.871 Y50.508 E1.19959
G1 X97.871 Y51.058 E0.01331
G1 X62.312 Y15.498 E1.21842
G1 X61.762 Y15.498 E0.01331
G1 X97.871 Y51.607 E1.23724
G1 X97.871 Y52.157 E0.01331
G1 X61.213 Y15.498 E1.25607
G1 X60.663 Y15.498 E0.01331
G1 X97.871 Y52.706 E1.27489
G1 X97.871 Y53.255 E0.01331
G1 X60.114 Y15.498 E1.29372
G1 X59.564 Y15.498 E0.01331
G1 X97.871 Y53.805 E1.31254
G1 X97.871 Y54.354 E0.01331
G1 X59.015 Y15.498 E1.33137
G1 X58.466 Y15.498 E0.01331
G1 X97.871 Y54.904 E1.35020
G1 X97.871 Y55.453 E0.01331
G1 X57.916 Y15.498 E1.36902
G1 X57.367 Y15.498 E0.01331
G1 X97.871 Y56.003 E1.38785
G1 X97.871 Y56.552 E0.01331
G1 X56.817 Y15.498 E1.40667
G1 X56.268 Y15.498 E0.01331
G1 X97.871 Y57.101 E1.42550
G1 X97.871 Y57.651 E0.01331
G1 X55.718 Y15.498 E1.44432
G1 X55.169 Y15.498 E0.01331
G1 X97.871 Y58.200 E1.46315
G1 X97.871 Y58.750 E0.01331
G1 X54.620 Y15.498 E1.48197
G1 X54.070 Y15.498 E0.01331
G1 X97.871 Y59.299 E1.50080
G1 X97.871 Y59.849 E0.01331
G1 X53.521 Y15.498 E1.51963
G1 X52.971 Y15.498 E0.01331
G1 X97.871 Y60.398 E1.53845
G1 X97.871 Y60.947 E0.01331
G1 X52.422 Y15.498 E1.55728
G1 X51.872 Y15.498 E0.01331
G1 X97.871 Y61.497 E1.57610
G1 X97.871 Y62.046 E0.01331
G1 X73.499 Y37.674 E0.83508
G1 F5760
G1 X75.051 Y39.226 E-0.76000
G1 E-0.04000 F2100.00000
G1 X72.781 Y36.956 F7200.000
G1 E0.80000 F2100.00000
G1 X51.323 Y15.498 E0.73524 F960.000
G1 X50.774 Y15.498 E0.01331
G1 X71.577 Y36.302 E0.71282
G1 X70.876 Y36.150 E0.01739
G1 X50.224 Y15.498 E0.70761
G1 X49.675 Y15.498 E0.01331
G1 X70.292 Y36.115 E0.70643
G1 X69.760 Y36.133 E0.01289
G1 X49.125 Y15.498 E0.70704
G1 X48.576 Y15.498 E0.01331
G1 X69.307 Y36.229 E0.71034
G1 X68.876 Y36.348 E0.01083
G1 X48.026 Y15.498 E0.71440
G1 X47.477 Y15.498 E0.01331
G1 X68.496 Y36.517 E0.72020
G1 X68.129 Y36.700 E0.00993
G1 X46.928 Y15.498 E0.72646
G1 X46.378 Y15.498 E0.01331
G1 X67.811 Y36.931 E0.73438
G1 X67.493 Y37.162 E0.00953
G1 X45.829 Y15.498 E0.74230
G1 X45.279 Y15.498 E0.01331
G1 X67.233 Y37.451 E0.75221
G1 X66.972 Y37.740 E0.00943
G1 X44.730 Y15.498 E0.76212
G1 X44.180 Y15.498 E0.01331
G1 X66.757 Y38.075 E0.77358
G1 X66.556 Y38.423 E0.00974
G1 X43.631 Y15.498 E0.78551
G1 X43.082 Y15.498 E0.01331
G1 X66.395 Y38.811 E0.79882
G1 X66.260 Y39.226 E0.01056
G1 X42.532 Y15.498 E0.81302
G1 X41.983 Y15.498 E0.01331
G1 X66.176 Y39.691 E0.82895
G1 X66.123 Y40.188 E0.01211
G1 X41.433 Y15.498 E0.84598
G1 X40.884 Y15.498 E0.01331
G1 X66.172 Y40.786 E0.86648
G1 X66.328 Y41.491 E0.01750
G1 X40.334 Y15.498 E0.89064
G1 X39.785 Y15.498 E0.01331
G1 X66.806 Y42.519 E0.92584
G1 F5760
G1 X65.254 Y40.967 E-0.76000
G1 E-0.04000 F2100.00000
G1 X67.847 Y43.560 F7200.000
G1 E0.80000 F2100.00000
G1 X97.224 Y72.937 E1.00656 F960.000
G1 X96.999 Y73.262 E0.00957
G1 X39.235 Y15.498 E1.97922
G1 X38.686 Y15.498 E0.01331
G1 X96.739 Y73.550 E1.98910
G1 X96.463 Y73.824 E0.00941
G1 X38.137 Y15.498 E1.99848
G1 X37.587 Y15.498 E0.01331
G1 X96.164 Y74.075 E2.00707
G1 X95.824 Y74.284 E0.00968
G1 X37.038 Y15.498 E2.01423
G1 X36.488 Y15.498 E0.01331
G1 X95.461 Y74.471 E2.02065
G1 X95.073 Y74.632 E0.01019
G1 X35.939 Y15.498 E2.02616
G1 X35.389 Y15.498 E0.01331
G1 X94.634 Y74.742 E2.02995
G1 X94.157 Y74.815 E0.01169
G1 X34.840 Y15.498 E2.03243
G1 X34.291 Y15.498 E0.01331
G1 X93.640 Y74.847 E2.03355
G1 X93.091 Y74.847 E0.01331
G1 X33.741 Y15.498 E2.03355
G1 X33.192 Y15.498 E0.01331
G1 X92.541 Y74.847 E2.03355
G1 X91.992 Y74.847 E0.01331
G1 X32.642 Y15.498 E2.03355
G1 X32.093 Y15.498 E0.01331
G1 X91.443 Y74.847 E2.03355
G1 X90.893 Y74.847 E0.01331
G1 X31.543 Y15.498 E2.03355
G1 X30.994 Y15.498 E0.01331
G1 X90.344 Y74.847 E2.03355
G1 X89.794 Y74.847 E0.01331
G1 X30.445 Y15.498 E2.03355
G1 X29.895 Y15.498 E0.01331
G1 X89.245 Y74.847 E2.03355
G1 X88.695 Y74.847 E0.01331
G1 X29.346 Y15.498 E2.03355
G1 X28.796 Y15.498 E0.01331
G1 X88.146 Y74.847 E2.03355
G1 X87.597 Y74.847 E0.01331
G1 X28.247 Y15.498 E2.03355
G1 X27.697 Y15.498 E0.01331
G1 X87.047 Y74.847 E2.03355
G1 X86.498 Y74.847 E0.01331
G1 X27.148 Y15.498 E2.03355
G1 X26.599 Y15.498 E0.01331
G1 X85.948 Y74.847 E2.03355
G1 X85.399 Y74.847 E0.01331
G1 X26.049 Y15.498 E2.03355
G1 X25.500 Y15.498 E0.01331
G1 X84.849 Y74.847 E2.03355
G1 X84.300 Y74.847 E0.01331
G1 X24.950 Y15.498 E2.03355
G1 X24.401 Y15.498 E0.01331
G1 X83.751 Y74.847 E2.03355
G1 X83.201 Y74.847 E0.01331
G1 X23.851 Y15.498 E2.03355
G1 X23.302 Y15.498 E0.01331
G1 X82.652 Y74.847 E2.03355
G1 X82.102 Y74.847 E0.01331
G1 X22.753 Y15.498 E2.03355
G1 X22.236 Y15.530 E0.01255
G1 X81.553 Y74.847 E2.03243
G1 X81.003 Y74.847 E0.01331
G1 X21.759 Y15.603 E2.02995
G1 X21.320 Y15.713 E0.01096
G1 X80.454 Y74.847 E2.02616
G1 X79.905 Y74.847 E0.01331
G1 X20.931 Y15.874 E2.02065
