; generated by Slic3r 1.2.9 on 2016-08-16 at 16:55:25

; external perimeters extrusion width = 0.45mm
; perimeters extrusion width = 0.45mm
; infill extrusion width = 0.45mm
; solid infill extrusion width = 0.45mm
; top infill extrusion width = 0.45mm
; support material extrusion width = 0.35mm

M107
M83  ; extruder relative mode
M104 S210 ; set extruder temp
M140 S55 ; set bed temp
M190 S55 ; wait for bed temp
M109 S210 ; wait for extruder temp
G28 W ; home all without mesh bed level
G80 ; mesh bed leveling
G1 Y-3.0 F1000.0 ; go outside pritn area
G1 X60.0 E9.0  F1000.0 ; intro line
G1 X100.0 E12.5  F1000.0 ; intro line
G21 ; set units to millimeters
G90 ; use absolute coordinates
M83 ; use relative distances for extrusion
G1 E-0.80000 F2100.00000
G1 Z0.150 F7200.000
G1 X119.443 Y100.454 F7200.000
G1 E0.80000 F2100.00000
M204 S1000
G1 X119.898 Y99.949 E0.01643 F900.000
G1 X120.510 Y99.398 E0.01992
G1 X121.060 Y98.999 E0.01643
G1 X121.773 Y98.587 E0.01992
G1 X122.394 Y98.311 E0.01643
G1 X123.177 Y98.056 E0.01991
G1 X123.841 Y97.915 E0.01643
G1 X124.660 Y97.829 E0.01992
G1 X125.340 Y97.829 E0.01643
G1 X126.158 Y97.915 E0.01991
G1 X126.823 Y98.056 E0.01644
G1 X127.606 Y98.311 E0.01991
G1 X128.227 Y98.587 E0.01643
G1 X128.940 Y98.999 E0.01992
G1 X129.490 Y99.398 E0.01643
G1 X130.102 Y99.949 E0.01992
G1 X130.557 Y100.454 E0.01643
G1 X131.041 Y101.120 E0.01992
G1 X131.380 Y101.709 E0.01643
G1 X131.715 Y102.461 E0.01992
G1 X131.925 Y103.107 E0.01643
G1 X132.096 Y103.913 E0.01992
G1 X132.167 Y104.588 E0.01643
G1 X132.167 Y105.412 E0.01992
G1 X132.096 Y106.087 E0.01643
G1 X131.925 Y106.893 E0.01992
G1 X131.715 Y107.539 E0.01643
G1 X131.380 Y108.291 E0.01992
G1 X131.041 Y108.880 E0.01644
G1 X130.557 Y109.546 E0.01991
G1 X130.102 Y110.051 E0.01643
G1 X129.490 Y110.602 E0.01992
G1 X128.940 Y111.001 E0.01643
G1 X128.227 Y111.413 E0.01991
G1 X127.606 Y111.689 E0.01644
G1 X126.823 Y111.944 E0.01991
G1 X126.159 Y112.085 E0.01643
G1 X125.340 Y112.171 E0.01992
G1 X124.660 Y112.171 E0.01643
G1 X123.841 Y112.085 E0.01992
G1 X123.177 Y111.944 E0.01643
G1 X122.394 Y111.689 E0.01991
G1 X121.773 Y111.413 E0.01643
G1 X121.060 Y111.001 E0.01992
G1 X120.510 Y110.602 E0.01643
G1 X119.898 Y110.051 E0.01992
G1 X119.443 Y109.546 E0.01643
G1 X118.959 Y108.880 E0.01992
G1 X118.620 Y108.291 E0.01643
G1 X118.285 Y107.539 E0.01992
G1 X118.075 Y106.893 E0.01643
G1 X117.904 Y106.087 E0.01992
G1 X117.832 Y105.411 E0.01644
G1 X117.833 Y104.588 E0.01990
G1 X117.904 Y103.913 E0.01643
G1 X118.075 Y103.107 E0.01992
G1 X118.285 Y102.461 E0.01643
G1 X118.620 Y101.709 E0.01991
G1 X118.959 Y101.120 E0.01643
G1 X119.408 Y100.503 E0.01846
G1 X119.732 Y100.713 F7200.000
G1 X120.186 Y100.209 E0.01643 F900.000
G1 X120.738 Y99.712 E0.01795
G1 X121.288 Y99.312 E0.01643
G1 X121.931 Y98.941 E0.01796
G1 X122.551 Y98.665 E0.01643
G1 X123.257 Y98.435 E0.01795
G1 X123.922 Y98.294 E0.01643
G1 X124.660 Y98.217 E0.01796
G1 X125.340 Y98.217 E0.01643
G1 X126.078 Y98.294 E0.01795
G1 X126.743 Y98.435 E0.01644
G1 X127.449 Y98.665 E0.01795
G1 X128.069 Y98.941 E0.01643
G1 X128.712 Y99.312 E0.01796
G1 X129.262 Y99.712 E0.01643
G1 X129.814 Y100.209 E0.01796
G1 X130.268 Y100.713 E0.01643
G1 X130.705 Y101.314 E0.01795
G1 X131.044 Y101.902 E0.01643
G1 X131.346 Y102.581 E0.01795
G1 X131.556 Y103.227 E0.01643
G1 X131.711 Y103.953 E0.01796
G1 X131.782 Y104.629 E0.01643
G1 X131.782 Y105.371 E0.01796
G1 X131.711 Y106.047 E0.01643
G1 X131.556 Y106.773 E0.01796
G1 X131.346 Y107.419 E0.01643
G1 X131.044 Y108.098 E0.01795
G1 X130.705 Y108.686 E0.01644
G1 X130.268 Y109.287 E0.01795
G1 X129.814 Y109.791 E0.01643
G1 X129.262 Y110.288 E0.01796
G1 X128.712 Y110.688 E0.01643
G1 X128.070 Y111.059 E0.01795
G1 X127.449 Y111.335 E0.01644
G1 X126.743 Y111.565 E0.01795
G1 X126.078 Y111.706 E0.01643
G1 X125.340 Y111.783 E0.01796
G1 X124.660 Y111.783 E0.01643
G1 X123.922 Y111.706 E0.01796
G1 X123.257 Y111.565 E0.01643
G1 X122.551 Y111.335 E0.01795
G1 X121.931 Y111.059 E0.01643
G1 X121.288 Y110.688 E0.01795
G1 X120.738 Y110.288 E0.01643
G1 X120.186 Y109.791 E0.01796
G1 X119.732 Y109.287 E0.01643
G1 X119.295 Y108.686 E0.01795
G1 X118.956 Y108.098 E0.01643
G1 X118.654 Y107.419 E0.01795
G1 X118.444 Y106.773 E0.01643
G1 X118.289 Y106.047 E0.01795
G1 X118.218 Y105.371 E0.01644
G1 X118.218 Y104.629 E0.01795
G1 X118.289 Y103.953 E0.01643
G1 X118.444 Y103.227 E0.01796
G1 X118.654 Y102.581 E0.01643
G1 X118.956 Y101.902 E0.01795
G1 X119.295 Y101.314 E0.01643
G1 X119.696 Y100.762 E0.01650
G1 X120.020 Y100.973 F7200.000
G1 X120.474 Y100.468 E0.01643 F900.000
G1 X120.966 Y100.026 E0.01599
G1 X121.516 Y99.626 E0.01643
G1 X122.088 Y99.295 E0.01599
G1 X122.709 Y99.019 E0.01643
G1 X123.338 Y98.815 E0.01599
G1 X124.003 Y98.674 E0.01643
G1 X124.660 Y98.604 E0.01600
G1 X125.340 Y98.604 E0.01643
G1 X125.997 Y98.673 E0.01599
G1 X126.662 Y98.815 E0.01644
G1 X127.291 Y99.019 E0.01599
G1 X127.912 Y99.295 E0.01643
G1 X128.484 Y99.626 E0.01599
G1 X129.034 Y100.026 E0.01643
G1 X129.526 Y100.468 E0.01599
G1 X129.980 Y100.973 E0.01643
G1 X130.369 Y101.508 E0.01599
G1 X130.709 Y102.096 E0.01643
G1 X130.978 Y102.701 E0.01599
G1 X131.188 Y103.347 E0.01643
G1 X131.325 Y103.994 E0.01599
G1 X131.396 Y104.669 E0.01643
G1 X131.396 Y105.331 E0.01599
G1 X131.325 Y106.006 E0.01643
G1 X131.188 Y106.653 E0.01599
G1 X130.978 Y107.299 E0.01643
G1 X130.709 Y107.904 E0.01599
G1 X130.369 Y108.492 E0.01643
G1 X129.980 Y109.027 E0.01599
G1 X129.526 Y109.532 E0.01643
G1 X129.034 Y109.974 E0.01599
G1 X128.484 Y110.374 E0.01643
G1 X127.912 Y110.704 E0.01599
G1 X127.291 Y110.981 E0.01644
G1 X126.662 Y111.185 E0.01599
G1 X125.997 Y111.326 E0.01643
G1 X125.340 Y111.396 E0.01600
G1 X124.660 Y111.396 E0.01643
G1 X124.003 Y111.326 E0.01600
G1 X123.338 Y111.185 E0.01643
G1 X122.709 Y110.981 E0.01599
G1 X122.088 Y110.705 E0.01643
G1 X121.516 Y110.374 E0.01599
G1 X120.966 Y109.974 E0.01643
G1 X120.474 Y109.532 E0.01599
G1 X120.020 Y109.027 E0.01643
G1 X119.631 Y108.492 E0.01599
G1 X119.291 Y107.904 E0.01643
G1 X119.022 Y107.299 E0.01599
G1 X118.816 Y106.665 E0.01612
G1 X118.675 Y106.006 E0.01630
G1 X118.604 Y105.330 E0.01644
G1 X118.604 Y104.669 E0.01599
G1 X118.675 Y103.994 E0.01643
G1 X118.812 Y103.347 E0.01599
G1 X119.022 Y102.700 E0.01643
G1 X119.291 Y102.096 E0.01599
G1 X119.631 Y101.508 E0.01643
G1 X119.985 Y101.021 E0.01454
G1 X120.308 Y101.232 F7200.000
G1 X120.763 Y100.728 E0.01643 F900.000
G1 X121.194 Y100.339 E0.01403
G1 X121.744 Y99.940 E0.01643
G1 X122.246 Y99.650 E0.01403
G1 X122.867 Y99.373 E0.01643
G1 X123.419 Y99.194 E0.01403
G1 X124.083 Y99.053 E0.01643
G1 X124.660 Y98.992 E0.01403
G1 X125.340 Y98.992 E0.01643
G1 X125.916 Y99.053 E0.01403
G1 X126.581 Y99.194 E0.01644
G1 X127.133 Y99.373 E0.01403
G1 X127.754 Y99.650 E0.01643
G1 X128.256 Y99.940 E0.01403
G1 X128.806 Y100.339 E0.01643
G1 X129.237 Y100.728 E0.01403
G1 X129.692 Y101.232 E0.01643
G1 X130.033 Y101.702 E0.01403
G1 X130.373 Y102.290 E0.01643
G1 X130.609 Y102.820 E0.01403
G1 X130.819 Y103.467 E0.01643
G1 X130.939 Y104.034 E0.01403
G1 X131.010 Y104.710 E0.01643
G1 X131.010 Y105.290 E0.01403
G1 X130.939 Y105.966 E0.01643
G1 X130.819 Y106.533 E0.01403
G1 X130.609 Y107.180 E0.01643
G1 X130.373 Y107.710 E0.01403
G1 X130.033 Y108.298 E0.01643
G1 X129.692 Y108.768 E0.01403
G1 X129.237 Y109.272 E0.01643
G1 X128.806 Y109.661 E0.01403
G1 X128.256 Y110.060 E0.01643
G1 X127.754 Y110.350 E0.01403
G1 X127.133 Y110.627 E0.01644
G1 X126.581 Y110.806 E0.01403
G1 X125.917 Y110.947 E0.01643
G1 X125.340 Y111.008 E0.01403
G1 X124.660 Y111.008 E0.01643
G1 X124.083 Y110.947 E0.01403
G1 X123.419 Y110.806 E0.01643
G1 X122.867 Y110.627 E0.01403
G1 X122.246 Y110.350 E0.01643
G1 X121.744 Y110.060 E0.01403
G1 X121.194 Y109.661 E0.01643
G1 X120.763 Y109.272 E0.01403
G1 X120.308 Y108.768 E0.01643
G1 X119.967 Y108.298 E0.01403
G1 X119.627 Y107.710 E0.01643
G1 X119.391 Y107.180 E0.01403
G1 X119.185 Y106.546 E0.01612
G1 X119.061 Y105.966 E0.01434
G1 X118.990 Y105.290 E0.01644
G1 X118.990 Y104.710 E0.01403
G1 X119.061 Y104.034 E0.01643
G1 X119.181 Y103.467 E0.01403
G1 X119.391 Y102.820 E0.01643
G1 X119.627 Y102.290 E0.01403
G1 X119.967 Y101.702 E0.01643
G1 X120.273 Y101.281 E0.01258
G1 X120.596 Y101.492 F7200.000
G1 X121.051 Y100.987 E0.01643 F900.000
G1 X121.422 Y100.653 E0.01207
G1 X121.971 Y100.254 E0.01643
G1 X122.404 Y100.004 E0.01207
G1 X123.025 Y99.728 E0.01643
G1 X123.499 Y99.573 E0.01207
G1 X124.164 Y99.432 E0.01643
G1 X124.660 Y99.380 E0.01207
G1 X125.340 Y99.380 E0.01643
G1 X125.836 Y99.432 E0.01207
G1 X126.501 Y99.573 E0.01644
G1 X126.975 Y99.728 E0.01207
G1 X127.596 Y100.004 E0.01643
G1 X128.029 Y100.254 E0.01207
G1 X128.578 Y100.653 E0.01643
G1 X128.949 Y100.987 E0.01207
G1 X129.404 Y101.492 E0.01643
G1 X129.697 Y101.896 E0.01207
G1 X130.037 Y102.484 E0.01643
G1 X130.240 Y102.940 E0.01207
G1 X130.450 Y103.586 E0.01643
G1 X130.554 Y104.075 E0.01207
G1 X130.625 Y104.750 E0.01643
G1 X130.625 Y105.250 E0.01207
G1 X130.554 Y105.925 E0.01643
G1 X130.450 Y106.414 E0.01207
G1 X130.240 Y107.060 E0.01643
G1 X130.037 Y107.516 E0.01207
G1 X129.697 Y108.104 E0.01643
G1 X129.404 Y108.508 E0.01207
G1 X128.949 Y109.013 E0.01643
G1 X128.578 Y109.347 E0.01207
G1 X128.029 Y109.746 E0.01643
G1 X127.596 Y109.996 E0.01207
G1 X126.975 Y110.272 E0.01644
G1 X126.501 Y110.427 E0.01207
G1 X125.836 Y110.568 E0.01643
G1 X125.340 Y110.620 E0.01207
G1 X124.660 Y110.620 E0.01643
G1 X124.164 Y110.568 E0.01207
G1 X123.499 Y110.427 E0.01643
G1 X123.025 Y110.272 E0.01207
G1 X122.404 Y109.996 E0.01643
G1 X121.972 Y109.746 E0.01207
G1 X121.422 Y109.347 E0.01643
G1 X121.051 Y109.013 E0.01207
G1 X120.596 Y108.508 E0.01643
G1 X120.303 Y108.104 E0.01207
G1 X119.963 Y107.516 E0.01643
G1 X119.760 Y107.060 E0.01207
G1 X119.550 Y106.414 E0.01643
G1 X119.446 Y105.925 E0.01207
G1 X119.375 Y105.249 E0.01644
G1 X119.375 Y104.750 E0.01207
G1 X119.446 Y104.075 E0.01643
G1 X119.550 Y103.586 E0.01207
G1 X119.760 Y102.940 E0.01643
G1 X119.963 Y102.484 E0.01207
G1 X120.303 Y101.896 E0.01643
G1 X120.561 Y101.540 E0.01062
G1 F5760
G1 X121.051 Y100.987 E-0.25601
G1 F5760
G1 X121.422 Y100.653 E-0.17289
G1 F5760
G1 X121.971 Y100.254 E-0.23532
G1 F5760
G1 X122.211 Y100.115 E-0.09578
G1 E-0.04000 F2100.00000
G1 X122.001 Y105.000 F7200.000
G1 E0.80000 F2100.00000
G1 X122.066 Y104.376 E0.01516 F900.000
G1 X122.260 Y103.780 E0.01516
G1 X122.574 Y103.237 E0.01516
G1 X122.975 Y102.790 E0.01453
G1 X123.500 Y102.403 E0.01578
G1 X124.049 Y102.157 E0.01453
G1 X124.713 Y102.017 E0.01640
G1 X125.326 Y102.019 E0.01483
G1 X125.927 Y102.147 E0.01487
G1 X126.500 Y102.403 E0.01516
G1 X127.007 Y102.771 E0.01516
G1 X127.426 Y103.237 E0.01516
G1 X127.740 Y103.780 E0.01516
G1 X127.934 Y104.376 E0.01516
G1 X127.999 Y105.000 E0.01516
G1 X127.934 Y105.624 E0.01516
G1 X127.740 Y106.220 E0.01516
G1 X127.426 Y106.763 E0.01516
G1 X127.025 Y107.210 E0.01453
G1 X126.500 Y107.597 E0.01578
G1 X125.951 Y107.843 E0.01453
G1 X125.287 Y107.984 E0.01640
G1 X124.686 Y107.983 E0.01453
G1 X124.073 Y107.853 E0.01516
G1 X123.500 Y107.597 E0.01516
G1 X122.993 Y107.229 E0.01516
G1 X122.574 Y106.763 E0.01516
G1 X122.260 Y106.220 E0.01516
G1 X122.067 Y105.623 E0.01516
G1 X122.001 Y105.000 E0.01516
G1 F5760
G1 X122.067 Y105.623 E-0.21715
G1 F5760
G1 X122.260 Y106.220 E-0.21715
G1 F5760
G1 X122.574 Y106.763 E-0.21718
G1 F5760
G1 X122.783 Y106.996 E-0.10852
G1 E-0.04000 F2100.00000
G1 Z0.150 F7200.000
G1 X122.714 Y105.027 F7200.000
G1 E0.80000 F2100.00000
G1 X123.650 Y103.158 E0.05056 F900.000
G1 X124.758 Y102.679 E0.02919
G1 X122.999 Y106.189 E0.09495
G1 X123.541 Y106.838 E0.02046
G1 X125.599 Y102.732 E0.11107
G1 X126.307 Y103.051 E0.01877
G1 X124.217 Y107.220 E0.11277
G1 X125.028 Y107.334 E0.01979
G1 X126.890 Y103.619 E0.10050
G1 X127.264 Y104.604 E0.02548
G1 X126.031 Y107.063 E0.06651
M106 S255
G1 F5760
G1 X127.015 Y105.101 E-0.76000
G1 E-0.04000 F2100.00000
G1 Z0.250 F7200.000
G1 X122.001 Y105.000 F7200.000
G1 E0.80000 F2100.00000
M204 S800
G1 X122.066 Y104.376 E0.01117 F900.000
G1 X122.260 Y103.780 E0.01117
G1 X122.574 Y103.237 E0.01117
G1 X122.975 Y102.790 E0.01071
G1 X123.500 Y102.403 E0.01163
G1 X124.049 Y102.157 E0.01071
G1 X124.713 Y102.017 E0.01208
G1 X125.339 Y102.023 E0.01116
G1 X125.927 Y102.147 E0.01071
G1 X126.500 Y102.403 E0.01117
G1 X127.007 Y102.771 E0.01117
G1 X127.426 Y103.237 E0.01117
G1 X127.740 Y103.780 E0.01117
G1 X127.934 Y104.376 E0.01117
G1 X127.999 Y105.000 E0.01117
G1 X127.934 Y105.624 E0.01117
G1 X127.740 Y106.220 E0.01117
G1 X127.426 Y106.763 E0.01117
G1 X127.025 Y107.210 E0.01071
G1 X126.500 Y107.597 E0.01163
G1 X125.951 Y107.843 E0.01071
G1 X125.287 Y107.984 E0.01208
G1 X124.686 Y107.983 E0.01071
G1 X124.073 Y107.853 E0.01117
G1 X123.500 Y107.597 E0.01117
G1 X122.993 Y107.229 E0.01117
G1 X122.574 Y106.763 E0.01117
G1 X122.260 Y106.220 E0.01117
G1 X122.066 Y105.624 E0.01117
G1 X122.001 Y105.000 E0.01117
M204 S1000
G1 F5760
G1 X122.066 Y105.624 E-0.21717
G1 F5760
G1 X122.260 Y106.220 E-0.21717
G1 F5760
G1 X122.574 Y106.763 E-0.21718
G1 F5760
G1 X122.783 Y106.996 E-0.10848
G1 E-0.04000 F2100.00000
G1 Z0.300 F7200.000
G1 X123.030 Y105.338 F7200.000
G1 E0.80000 F2100.00000
G1 X124.097 Y103.208 E0.04721 F900.000
G1 X124.545 Y103.034 E0.00953
G1 X123.151 Y105.815 E0.06166
G1 X123.336 Y106.164 E0.00783
G1 X124.936 Y102.971 E0.07079
G1 X125.292 Y102.981 E0.00705
G1 X123.559 Y106.437 E0.07663
G1 X123.811 Y106.654 E0.00658
G1 X125.617 Y103.050 E0.07991
G1 X125.908 Y103.189 E0.00638
G1 X124.092 Y106.811 E0.08031
G1 X124.383 Y106.950 E0.00638
G1 X126.189 Y103.346 E0.07991
G1 X126.441 Y103.563 E0.00658
G1 X124.708 Y107.019 E0.07663
G1 X125.064 Y107.029 E0.00705
G1 X126.664 Y103.836 E0.07079
G1 X126.849 Y104.185 E0.00783
G1 X125.455 Y106.966 E0.06166
G1 X125.903 Y106.792 E0.00953
G1 X126.970 Y104.662 E0.04721
G1 X126.869 Y105.582 F7200.000
G1 X126.572 Y106.175 E0.01315 F900.000
G1 F5760
G1 X126.869 Y105.582 E-0.22977
G1 E-0.57023 F2100.00000
G1 X123.131 Y104.418 F7200.000
G1 E0.80000 F2100.00000
G1 X123.428 Y103.825 E0.01314 F900.000
G1 F5760
G1 X123.131 Y104.418 E-0.22969
G1 E-0.57031 F2100.00000
G1 Z0.350 F7200.000
G1 X122.001 Y105.000 F7200.000
G1 E0.80000 F2100.00000
M204 S800
G1 X122.066 Y104.376 E0.01117 F900.000
G1 X122.260 Y103.780 E0.01117
G1 X122.574 Y103.237 E0.01117
G1 X122.975 Y102.790 E0.01071
G1 X123.500 Y102.403 E0.01163
G1 X124.049 Y102.157 E0.01071
G1 X124.713 Y102.017 E0.01208
G1 X125.361 Y102.030 E0.01156
G1 X125.927 Y102.147 E0.01029
G1 X126.500 Y102.403 E0.01117
G1 X127.007 Y102.771 E0.01117
G1 X127.426 Y103.237 E0.01117
G1 X127.740 Y103.780 E0.01117
G1 X127.934 Y104.376 E0.01117
G1 X127.999 Y105.000 E0.01117
G1 X127.934 Y105.624 E0.01117
G1 X127.740 Y106.220 E0.01117
G1 X127.426 Y106.763 E0.01117
G1 X127.007 Y107.229 E0.01117
G1 X126.500 Y107.597 E0.01117
G1 X125.927 Y107.853 E0.01117
G1 X125.314 Y107.983 E0.01117
G1 X124.713 Y107.984 E0.01071
G1 X124.049 Y107.843 E0.01208
G1 X123.500 Y107.597 E0.01071
G1 X122.975 Y107.210 E0.01163
G1 X122.574 Y106.763 E0.01071
G1 X122.260 Y106.220 E0.01117
G1 X122.066 Y105.624 E0.01117
G1 X122.001 Y105.000 E0.01117
M204 S1000
G1 F5760
G1 X122.066 Y105.624 E-0.21717
G1 F5760
G1 X122.260 Y106.220 E-0.21717
G1 F5760
G1 X122.574 Y106.763 E-0.21718
G1 F5760
G1 X122.783 Y106.996 E-0.10848
G1 E-0.04000 F2100.00000
G1 Z0.450 F7200.000
G1 X122.003 Y104.974 F7200.000
G1 E0.80000 F2100.00000
M204 S800
G1 X122.066 Y104.376 E0.01071 F900.000
G1 X122.260 Y103.780 E0.01117
G1 X122.574 Y103.237 E0.01117
G1 X122.993 Y102.771 E0.01117
G1 X123.500 Y102.403 E0.01117
G1 X124.073 Y102.147 E0.01117
G1 X124.686 Y102.017 E0.01117
G1 X125.287 Y102.016 E0.01071
G1 X125.951 Y102.157 E0.01208
G1 X126.500 Y102.403 E0.01071
G1 X127.025 Y102.790 E0.01163
G1 X127.426 Y103.237 E0.01071
G1 X127.740 Y103.780 E0.01117
G1 X127.929 Y104.377 E0.01116
G1 X127.999 Y105.000 E0.01116
G1 X127.934 Y105.624 E0.01117
G1 X127.740 Y106.220 E0.01117
G1 X127.426 Y106.763 E0.01117
G1 X127.007 Y107.229 E0.01117
G1 X126.500 Y107.597 E0.01117
G1 X125.927 Y107.853 E0.01117
G1 X125.314 Y107.983 E0.01117
G1 X124.713 Y107.984 E0.01071
G1 X124.049 Y107.843 E0.01208
