; generated by Slic3r 1.2.9 on 2016-08-16 at 07:29:20

; external perimeters extrusion width = 0.65mm
; perimeters extrusion width = 0.65mm
; infill extrusion width = 0.65mm
; solid infill extrusion width = 0.65mm
; top infill extrusion width = 0.75mm

M107
M83  ; extruder relative mode
M104 S210 ; set extruder temp
M140 S55 ; set bed temp
M190 S55 ; wait for bed temp
M109 S210 ; wait for extruder temp
G28 W ; home all without mesh bed level
G80 ; mesh bed leveling
G1 Y-3.0 F1000.0 ; go outside pritn area
G1 X60.0 E9.0  F1000.0 ; intro line
G1 X100.0 E12.5  F1000.0 ; intro line
G21 ; set units to millimeters
G90 ; use absolute coordinates
M83 ; use relative distances for extrusion
G1 E-0.80000 F2100.00000
G1 Z0.250 F6000.000
G1 X64.161 Y16.884 F6000.000
G1 E0.80000 F2100.00000
G1 X64.282 Y16.511 E0.02049 F1500.000
G1 X64.583 Y15.786 E0.04102
G1 X64.761 Y15.437 E0.02049
G1 X65.171 Y14.767 E0.04101
G1 X65.401 Y14.450 E0.02050
G1 X65.911 Y13.853 E0.04099
G1 X66.189 Y13.576 E0.02050
G1 X66.785 Y13.066 E0.04099
G1 X67.103 Y12.835 E0.02052
G1 X67.772 Y12.425 E0.04099
G1 X68.121 Y12.247 E0.02049
G1 X68.847 Y11.947 E0.04102
G1 X69.219 Y11.826 E0.02049
G1 X69.983 Y11.642 E0.04104
G1 X70.371 Y11.581 E0.02050
G1 X71.153 Y11.519 E0.04099
G1 X142.349 Y11.511 E3.71965
G1 X143.328 Y11.581 E0.05126
G1 X143.716 Y11.642 E0.02050
G1 X144.479 Y11.825 E0.04099
G1 X144.851 Y11.946 E0.02047
G1 X145.577 Y12.247 E0.04106
G1 X145.927 Y12.425 E0.02049
G1 X146.596 Y12.835 E0.04101
G1 X146.914 Y13.066 E0.02053
G1 X147.510 Y13.576 E0.04099
G1 X147.788 Y13.853 E0.02050
G1 X148.298 Y14.450 E0.04099
G1 X148.528 Y14.768 E0.02053
G1 X148.939 Y15.437 E0.04103
G1 X149.117 Y15.786 E0.02047
G1 X149.417 Y16.511 E0.04099
G1 X149.538 Y16.885 E0.02053
G1 X149.721 Y17.648 E0.04099
G1 X149.783 Y18.035 E0.02050
G1 X149.852 Y19.014 E0.05126
G1 X149.852 Y70.014 E2.66449
G1 X149.783 Y70.994 E0.05133
G1 X149.721 Y71.380 E0.02043
G1 X149.538 Y72.144 E0.04100
G1 X149.417 Y72.517 E0.02052
G1 X149.116 Y73.243 E0.04107
G1 X148.938 Y73.592 E0.02043
G1 X148.528 Y74.261 E0.04099
G1 X148.298 Y74.579 E0.02053
G1 X147.788 Y75.175 E0.04099
G1 X147.511 Y75.452 E0.02046
G1 X146.914 Y75.962 E0.04103
G1 X146.596 Y76.193 E0.02052
G1 X145.927 Y76.603 E0.04099
G1 X145.574 Y76.783 E0.02070
G1 X144.852 Y77.082 E0.04080
G1 X144.480 Y77.203 E0.02046
G1 X143.716 Y77.386 E0.04106
G1 X143.328 Y77.447 E0.02050
G1 X142.349 Y77.517 E0.05126
G1 X71.349 Y77.517 E3.70939
G1 X70.371 Y77.447 E0.05126
G1 X69.983 Y77.386 E0.02050
G1 X69.220 Y77.203 E0.04099
G1 X68.847 Y77.082 E0.02053
G1 X68.122 Y76.781 E0.04099
G1 X67.773 Y76.604 E0.02045
G1 X67.103 Y76.193 E0.04104
G1 X66.785 Y75.962 E0.02052
G1 X66.189 Y75.453 E0.04099
G1 X65.911 Y75.175 E0.02050
G1 X65.401 Y74.578 E0.04101
G1 X65.171 Y74.261 E0.02050
G1 X64.761 Y73.592 E0.04099
G1 X64.582 Y73.242 E0.02051
G1 X64.283 Y72.520 E0.04080
G1 X64.161 Y72.143 E0.02072
G1 X63.978 Y71.380 E0.04099
G1 X63.916 Y70.993 E0.02050
G1 X63.855 Y70.210 E0.04103
G1 X63.847 Y19.014 E2.67472
G1 X63.916 Y18.035 E0.05129
G1 X63.978 Y17.648 E0.02047
G1 X64.147 Y16.943 E0.03789
G1 F4800
G1 X64.282 Y16.511 E-0.18791
G1 F4800
G1 X64.583 Y15.786 E-0.32632
G1 F4800
G1 X64.761 Y15.437 E-0.16298
G1 F4800
G1 X64.865 Y15.267 E-0.08280
G1 E-0.04000 F2100.00000
G1 X121.260 Y39.114 F6000.000
G1 E0.80000 F2100.00000
G1 X121.665 Y39.815 E0.05018 F1200.000
G1 X121.935 Y40.646 E0.05412
G1 X122.026 Y41.514 E0.05412
G1 X121.935 Y42.382 E0.05412
G1 X121.665 Y43.213 E0.05412
G1 X121.228 Y43.969 E0.05412
G1 X120.644 Y44.618 E0.05412
G1 X119.938 Y45.131 E0.05412
G1 X119.140 Y45.486 E0.05412
G1 X118.286 Y45.668 E0.05412
G1 X117.413 Y45.668 E0.05412
G1 X116.559 Y45.486 E0.05412
G1 X115.761 Y45.131 E0.05412
G1 X115.055 Y44.618 E0.05412
G1 X114.471 Y43.969 E0.05412
G1 X114.034 Y43.213 E0.05412
G1 X113.764 Y42.382 E0.05412
G1 X113.673 Y41.514 E0.05412
G1 X113.764 Y40.646 E0.05412
G1 X114.034 Y39.815 E0.05412
G1 X114.471 Y39.059 E0.05412
G1 X115.055 Y38.410 E0.05412
G1 X115.761 Y37.897 E0.05412
G1 X116.559 Y37.542 E0.05412
G1 X117.413 Y37.361 E0.05412
G1 X118.286 Y37.361 E0.05412
G1 X119.140 Y37.542 E0.05412
G1 X119.938 Y37.897 E0.05412
G1 X120.650 Y38.415 E0.05458
G1 X121.221 Y39.069 E0.05381
G1 X120.773 Y39.463 F6000.000
G1 X121.117 Y40.059 E0.04271 F1200.000
G1 X121.348 Y40.770 E0.04635
G1 X121.426 Y41.514 E0.04635
G1 X121.348 Y42.258 E0.04635
G1 X121.117 Y42.969 E0.04635
G1 X120.743 Y43.617 E0.04635
G1 X120.243 Y44.172 E0.04635
G1 X119.638 Y44.612 E0.04635
G1 X118.955 Y44.916 E0.04635
G1 X118.223 Y45.071 E0.04635
G1 X117.476 Y45.071 E0.04635
G1 X116.744 Y44.916 E0.04635
G1 X116.061 Y44.612 E0.04635
G1 X115.456 Y44.172 E0.04635
G1 X114.956 Y43.617 E0.04635
G1 X114.582 Y42.969 E0.04635
G1 X114.351 Y42.258 E0.04635
G1 X114.273 Y41.514 E0.04635
G1 X114.351 Y40.770 E0.04635
G1 X114.582 Y40.059 E0.04635
G1 X114.956 Y39.412 E0.04635
G1 X115.456 Y38.856 E0.04635
G1 X116.061 Y38.417 E0.04635
G1 X116.744 Y38.112 E0.04635
G1 X117.476 Y37.957 E0.04635
G1 X118.223 Y37.957 E0.04635
G1 X118.955 Y38.112 E0.04635
G1 X119.638 Y38.417 E0.04635
G1 X120.245 Y38.858 E0.04651
G1 X120.733 Y39.417 E0.04604
G1 X121.172 Y39.437 F6000.000
G1 F4800
G1 X121.117 Y40.059 E-0.31088
G1 F4800
G1 X121.348 Y40.770 E-0.31079
G1 F4800
G1 X121.383 Y41.101 E-0.13833
G1 E-0.04000 F2100.00000
G1 X142.317 Y14.936 F6000.000
G1 E0.80000 F2100.00000
G1 X142.987 Y14.989 E0.04167 F1200.000
G1 X143.609 Y15.138 E0.03964
G1 X144.200 Y15.383 E0.03964
G1 X144.745 Y15.717 E0.03964
G1 X145.231 Y16.132 E0.03965
G1 X145.647 Y16.618 E0.03965
G1 X145.981 Y17.164 E0.03964
G1 X146.226 Y17.755 E0.03964
G1 X146.375 Y18.377 E0.03964
G1 X146.428 Y19.050 E0.04190
G1 X146.428 Y69.978 E3.15666
G1 X146.375 Y70.652 E0.04190
G1 X146.227 Y71.270 E0.03944
G1 X145.981 Y71.865 E0.03987
G1 X145.647 Y72.410 E0.03962
G1 X145.231 Y72.896 E0.03965
G1 X144.745 Y73.312 E0.03965
G1 X144.200 Y73.646 E0.03964
G1 X143.609 Y73.890 E0.03964
G1 X142.987 Y74.040 E0.03964
G1 X142.313 Y74.093 E0.04190
G1 X71.386 Y74.093 E4.39633
G1 X70.712 Y74.040 E0.04190
G1 X70.090 Y73.890 E0.03964
G1 X69.499 Y73.646 E0.03964
G1 X68.954 Y73.312 E0.03964
G1 X68.467 Y72.896 E0.03965
G1 X68.052 Y72.410 E0.03965
G1 X67.718 Y71.865 E0.03964
G1 X67.473 Y71.274 E0.03964
G1 X67.324 Y70.652 E0.03964
G1 X67.271 Y69.978 E0.04190
G1 X67.271 Y19.050 E3.15666
G1 X67.324 Y18.377 E0.04190
G1 X67.472 Y17.758 E0.03944
G1 X67.718 Y17.163 E0.03987
G1 X68.052 Y16.618 E0.03962
G1 X68.467 Y16.132 E0.03965
G1 X68.954 Y15.717 E0.03965
G1 X69.499 Y15.383 E0.03964
G1 X70.090 Y15.138 E0.03964
G1 X70.712 Y14.989 E0.03964
G1 X71.386 Y14.935 E0.04190
G1 X142.257 Y14.936 E4.39283
G1 X142.340 Y14.339 F6000.000
G1 X143.081 Y14.398 E0.04603 F1200.000
G1 X143.794 Y14.569 E0.04546
G1 X144.471 Y14.850 E0.04546
G1 X145.097 Y15.233 E0.04545
G1 X145.654 Y15.709 E0.04546
G1 X146.131 Y16.267 E0.04546
G1 X146.514 Y16.892 E0.04545
G1 X146.795 Y17.570 E0.04546
G1 X146.966 Y18.283 E0.04546
G1 X147.024 Y19.027 E0.04626
G1 X147.024 Y70.001 E3.15957
G1 X146.966 Y70.745 E0.04626
G1 X146.796 Y71.455 E0.04524
G1 X146.514 Y72.136 E0.04569
G1 X146.131 Y72.761 E0.04545
G1 X145.654 Y73.319 E0.04546
G1 X145.097 Y73.796 E0.04546
G1 X144.471 Y74.179 E0.04546
G1 X143.794 Y74.459 E0.04546
G1 X143.081 Y74.631 E0.04546
G1 X142.337 Y74.689 E0.04626
G1 X71.362 Y74.689 E4.39923
G1 X70.618 Y74.631 E0.04626
G1 X69.905 Y74.459 E0.04546
G1 X69.228 Y74.179 E0.04546
G1 X68.602 Y73.796 E0.04546
G1 X68.045 Y73.319 E0.04546
G1 X67.568 Y72.761 E0.04546
G1 X67.185 Y72.136 E0.04546
G1 X66.904 Y71.459 E0.04546
G1 X66.733 Y70.745 E0.04546
G1 X66.674 Y70.001 E0.04626
G1 X66.674 Y19.027 E3.15957
G1 X66.733 Y18.283 E0.04626
G1 X66.903 Y17.573 E0.04524
G1 X67.185 Y16.892 E0.04569
G1 X67.568 Y16.267 E0.04545
G1 X68.045 Y15.709 E0.04546
G1 X68.602 Y15.233 E0.04546
G1 X69.228 Y14.850 E0.04546
G1 X69.905 Y14.569 E0.04546
G1 X70.618 Y14.398 E0.04546
G1 X71.362 Y14.339 E0.04626
G1 X142.280 Y14.339 E4.39574
G1 X142.522 Y14.696 F6000.000
G1 F4800
G1 X143.081 Y14.398 E-0.33353
G1 F4800
G1 X143.794 Y14.569 E-0.30482
G1 F4800
G1 X144.064 Y14.681 E-0.12164
G1 E-0.04000 F2100.00000
G1 X142.864 Y15.456 F6000.000
G1 E0.80000 F2100.00000
G1 X145.908 Y18.500 E0.26741 F1200.000
G1 X145.978 Y19.415 E0.05702
G1 X141.949 Y15.386 E0.35395
G1 X141.104 Y15.386 E0.05249
G1 X145.978 Y20.260 E0.42818
G1 X145.978 Y21.105 E0.05249
G1 X140.259 Y15.386 E0.50241
G1 X139.413 Y15.386 E0.05249
G1 X145.978 Y21.950 E0.57665
G1 X145.978 Y22.796 E0.05249
G1 X138.568 Y15.386 E0.65088
G1 X137.723 Y15.386 E0.05249
G1 X145.978 Y23.641 E0.72511
G1 X145.978 Y24.486 E0.05249
G1 X136.878 Y15.386 E0.79934
G1 X136.033 Y15.386 E0.05249
G1 X145.978 Y25.331 E0.87358
G1 X145.978 Y26.176 E0.05249
G1 X135.188 Y15.386 E0.94781
G1 X134.343 Y15.386 E0.05249
G1 X145.978 Y27.021 E1.02204
G1 X145.978 Y27.866 E0.05249
G1 X133.498 Y15.386 E1.09628
G1 X132.653 Y15.386 E0.05249
G1 X145.978 Y28.711 E1.17051
G1 X145.978 Y29.556 E0.05249
G1 X131.808 Y15.386 E1.24474
G1 X130.962 Y15.386 E0.05249
G1 X145.978 Y30.401 E1.31897
G1 X145.978 Y31.247 E0.05249
G1 X130.117 Y15.386 E1.39321
G1 X129.272 Y15.386 E0.05249
G1 X145.978 Y32.092 E1.46744
G1 X145.978 Y32.937 E0.05249
G1 X128.427 Y15.386 E1.54167
G1 X127.582 Y15.386 E0.05249
G1 X145.978 Y33.782 E1.61591
G1 X145.978 Y34.627 E0.05249
G1 X126.737 Y15.386 E1.69014
G1 X125.892 Y15.386 E0.05249
G1 X145.978 Y35.472 E1.76437
G1 X145.978 Y36.317 E0.05249
G1 X125.047 Y15.386 E1.83860
G1 X124.202 Y15.386 E0.05249
G1 X145.978 Y37.162 E1.91284
G1 X145.978 Y38.007 E0.05249
G1 X123.356 Y15.386 E1.98707
G1 X122.511 Y15.386 E0.05249
G1 X145.978 Y38.853 E2.06130
G1 X145.978 Y39.698 E0.05249
G1 X121.666 Y15.386 E2.13554
G1 X120.821 Y15.386 E0.05249
G1 X145.978 Y40.543 E2.20977
G1 X145.978 Y41.388 E0.05249
G1 X119.976 Y15.386 E2.28400
G1 X119.131 Y15.386 E0.05249
G1 X145.978 Y42.233 E2.35823
G1 X145.978 Y43.078 E0.05249
G1 X118.286 Y15.386 E2.43247
G1 X117.441 Y15.386 E0.05249
G1 X145.978 Y43.923 E2.50670
G1 X145.978 Y44.768 E0.05249
G1 X116.596 Y15.385 E2.58093
G1 X115.750 Y15.385 E0.05249
G1 X145.978 Y45.613 E2.65517
G1 X145.978 Y46.458 E0.05249
G1 X114.905 Y15.385 E2.72940
G1 X114.060 Y15.385 E0.05249
G1 X145.978 Y47.304 E2.80363
G1 X145.978 Y48.149 E0.05249
G1 X113.215 Y15.385 E2.87786
G1 X112.370 Y15.385 E0.05249
G1 X145.978 Y48.994 E2.95210
G1 X145.978 Y49.839 E0.05249
G1 X111.525 Y15.385 E3.02633
G1 X110.680 Y15.385 E0.05249
G1 X145.978 Y50.684 E3.10056
G1 X145.978 Y51.529 E0.05249
G1 X109.835 Y15.385 E3.17479
G1 X108.990 Y15.385 E0.05249
G1 X145.978 Y52.374 E3.24903
G1 X145.978 Y53.219 E0.05249
G1 X108.144 Y15.385 E3.32326
G1 X107.299 Y15.385 E0.05249
G1 X145.978 Y54.064 E3.39749
G1 X145.978 Y54.909 E0.05249
G1 X106.454 Y15.385 E3.47173
G1 X105.609 Y15.385 E0.05249
G1 X145.978 Y55.755 E3.54596
G1 X145.978 Y56.600 E0.05249
G1 X104.764 Y15.385 E3.62019
G1 X103.919 Y15.385 E0.05249
G1 X145.978 Y57.445 E3.69442
G1 X145.978 Y58.290 E0.05249
G1 X103.074 Y15.385 E3.76866
G1 X102.229 Y15.385 E0.05249
G1 X145.978 Y59.135 E3.84289
G1 X145.978 Y59.980 E0.05249
G1 X101.384 Y15.385 E3.91712
G1 X100.539 Y15.385 E0.05249
G1 X145.978 Y60.825 E3.99136
G1 X145.978 Y61.670 E0.05249
G1 X99.693 Y15.385 E4.06559
G1 X98.848 Y15.385 E0.05249
G1 X145.978 Y62.515 E4.13982
G1 X145.978 Y63.361 E0.05249
G1 X122.063 Y39.445 E2.10066
G1 X122.399 Y40.626 E0.07625
G1 X145.978 Y64.206 E2.07118
G1 X145.978 Y65.051 E0.05249
G1 X122.463 Y41.536 E2.06552
G1 X122.383 Y42.301 E0.04776
G1 X145.978 Y65.896 E2.07257
G1 X145.978 Y66.741 E0.05249
G1 X122.188 Y42.951 E2.08968
G1 X121.938 Y43.546 E0.04009
G1 X145.978 Y67.586 E2.11163
G1 X145.978 Y68.431 E0.05249
G1 X121.629 Y44.082 E2.13880
G1 X121.246 Y44.544 E0.03728
G1 X145.978 Y69.276 E2.17246
G1 X145.975 Y70.118 E0.05231
G1 X120.832 Y44.975 E2.20855
G1 X120.343 Y45.331 E0.03758
G1 X145.886 Y70.874 E2.24368
G1 X145.681 Y71.514 E0.04175
G1 X119.805 Y45.638 E2.27291
G1 X119.220 Y45.899 E0.03976
G1 X145.386 Y72.065 E2.29840
G1 X145.006 Y72.529 E0.03730
G1 X118.529 Y46.052 E2.32571
G1 X117.749 Y46.118 E0.04859
G1 X144.570 Y72.938 E2.35588
G1 X144.049 Y73.263 E0.03809
G1 X116.817 Y46.031 E2.39206
G1 F4800
G1 X118.110 Y47.324 E-0.76000
G1 E-0.04000 F2100.00000
G1 X115.530 Y45.589 F6000.000
G1 E0.80000 F2100.00000
G1 X143.437 Y73.496 E2.45132 F1200.000
G1 X142.716 Y73.619 E0.04547
G1 X84.481 Y15.385 E5.11519
G1 X85.327 Y15.385 E0.05249
G1 X113.788 Y43.847 E2.50003
G1 F4800
G1 X112.495 Y42.554 E-0.76000
G1 E-0.04000 F2100.00000
G1 X113.313 Y42.527 F6000.000
G1 E0.80000 F2100.00000
G1 X86.172 Y15.385 E2.38407 F1200.000
G1 X87.017 Y15.385 E0.05249
G1 X113.225 Y41.594 E2.30209
G1 X113.305 Y40.829 E0.04776
G1 X87.862 Y15.385 E2.23491
G1 X88.707 Y15.385 E0.05249
G1 X113.483 Y40.162 E2.17630
G1 X113.720 Y39.553 E0.04056
G1 X89.552 Y15.385 E2.12284
G1 X90.397 Y15.385 E0.05249
G1 X114.029 Y39.017 E2.07578
G1 X114.400 Y38.543 E0.03739
G1 X91.242 Y15.385 E2.03415
G1 X92.087 Y15.385 E0.05249
G1 X114.802 Y38.100 E1.99522
G1 X115.292 Y37.744 E0.03758
G1 X92.933 Y15.385 E1.96399
G1 X93.778 Y15.385 E0.05249
G1 X115.817 Y37.425 E1.93588
G1 X116.402 Y37.164 E0.03976
G1 X94.623 Y15.385 E1.91301
G1 X95.468 Y15.385 E0.05249
G1 X117.078 Y36.996 E1.89823
G1 X117.838 Y36.911 E0.04750
G1 X96.313 Y15.385 E1.89075
G1 X97.158 Y15.385 E0.05249
G1 X118.740 Y36.968 E1.89574
G1 X119.968 Y37.350 E0.07985
G1 X98.003 Y15.385 E1.92933
G1 F4800
G1 X99.296 Y16.678 E-0.76000
G1 E-0.04000 F2100.00000
G1 X83.636 Y15.385 F6000.000
G1 E0.80000 F2100.00000
G1 X141.894 Y73.643 E5.11725 F1200.000
G1 X141.049 Y73.643 E0.05249
G1 X82.791 Y15.385 E5.11725
G1 X81.946 Y15.385 E0.05249
G1 X140.204 Y73.643 E5.11725
G1 X139.359 Y73.643 E0.05249
G1 X81.101 Y15.385 E5.11725
G1 X80.256 Y15.385 E0.05249
G1 X138.514 Y73.643 E5.11725
G1 X137.668 Y73.643 E0.05249
G1 X79.411 Y15.385 E5.11725
G1 X78.566 Y15.385 E0.05249
G1 X136.823 Y73.643 E5.11725
G1 X135.978 Y73.643 E0.05249
G1 X77.721 Y15.385 E5.11725
G1 X76.876 Y15.385 E0.05249
G1 X135.133 Y73.643 E5.11725
G1 X134.288 Y73.643 E0.05249
G1 X76.030 Y15.385 E5.11725
G1 X75.185 Y15.385 E0.05249
G1 X133.443 Y73.643 E5.11725
G1 X132.598 Y73.643 E0.05249
G1 X74.340 Y15.385 E5.11726
G1 X73.495 Y15.385 E0.05249
G1 X131.753 Y73.643 E5.11726
G1 X130.908 Y73.643 E0.05249
G1 X72.650 Y15.385 E5.11726
G1 X71.805 Y15.385 E0.05249
G1 X130.063 Y73.643 E5.11726
G1 X129.217 Y73.643 E0.05249
G1 X70.983 Y15.409 E5.11519
G1 X70.262 Y15.532 E0.04547
G1 X128.372 Y73.643 E5.10434
G1 X127.527 Y73.643 E0.05249
G1 X69.649 Y15.765 E5.08389
G1 X69.129 Y16.090 E0.03809
G1 X126.682 Y73.643 E5.05534
G1 X125.837 Y73.643 E0.05249
G1 X68.693 Y16.499 E5.01941
G1 X68.313 Y16.964 E0.03730
G1 X124.992 Y73.643 E4.97862
G1 X124.147 Y73.643 E0.05249
G1 X68.018 Y17.514 E4.93026
G1 X67.813 Y18.154 E0.04175
G1 X123.302 Y73.643 E4.87403
G1 X122.457 Y73.643 E0.05249
G1 X67.724 Y18.910 E4.80766
G1 X67.721 Y19.752 E0.05231
G1 X121.611 Y73.643 E4.73368
G1 X120.766 Y73.643 E0.05249
G1 X67.721 Y20.597 E4.65945
G1 X67.721 Y21.442 E0.05249
G1 X119.921 Y73.643 E4.58522
G1 X119.076 Y73.643 E0.05249
G1 X67.721 Y22.287 E4.51098
G1 X67.721 Y23.133 E0.05249
G1 X118.231 Y73.643 E4.43675
G1 X117.386 Y73.643 E0.05249
G1 X67.721 Y23.978 E4.36252
G1 X67.721 Y24.823 E0.05249
G1 X116.541 Y73.643 E4.28829
G1 X115.696 Y73.643 E0.05249
G1 X67.721 Y25.668 E4.21405
G1 X67.721 Y26.513 E0.05249
G1 X114.851 Y73.643 E4.13982
G1 X114.006 Y73.643 E0.05249
G1 X67.721 Y27.358 E4.06559
G1 X67.721 Y28.203 E0.05249
G1 X113.160 Y73.643 E3.99136
G1 X112.315 Y73.643 E0.05249
G1 X67.721 Y29.048 E3.91712
G1 X67.721 Y29.893 E0.05249
G1 X111.470 Y73.643 E3.84289
G1 X110.625 Y73.643 E0.05249
G1 X67.721 Y30.738 E3.76866
G1 X67.721 Y31.584 E0.05249
G1 X109.780 Y73.643 E3.69443
G1 X108.935 Y73.643 E0.05249
G1 X67.721 Y32.429 E3.62019
G1 X67.721 Y33.274 E0.05249
G1 X108.090 Y73.643 E3.54596
G1 X107.245 Y73.643 E0.05249
G1 X67.721 Y34.119 E3.47173
G1 X67.721 Y34.964 E0.05249
G1 X106.400 Y73.643 E3.39750
G1 X105.555 Y73.643 E0.05249
G1 X67.721 Y35.809 E3.32326
G1 X67.721 Y36.654 E0.05249
G1 X104.709 Y73.643 E3.24903
G1 X103.864 Y73.643 E0.05249
G1 X67.721 Y37.499 E3.17480
