; generated by Slic3r 1.2.9 on 2016-06-21 at 17:11:44

; external perimeters extrusion width = 0.45mm
; perimeters extrusion width = 0.45mm
; infill extrusion width = 0.45mm
; solid infill extrusion width = 0.45mm
; top infill extrusion width = 0.45mm

M107
M190 S50 ; set bed temperature
M201 X1000 Y1000 E600
M109 S210
M92 E161.3
G28
G92 E0.0
G1 X8.0 F2000
G1 Y60.0 E4.0  F1000.0
G1 Y100.0 E8.5  F1000.0
G92 E0.0
G21 ; set units to millimeters
G90 ; use absolute coordinates
M83 ; use relative distances for extrusion
G1 E-1.50000 F1800.00000
G1 Z0.200 F6000.000
G1 X60.788 Y71.638 F6000.000
G1 E1.50000 F1800.00000
G1 E0.04918 F1800.000 ; pressure advance
G1 X61.855 Y70.775 E0.04648 F2100.000
G1 X62.773 Y70.593 E0.03165
G1 X137.273 Y70.593 E2.52174
G1 X138.589 Y70.985 E0.04648
G1 X139.476 Y72.032 E0.04648
G1 X139.680 Y73.000 E0.03347
G1 X139.680 Y127.000 E1.82784
G1 X139.288 Y128.316 E0.04648
G1 X138.240 Y129.204 E0.04648
G1 X137.273 Y129.407 E0.03347
G1 X62.773 Y129.407 E2.52174
G1 X61.456 Y129.016 E0.04648
G1 X60.569 Y127.968 E0.04648
G1 X60.365 Y127.004 E0.03334
G1 X60.321 Y99.219 E0.94048
G1 X60.324 Y74.802 E0.82650
G1 X60.366 Y72.945 E0.06287
G1 X60.769 Y71.695 E0.04445
G1 E-0.04918 F1800.000 ; pressure discharge
G1 E-1.50000 F1800.00000
G1 X136.640 Y126.368 F6000.000
G1 E1.50000 F1800.00000
G1 E0.03144 F1800.000 ; pressure advance
G1 X63.405 Y126.368 E2.47895 F1680.000
G1 X63.405 Y73.632 E1.78505
G1 X136.640 Y73.632 E2.47895
G1 X136.640 Y126.308 E1.78301
G1 X137.048 Y126.775 F6000.000
G1 X62.998 Y126.775 E2.50650 F1680.000
G1 X62.998 Y73.225 E1.81260
G1 X137.048 Y73.225 E2.50650
G1 X137.048 Y126.715 E1.81057
G1 X136.701 Y126.575 F6000.000
G1 E-0.03144 F1800.000 ; pressure discharge
G1 E-1.50000 F1800.00000
G1 X136.340 Y74.146 F6000.000
G1 E1.50000 F1800.00000
G1 X136.127 Y73.933 E0.01023 F1680.000
G1 X135.549 Y73.933 E0.01967
G1 X136.340 Y74.724 E0.03804
G1 X136.340 Y75.302 E0.01967
G1 X134.970 Y73.933 E0.06585
G1 X134.392 Y73.933 E0.01967
G1 X136.340 Y75.881 E0.09367
G1 X136.340 Y76.459 E0.01967
G1 X133.814 Y73.933 E0.12148
G1 X133.235 Y73.933 E0.01967
G1 X136.340 Y77.037 E0.14929
G1 X136.340 Y77.616 E0.01967
G1 X132.657 Y73.933 E0.17710
G1 X132.079 Y73.933 E0.01967
G1 X136.340 Y78.194 E0.20491
G1 X136.340 Y78.772 E0.01967
G1 X131.500 Y73.933 E0.23273
G1 X130.922 Y73.933 E0.01967
G1 X136.340 Y79.351 E0.26054
G1 X136.340 Y79.929 E0.01967
G1 X130.344 Y73.933 E0.28835
G1 X129.765 Y73.933 E0.01967
G1 X136.340 Y80.507 E0.31616
G1 X136.340 Y81.086 E0.01967
G1 X129.187 Y73.933 E0.34397
G1 X128.609 Y73.933 E0.01967
G1 X136.340 Y81.664 E0.37179
G1 X136.340 Y82.242 E0.01967
G1 X128.030 Y73.933 E0.39960
G1 X127.452 Y73.933 E0.01967
G1 X136.340 Y82.821 E0.42741
G1 X136.340 Y83.399 E0.01967
G1 X126.874 Y73.933 E0.45522
G1 X126.295 Y73.933 E0.01967
G1 X136.340 Y83.978 E0.48304
G1 X136.340 Y84.556 E0.01967
G1 X125.717 Y73.933 E0.51085
G1 X125.139 Y73.933 E0.01967
G1 X136.340 Y85.134 E0.53866
G1 X136.340 Y85.713 E0.01967
G1 X124.560 Y73.933 E0.56647
G1 X123.982 Y73.933 E0.01967
G1 X136.340 Y86.291 E0.59428
G1 X136.340 Y86.869 E0.01967
G1 X123.404 Y73.933 E0.62210
G1 X122.825 Y73.933 E0.01967
G1 X136.340 Y87.448 E0.64991
G1 X136.340 Y88.026 E0.01967
G1 X122.247 Y73.933 E0.67772
G1 X121.668 Y73.933 E0.01967
G1 X136.340 Y88.604 E0.70553
G1 X136.340 Y89.183 E0.01967
G1 X121.090 Y73.933 E0.73334
G1 X120.512 Y73.933 E0.01967
G1 X136.340 Y89.761 E0.76116
G1 X136.340 Y90.339 E0.01967
G1 X119.933 Y73.933 E0.78897
G1 X119.355 Y73.933 E0.01967
G1 X136.340 Y90.918 E0.81678
G1 X136.340 Y91.496 E0.01967
G1 X118.777 Y73.933 E0.84459
G1 X118.198 Y73.933 E0.01967
G1 X136.340 Y92.074 E0.87241
G1 X136.340 Y92.653 E0.01967
G1 X117.620 Y73.933 E0.90022
G1 X117.042 Y73.933 E0.01967
G1 X136.340 Y93.231 E0.92803
G1 X136.340 Y93.809 E0.01967
G1 X116.463 Y73.933 E0.95584
G1 X115.885 Y73.933 E0.01967
G1 X136.340 Y94.388 E0.98365
G1 X136.340 Y94.966 E0.01967
G1 X115.307 Y73.933 E1.01147
G1 X114.728 Y73.933 E0.01967
G1 X136.340 Y95.544 E1.03928
G1 X136.340 Y96.123 E0.01967
G1 X114.150 Y73.933 E1.06709
G1 X113.572 Y73.933 E0.01967
G1 X136.340 Y96.701 E1.09490
G1 X136.340 Y97.279 E0.01967
G1 X112.993 Y73.933 E1.12271
G1 X112.415 Y73.933 E0.01967
G1 X136.340 Y97.858 E1.15053
G1 X136.340 Y98.436 E0.01967
G1 X111.837 Y73.933 E1.17834
G1 X111.258 Y73.933 E0.01967
G1 X136.340 Y99.014 E1.20615
G1 X136.340 Y99.593 E0.01967
G1 X110.680 Y73.933 E1.23396
G1 X110.102 Y73.933 E0.01967
G1 X136.340 Y100.171 E1.26177
G1 X136.340 Y100.749 E0.01967
G1 X109.523 Y73.933 E1.28959
G1 X108.945 Y73.933 E0.01967
G1 X136.340 Y101.328 E1.31740
G1 X136.340 Y101.906 E0.01967
G1 X108.367 Y73.933 E1.34521
G1 X107.788 Y73.933 E0.01967
G1 X136.340 Y102.484 E1.37302
G1 X136.340 Y103.063 E0.01967
G1 X107.210 Y73.933 E1.40084
G1 X106.632 Y73.933 E0.01967
G1 X136.340 Y103.641 E1.42865
G1 X136.340 Y104.219 E0.01967
G1 X106.053 Y73.933 E1.45646
G1 X105.475 Y73.933 E0.01967
G1 X136.340 Y104.798 E1.48427
G1 X136.340 Y105.376 E0.01967
G1 X104.897 Y73.933 E1.51208
G1 X104.318 Y73.933 E0.01967
G1 X136.340 Y105.955 E1.53990
G1 X136.340 Y106.533 E0.01967
G1 X103.740 Y73.933 E1.56771
G1 X103.162 Y73.933 E0.01967
G1 X136.340 Y107.111 E1.59552
G1 X136.340 Y107.690 E0.01967
G1 X102.583 Y73.933 E1.62333
G1 X102.005 Y73.933 E0.01967
G1 X136.340 Y108.268 E1.65114
G1 X136.340 Y108.846 E0.01967
G1 X101.426 Y73.933 E1.67896
G1 X100.848 Y73.933 E0.01967
G1 X136.340 Y109.425 E1.70677
G1 X136.340 Y110.003 E0.01967
G1 X100.270 Y73.933 E1.73458
G1 X99.691 Y73.933 E0.01967
G1 X136.340 Y110.581 E1.76239
G1 X136.340 Y111.160 E0.01967
G1 X99.113 Y73.933 E1.79021
G1 X98.535 Y73.933 E0.01967
G1 X136.340 Y111.738 E1.81802
G1 X136.340 Y112.316 E0.01967
G1 X97.956 Y73.933 E1.84583
G1 X97.378 Y73.933 E0.01967
G1 X136.340 Y112.895 E1.87364
G1 X136.340 Y113.473 E0.01967
G1 X96.800 Y73.933 E1.90145
G1 X96.221 Y73.933 E0.01967
G1 X136.340 Y114.051 E1.92927
G1 X136.340 Y114.630 E0.01967
G1 X95.643 Y73.933 E1.95708
G1 X95.065 Y73.933 E0.01967
G1 X136.340 Y115.208 E1.98489
G1 X136.340 Y115.786 E0.01967
G1 X94.486 Y73.933 E2.01270
G1 X93.908 Y73.933 E0.01967
G1 X136.340 Y116.365 E2.04051
G1 X136.340 Y116.943 E0.01967
G1 X93.330 Y73.933 E2.06833
G1 X92.751 Y73.933 E0.01967
G1 X136.340 Y117.521 E2.09614
G1 X136.340 Y118.100 E0.01967
G1 X92.173 Y73.933 E2.12395
G1 X91.595 Y73.933 E0.01967
G1 X136.340 Y118.678 E2.15176
G1 X136.340 Y119.256 E0.01967
G1 X91.016 Y73.933 E2.17958
G1 X90.438 Y73.933 E0.01967
G1 X136.340 Y119.835 E2.20739
G1 X136.340 Y120.413 E0.01967
G1 X89.860 Y73.933 E2.23520
G1 X89.281 Y73.933 E0.01967
G1 X136.340 Y120.991 E2.26301
G1 X136.340 Y121.570 E0.01967
G1 X88.703 Y73.933 E2.29082
G1 X88.125 Y73.933 E0.01967
G1 X136.340 Y122.148 E2.31864
G1 X136.340 Y122.726 E0.01967
G1 X87.546 Y73.933 E2.34645
G1 X86.968 Y73.933 E0.01967
G1 X136.340 Y123.305 E2.37426
G1 X136.340 Y123.883 E0.01967
G1 X86.390 Y73.933 E2.40207
G1 X85.811 Y73.933 E0.01967
G1 X136.340 Y124.461 E2.42988
G1 X136.340 Y125.040 E0.01967
G1 X85.233 Y73.933 E2.45770
G1 X84.655 Y73.933 E0.01967
G1 X136.340 Y125.618 E2.48551
G1 X136.211 Y126.067 E0.01589
G1 X84.076 Y73.933 E2.50711
G1 X83.498 Y73.933 E0.01967
G1 X135.632 Y126.067 E2.50711
G1 X135.054 Y126.067 E0.01967
G1 X82.920 Y73.933 E2.50711
G1 X82.341 Y73.933 E0.01967
G1 X134.476 Y126.067 E2.50711
G1 X133.897 Y126.067 E0.01967
G1 X81.763 Y73.933 E2.50711
G1 X81.184 Y73.933 E0.01967
G1 X133.319 Y126.067 E2.50711
G1 X132.741 Y126.067 E0.01967
G1 X80.606 Y73.933 E2.50711
G1 X80.028 Y73.933 E0.01967
G1 X132.162 Y126.067 E2.50711
G1 X131.584 Y126.067 E0.01967
G1 X79.449 Y73.933 E2.50711
G1 X78.871 Y73.933 E0.01967
G1 X131.006 Y126.067 E2.50711
G1 X130.427 Y126.067 E0.01967
G1 X78.293 Y73.933 E2.50711
G1 X77.714 Y73.933 E0.01967
G1 X129.849 Y126.067 E2.50711
G1 X129.271 Y126.067 E0.01967
G1 X77.136 Y73.933 E2.50711
G1 X76.558 Y73.933 E0.01967
G1 X128.692 Y126.067 E2.50711
G1 X128.114 Y126.067 E0.01967
G1 X75.979 Y73.933 E2.50711
G1 X75.401 Y73.933 E0.01967
G1 X127.536 Y126.067 E2.50711
G1 X126.957 Y126.067 E0.01967
G1 X74.823 Y73.933 E2.50711
G1 X74.244 Y73.933 E0.01967
G1 X126.379 Y126.067 E2.50711
G1 X125.800 Y126.067 E0.01967
G1 X73.666 Y73.933 E2.50711
G1 X73.088 Y73.933 E0.01967
G1 X125.222 Y126.067 E2.50711
G1 X124.644 Y126.067 E0.01967
G1 X72.509 Y73.933 E2.50711
G1 X71.931 Y73.933 E0.01967
G1 X124.065 Y126.067 E2.50711
G1 X123.487 Y126.067 E0.01967
G1 X71.353 Y73.933 E2.50711
G1 X70.774 Y73.933 E0.01967
G1 X122.909 Y126.067 E2.50711
G1 X122.330 Y126.067 E0.01967
G1 X70.196 Y73.933 E2.50711
G1 X69.618 Y73.933 E0.01967
G1 X121.752 Y126.067 E2.50711
G1 X121.174 Y126.067 E0.01967
G1 X69.039 Y73.933 E2.50711
G1 X68.461 Y73.933 E0.01967
G1 X120.595 Y126.067 E2.50711
G1 X120.017 Y126.067 E0.01967
G1 X67.883 Y73.933 E2.50711
G1 X67.304 Y73.933 E0.01967
G1 X119.439 Y126.067 E2.50711
G1 X118.860 Y126.067 E0.01967
G1 X66.726 Y73.933 E2.50711
G1 X66.148 Y73.933 E0.01967
G1 X118.282 Y126.067 E2.50711
G1 X117.704 Y126.067 E0.01967
G1 X65.569 Y73.933 E2.50711
G1 X64.991 Y73.933 E0.01967
G1 X117.125 Y126.067 E2.50711
G1 X116.547 Y126.067 E0.01967
G1 X64.413 Y73.933 E2.50711
G1 X63.834 Y73.933 E0.01967
G1 X115.969 Y126.067 E2.50711
G1 X115.390 Y126.067 E0.01967
G1 X63.705 Y74.382 E2.48550
G1 X63.705 Y74.961 E0.01967
G1 X114.812 Y126.067 E2.45769
G1 X114.234 Y126.067 E0.01967
G1 X63.705 Y75.539 E2.42988
G1 X63.705 Y76.117 E0.01967
G1 X113.655 Y126.067 E2.40206
G1 X113.077 Y126.067 E0.01967
G1 X63.705 Y76.696 E2.37425
G1 X63.705 Y77.274 E0.01967
G1 X112.499 Y126.067 E2.34644
G1 X111.920 Y126.067 E0.01967
G1 X63.705 Y77.852 E2.31863
G1 X63.705 Y78.431 E0.01967
G1 X111.342 Y126.067 E2.29081
G1 X110.764 Y126.067 E0.01967
G1 X63.705 Y79.009 E2.26300
G1 X63.705 Y79.587 E0.01967
G1 X110.185 Y126.067 E2.23519
G1 X109.607 Y126.067 E0.01967
G1 X63.705 Y80.166 E2.20738
G1 X63.705 Y80.744 E0.01967
G1 X109.029 Y126.067 E2.17957
G1 X108.450 Y126.067 E0.01967
G1 X63.705 Y81.323 E2.15175
G1 X63.705 Y81.901 E0.01967
G1 X107.872 Y126.067 E2.12394
G1 X107.294 Y126.067 E0.01967
G1 X63.705 Y82.479 E2.09613
G1 X63.705 Y83.058 E0.01967
G1 X106.715 Y126.067 E2.06832
G1 X106.137 Y126.067 E0.01967
G1 X63.705 Y83.636 E2.04051
G1 X63.705 Y84.214 E0.01967
G1 X105.558 Y126.067 E2.01269
G1 X104.980 Y126.067 E0.01967
G1 X63.705 Y84.793 E1.98488
G1 X63.705 Y85.371 E0.01967
G1 X104.402 Y126.067 E1.95707
G1 X103.823 Y126.067 E0.01967
G1 X63.705 Y85.949 E1.92926
G1 X63.705 Y86.528 E0.01967
G1 X103.245 Y126.067 E1.90145
G1 X102.667 Y126.067 E0.01967
G1 X63.705 Y87.106 E1.87363
G1 X63.705 Y87.684 E0.01967
G1 X102.088 Y126.067 E1.84582
G1 X101.510 Y126.067 E0.01967
G1 X63.705 Y88.263 E1.81801
G1 X63.705 Y88.841 E0.01967
G1 X100.932 Y126.067 E1.79020
G1 X100.353 Y126.067 E0.01967
G1 X63.705 Y89.419 E1.76238
G1 X63.705 Y89.998 E0.01967
G1 X99.775 Y126.067 E1.73457
G1 X99.197 Y126.067 E0.01967
G1 X63.705 Y90.576 E1.70676
G1 X63.705 Y91.154 E0.01967
G1 X98.618 Y126.067 E1.67895
G1 X98.040 Y126.067 E0.01967
G1 X63.705 Y91.733 E1.65114
G1 X63.705 Y92.311 E0.01967
G1 X97.462 Y126.067 E1.62332
G1 X96.883 Y126.067 E0.01967
G1 X63.705 Y92.889 E1.59551
G1 X63.705 Y93.468 E0.01967
G1 X96.305 Y126.067 E1.56770
G1 X95.727 Y126.067 E0.01967
G1 X63.705 Y94.046 E1.53989
G1 X63.705 Y94.624 E0.01967
G1 X95.148 Y126.067 E1.51208
G1 X94.570 Y126.067 E0.01967
G1 X63.705 Y95.203 E1.48426
G1 X63.705 Y95.781 E0.01967
G1 X93.992 Y126.067 E1.45645
G1 X93.413 Y126.067 E0.01967
G1 X63.705 Y96.359 E1.42864
G1 X63.705 Y96.938 E0.01967
G1 X92.835 Y126.067 E1.40083
G1 X92.257 Y126.067 E0.01967
G1 X63.705 Y97.516 E1.37301
G1 X63.705 Y98.094 E0.01967
G1 X91.678 Y126.067 E1.34520
G1 X91.100 Y126.067 E0.01967
G1 X63.705 Y98.673 E1.31739
G1 X63.705 Y99.251 E0.01967
G1 X90.522 Y126.067 E1.28958
G1 X89.943 Y126.067 E0.01967
G1 X63.705 Y99.829 E1.26177
G1 X63.705 Y100.408 E0.01967
G1 X89.365 Y126.067 E1.23395
G1 X88.787 Y126.067 E0.01967
G1 X63.705 Y100.986 E1.20614
G1 X63.705 Y101.564 E0.01967
G1 X88.208 Y126.067 E1.17833
G1 X87.630 Y126.067 E0.01967
G1 X63.705 Y102.143 E1.15052
G1 X63.705 Y102.721 E0.01967
G1 X87.052 Y126.067 E1.12271
G1 X86.473 Y126.067 E0.01967
G1 X63.705 Y103.300 E1.09489
G1 X63.705 Y103.878 E0.01967
G1 X85.895 Y126.067 E1.06708
G1 X85.317 Y126.067 E0.01967
G1 X63.705 Y104.456 E1.03927
G1 X63.705 Y105.035 E0.01967
G1 X84.738 Y126.067 E1.01146
G1 X84.160 Y126.067 E0.01967
G1 X63.705 Y105.613 E0.98364
G1 X63.705 Y106.191 E0.01967
G1 X83.581 Y126.067 E0.95583
G1 X83.003 Y126.067 E0.01967
G1 X63.705 Y106.770 E0.92802
G1 X63.705 Y107.348 E0.01967
G1 X82.425 Y126.067 E0.90021
G1 X81.846 Y126.067 E0.01967
G1 X63.705 Y107.926 E0.87240
G1 X63.705 Y108.505 E0.01967
G1 X81.268 Y126.067 E0.84458
G1 X80.690 Y126.067 E0.01967
G1 X63.705 Y109.083 E0.81677
G1 X63.705 Y109.661 E0.01967
G1 X80.111 Y126.067 E0.78896
G1 X79.533 Y126.067 E0.01967
G1 X63.705 Y110.240 E0.76115
G1 X63.705 Y110.818 E0.01967
G1 X78.955 Y126.067 E0.73334
G1 X78.376 Y126.067 E0.01967
G1 X63.705 Y111.396 E0.70552
G1 X63.705 Y111.975 E0.01967
G1 X77.798 Y126.067 E0.67771
G1 X77.220 Y126.067 E0.01967
G1 X63.705 Y112.553 E0.64990
G1 X63.705 Y113.131 E0.01967
G1 X76.641 Y126.067 E0.62209
G1 X76.063 Y126.067 E0.01967
G1 X63.705 Y113.710 E0.59427
G1 X63.705 Y114.288 E0.01967
G1 X75.485 Y126.067 E0.56646
G1 X74.906 Y126.067 E0.01967
G1 X63.705 Y114.866 E0.53865
G1 X63.705 Y115.445 E0.01967
G1 X74.328 Y126.067 E0.51084
G1 X73.750 Y126.067 E0.01967
G1 X63.705 Y116.023 E0.48303
G1 X63.705 Y116.601 E0.01967
G1 X73.171 Y126.067 E0.45521
G1 X72.593 Y126.067 E0.01967
G1 X63.705 Y117.180 E0.42740
G1 X63.705 Y117.758 E0.01967
G1 X72.015 Y126.067 E0.39959
G1 X71.436 Y126.067 E0.01967
G1 X63.705 Y118.336 E0.37178
G1 X63.705 Y118.915 E0.01967
G1 X70.858 Y126.067 E0.34397
G1 X70.280 Y126.067 E0.01967
G1 X63.705 Y119.493 E0.31615
G1 X63.705 Y120.071 E0.01967
G1 X69.701 Y126.067 E0.28834
G1 X69.123 Y126.067 E0.01967
G1 X63.705 Y120.650 E0.26053
G1 X63.705 Y121.228 E0.01967
G1 X68.545 Y126.067 E0.23272
G1 X67.966 Y126.067 E0.01967
G1 X63.705 Y121.806 E0.20491
G1 X63.705 Y122.385 E0.01967
G1 X67.388 Y126.067 E0.17709
G1 X66.810 Y126.067 E0.01967
G1 X63.705 Y122.963 E0.14928
G1 X63.705 Y123.542 E0.01967
G1 X66.231 Y126.067 E0.12147
G1 X65.653 Y126.067 E0.01967
G1 X63.705 Y124.120 E0.09366
G1 X63.705 Y124.698 E0.01967
G1 X65.075 Y126.067 E0.06584
G1 X64.496 Y126.067 E0.01967
G1 X63.705 Y125.277 E0.03803
M106 S216.75
G1 E-1.50000 F1800.00000
G1 Z0.400 F6000.000
G1 X136.640 Y126.368 F6000.000
G1 E1.50000 F1800.00000
G1 E0.06416 F1800.000 ; pressure advance
G1 X63.405 Y126.368 E2.47895 F2400.000
G1 X63.405 Y73.632 E1.78505
G1 X136.640 Y73.632 E2.47895
G1 X136.640 Y126.308 E1.78301
G1 X137.048 Y126.775 F6000.000
G1 X62.998 Y126.775 E2.50650 F2400.000
G1 X62.998 Y73.225 E1.81260
G1 X137.048 Y73.225 E2.50650
G1 X137.048 Y126.715 E1.81057
G1 X136.701 Y126.575 F6000.000
G1 E-0.06416 F1800.000 ; pressure discharge
G1 E-1.50000 F1800.00000
G1 X136.127 Y126.067 F6000.000
G1 E1.50000 F1800.00000
G1 X136.340 Y125.855 E0.01023 F2400.000
G1 X136.340 Y125.276 E0.01967
G1 X135.549 Y126.067 E0.03804
G1 X134.970 Y126.067 E0.01967
G1 X136.340 Y124.698 E0.06585
G1 X136.340 Y124.120 E0.01967
G1 X134.392 Y126.067 E0.09367
G1 X133.814 Y126.067 E0.01967
G1 X136.340 Y123.541 E0.12148
G1 X136.340 Y122.963 E0.01967
G1 X133.235 Y126.067 E0.14929
G1 X132.657 Y126.067 E0.01967
G1 X136.340 Y122.385 E0.17710
G1 X136.340 Y121.806 E0.01967
G1 X132.079 Y126.067 E0.20491
G1 X131.500 Y126.067 E0.01967
G1 X136.340 Y121.228 E0.23273
G1 X136.340 Y120.650 E0.01967
G1 X130.922 Y126.067 E0.26054
G1 X130.344 Y126.067 E0.01967
G1 X136.340 Y120.071 E0.28835
G1 X136.340 Y119.493 E0.01967
G1 X129.765 Y126.067 E0.31616
G1 X129.187 Y126.067 E0.01967
G1 X136.340 Y118.915 E0.34397
G1 X136.340 Y118.336 E0.01967
G1 X128.609 Y126.067 E0.37179
G1 X128.030 Y126.067 E0.01967
G1 X136.340 Y117.758 E0.39960
G1 X136.340 Y117.180 E0.01967
G1 X127.452 Y126.067 E0.42741
G1 X126.874 Y126.067 E0.01967
G1 X136.340 Y116.601 E0.45522
G1 X136.340 Y116.023 E0.01967
G1 X126.295 Y126.067 E0.48304
G1 X125.717 Y126.067 E0.01967
G1 X136.340 Y115.445 E0.51085
G1 X136.340 Y114.866 E0.01967
