; generated by Slic3r 1.2.9 on 2016-08-16 at 10:18:22

; external perimeters extrusion width = 0.45mm
; perimeters extrusion width = 0.45mm
; infill extrusion width = 0.45mm
; solid infill extrusion width = 0.45mm
; top infill extrusion width = 0.40mm

M107
M83  ; extruder relative mode
M104 S210 ; set extruder temp
M140 S55 ; set bed temp
M190 S55 ; wait for bed temp
M109 S210 ; wait for extruder temp
G28 W ; home all without mesh bed level
G80 ; mesh bed leveling
G1 Y-3.0 F1000.0 ; go outside pritn area
G1 X60.0 E9.0  F1000.0 ; intro line
G1 X100.0 E12.5  F1000.0 ; intro line
G21 ; set units to millimeters
G90 ; use absolute coordinates
M83 ; use relative distances for extrusion
G1 E-0.80000 F2100.00000
G1 Z0.150 F7200.000
G1 X11.656 Y15.730 F7200.000
G1 E0.80000 F2100.00000
M204 S1000
G1 X11.959 Y15.510 E0.00907 F1200.000
G1 X12.628 Y15.100 E0.01897
G1 X12.961 Y14.931 E0.00903
G1 X13.687 Y14.630 E0.01901
G1 X14.043 Y14.514 E0.00906
G1 X14.806 Y14.331 E0.01898
G1 X15.176 Y14.272 E0.00905
G1 X16.146 Y14.203 E0.02351
G1 X87.146 Y14.203 E1.71713
G1 X88.116 Y14.272 E0.02351
G1 X88.485 Y14.331 E0.00905
G1 X89.248 Y14.514 E0.01897
G1 X89.604 Y14.630 E0.00905
G1 X90.330 Y14.930 E0.01899
G1 X90.664 Y15.100 E0.00906
G1 X91.332 Y15.510 E0.01897
G1 X91.636 Y15.730 E0.00907
G1 X92.232 Y16.240 E0.01898
G1 X92.497 Y16.505 E0.00905
G1 X93.007 Y17.102 E0.01898
G1 X93.227 Y17.405 E0.00906
G1 X93.638 Y18.076 E0.01903
G1 X93.807 Y18.407 E0.00900
G1 X94.108 Y19.133 E0.01901
G1 X94.223 Y19.489 E0.00904
G1 X94.406 Y20.252 E0.01897
G1 X94.465 Y20.621 E0.00906
G1 X94.534 Y21.591 E0.02351
G1 X94.534 Y72.591 E1.23343
G1 X94.465 Y73.561 E0.02351
G1 X94.406 Y73.931 E0.00906
G1 X94.222 Y74.697 E0.01906
G1 X94.107 Y75.050 E0.00899
G1 X93.807 Y75.775 E0.01898
G1 X93.637 Y76.109 E0.00906
G1 X93.227 Y76.778 E0.01897
G1 X93.007 Y77.081 E0.00907
G1 X92.496 Y77.679 E0.01901
G1 X92.233 Y77.941 E0.00899
G1 X91.636 Y78.452 E0.01901
G1 X91.331 Y78.673 E0.00912
G1 X90.664 Y79.082 E0.01892
G1 X90.331 Y79.252 E0.00902
G1 X89.605 Y79.552 E0.01901
G1 X89.248 Y79.668 E0.00907
G1 X88.485 Y79.851 E0.01897
G1 X88.116 Y79.910 E0.00905
G1 X87.146 Y79.979 E0.02351
G1 X16.146 Y79.979 E1.71713
G1 X15.176 Y79.910 E0.02351
G1 X14.807 Y79.852 E0.00904
G1 X14.044 Y79.668 E0.01899
G1 X13.687 Y79.552 E0.00907
G1 X12.962 Y79.252 E0.01898
G1 X12.628 Y79.082 E0.00906
G1 X11.959 Y78.672 E0.01897
G1 X11.656 Y78.452 E0.00906
G1 X11.060 Y77.942 E0.01898
G1 X10.795 Y77.677 E0.00906
G1 X10.285 Y77.081 E0.01898
G1 X10.065 Y76.778 E0.00907
G1 X9.654 Y76.107 E0.01901
G1 X9.485 Y75.775 E0.00902
G1 X9.185 Y75.050 E0.01898
G1 X9.069 Y74.693 E0.00907
G1 X8.886 Y73.931 E0.01897
G1 X8.827 Y73.561 E0.00906
G1 X8.758 Y72.591 E0.02351
G1 X8.765 Y21.404 E1.23796
G1 X8.827 Y20.621 E0.01898
G1 X8.886 Y20.252 E0.00906
G1 X9.068 Y19.491 E0.01892
G1 X9.185 Y19.132 E0.00912
G1 X9.485 Y18.407 E0.01899
G1 X9.655 Y18.074 E0.00904
G1 X10.065 Y17.405 E0.01897
G1 X10.285 Y17.101 E0.00907
G1 X10.795 Y16.504 E0.01899
G1 X11.059 Y16.240 E0.00903
G1 X11.611 Y15.769 E0.01753
G1 F5760
G1 X11.959 Y15.510 E-0.15055
G1 F5760
G1 X12.628 Y15.100 E-0.27172
G1 F5760
G1 X12.961 Y14.931 E-0.12930
G1 F5760
G1 X13.517 Y14.700 E-0.20844
G1 E-0.04000 F2100.00000
G1 X59.379 Y44.290 F7200.000
G1 E0.80000 F2100.00000
G1 X59.628 Y43.525 E0.01947 F480.000
G1 X60.030 Y42.828 E0.01947
G1 X60.569 Y42.229 E0.01947
G1 X61.220 Y41.756 E0.01947
G1 X61.956 Y41.429 E0.01947
G1 X62.743 Y41.261 E0.01947
G1 X63.548 Y41.261 E0.01947
G1 X64.336 Y41.429 E0.01947
G1 X65.071 Y41.756 E0.01947
G1 X65.723 Y42.229 E0.01947
G1 X66.262 Y42.828 E0.01947
G1 X66.664 Y43.525 E0.01947
G1 X66.913 Y44.290 E0.01947
G1 X66.997 Y45.091 E0.01947
G1 X66.913 Y45.892 E0.01947
G1 X66.664 Y46.658 E0.01947
G1 X66.262 Y47.355 E0.01947
G1 X65.723 Y47.953 E0.01947
G1 X65.071 Y48.426 E0.01947
G1 X64.336 Y48.754 E0.01947
G1 X63.548 Y48.921 E0.01947
G1 X62.743 Y48.921 E0.01947
G1 X61.956 Y48.754 E0.01947
G1 X61.220 Y48.426 E0.01947
G1 X60.569 Y47.953 E0.01947
G1 X60.030 Y47.355 E0.01947
G1 X59.628 Y46.658 E0.01947
G1 X59.379 Y45.892 E0.01947
G1 X59.295 Y45.091 E0.01947
G1 X59.373 Y44.350 E0.01802
G1 X59.760 Y44.372 F7200.000
G1 X59.984 Y43.683 E0.01750 F480.000
G1 X60.346 Y43.057 E0.01750
G1 X60.830 Y42.519 E0.01750
G1 X61.415 Y42.094 E0.01750
G1 X62.076 Y41.799 E0.01750
G1 X62.784 Y41.649 E0.01750
G1 X63.508 Y41.649 E0.01750
G1 X64.215 Y41.799 E0.01750
G1 X64.876 Y42.094 E0.01750
G1 X65.462 Y42.519 E0.01750
G1 X65.946 Y43.057 E0.01750
G1 X66.308 Y43.683 E0.01750
G1 X66.531 Y44.372 E0.01750
G1 X66.607 Y45.091 E0.01750
G1 X66.531 Y45.811 E0.01750
G1 X66.308 Y46.499 E0.01750
G1 X65.946 Y47.126 E0.01750
G1 X65.462 Y47.663 E0.01750
G1 X64.876 Y48.089 E0.01750
G1 X64.215 Y48.383 E0.01750
G1 X63.508 Y48.533 E0.01750
G1 X62.784 Y48.533 E0.01750
G1 X62.076 Y48.383 E0.01750
G1 X61.415 Y48.089 E0.01750
G1 X60.830 Y47.663 E0.01750
G1 X60.346 Y47.126 E0.01750
G1 X59.984 Y46.499 E0.01750
G1 X59.760 Y45.811 E0.01750
G1 X59.685 Y45.091 E0.01750
G1 X59.754 Y44.431 E0.01605
G1 X59.473 Y44.094 F7200.000
G1 F5760
G1 X59.984 Y43.683 E-0.27098
G1 F5760
G1 X60.346 Y43.057 E-0.25062
G1 F5760
G1 X60.806 Y42.545 E-0.23841
G1 E-0.04000 F2100.00000
G1 X87.125 Y17.189 F7200.000
G1 E0.80000 F2100.00000
G1 X87.834 Y17.245 E0.01722 F480.000
G1 X88.506 Y17.406 E0.01670
G1 X89.144 Y17.670 E0.01670
G1 X89.732 Y18.031 E0.01670
G1 X90.257 Y18.480 E0.01670
G1 X90.706 Y19.005 E0.01670
G1 X91.067 Y19.593 E0.01670
G1 X91.330 Y20.229 E0.01665
G1 X91.492 Y20.903 E0.01675
G1 X91.548 Y21.615 E0.01727
G1 X91.548 Y72.568 E1.23229
G1 X91.492 Y73.280 E0.01727
G1 X91.331 Y73.949 E0.01665
G1 X91.067 Y74.589 E0.01675
G1 X90.706 Y75.178 E0.01669
G1 X90.257 Y75.703 E0.01670
G1 X89.732 Y76.151 E0.01670
G1 X89.144 Y76.512 E0.01670
G1 X88.506 Y76.776 E0.01670
G1 X87.834 Y76.937 E0.01670
G1 X87.122 Y76.993 E0.01727
G1 X16.169 Y76.993 E1.71599
G1 X15.458 Y76.937 E0.01727
G1 X14.786 Y76.776 E0.01670
G1 X14.148 Y76.512 E0.01670
G1 X13.559 Y76.151 E0.01670
G1 X13.034 Y75.703 E0.01670
G1 X12.586 Y75.178 E0.01670
G1 X12.225 Y74.589 E0.01670
G1 X11.961 Y73.951 E0.01670
G1 X11.800 Y73.280 E0.01670
G1 X11.744 Y72.568 E0.01727
G1 X11.744 Y21.615 E1.23229
G1 X11.800 Y20.903 E0.01727
G1 X11.960 Y20.233 E0.01665
G1 X12.225 Y19.593 E0.01675
G1 X12.586 Y19.005 E0.01669
G1 X13.034 Y18.480 E0.01670
G1 X13.559 Y18.031 E0.01670
G1 X14.148 Y17.670 E0.01670
G1 X14.786 Y17.406 E0.01670
G1 X15.458 Y17.245 E0.01670
G1 X16.169 Y17.189 E0.01727
G1 X87.065 Y17.189 E1.71459
G1 X87.140 Y16.801 F7200.000
G1 X87.895 Y16.861 E0.01832 F720.000
G1 X88.626 Y17.036 E0.01818
G1 X89.320 Y17.324 E0.01818
G1 X89.961 Y17.716 E0.01817
G1 X90.532 Y18.205 E0.01818
G1 X91.021 Y18.776 E0.01818
G1 X91.413 Y19.417 E0.01817
G1 X91.700 Y20.109 E0.01813
G1 X91.876 Y20.842 E0.01823
G1 X91.936 Y21.599 E0.01838
G1 X91.936 Y72.583 E1.23303
G1 X91.876 Y73.340 E0.01838
G1 X91.701 Y74.069 E0.01812
G1 X91.413 Y74.766 E0.01823
G1 X91.021 Y75.406 E0.01817
G1 X90.532 Y75.978 E0.01818
G1 X89.961 Y76.466 E0.01818
G1 X89.320 Y76.858 E0.01817
G1 X88.626 Y77.146 E0.01818
G1 X87.895 Y77.321 E0.01818
G1 X87.138 Y77.381 E0.01838
G1 X16.154 Y77.381 E1.71673
G1 X15.397 Y77.321 E0.01838
G1 X14.666 Y77.146 E0.01818
G1 X13.972 Y76.858 E0.01818
G1 X13.331 Y76.466 E0.01817
G1 X12.759 Y75.978 E0.01818
G1 X12.271 Y75.406 E0.01818
G1 X11.879 Y74.765 E0.01817
G1 X11.591 Y74.071 E0.01818
G1 X11.416 Y73.340 E0.01818
G1 X11.356 Y72.583 E0.01838
G1 X11.356 Y21.599 E1.23303
G1 X11.416 Y20.842 E0.01838
G1 X11.590 Y20.113 E0.01812
G1 X11.879 Y19.417 E0.01823
G1 X12.271 Y18.776 E0.01817
G1 X12.759 Y18.205 E0.01818
G1 X13.331 Y17.716 E0.01818
G1 X13.972 Y17.324 E0.01817
G1 X14.666 Y17.036 E0.01818
G1 X15.397 Y16.861 E0.01818
G1 X16.154 Y16.801 E0.01838
G1 X87.080 Y16.801 E1.71533
G1 X87.321 Y17.158 F7200.000
G1 F5760
G1 X87.895 Y16.861 E-0.28314
G1 F5760
G1 X88.626 Y17.036 E-0.26029
G1 F5760
G1 X89.204 Y17.275 E-0.21657
G1 E-0.04000 F2100.00000
G1 X88.417 Y17.656 F7200.000
G1 E0.80000 F2100.00000
G1 X91.081 Y20.320 E0.09126 F960.000
G1 X91.269 Y21.058 E0.01846
G1 X87.679 Y17.468 E0.12303
G1 X87.082 Y17.421 E0.01449
G1 X91.316 Y21.655 E0.14507
G1 X91.321 Y22.208 E0.01342
G1 X86.529 Y17.416 E0.16419
G1 X85.979 Y17.416 E0.01331
G1 X91.321 Y22.758 E0.18301
G1 X91.321 Y23.307 E0.01331
G1 X85.430 Y17.416 E0.20184
G1 X84.881 Y17.416 E0.01331
G1 X91.321 Y23.857 E0.22066
G1 X91.321 Y24.406 E0.01331
G1 X84.331 Y17.416 E0.23949
G1 X83.782 Y17.416 E0.01331
G1 X91.321 Y24.955 E0.25832
G1 X91.321 Y25.505 E0.01331
G1 X83.232 Y17.416 E0.27714
G1 X82.683 Y17.416 E0.01331
G1 X91.321 Y26.054 E0.29597
G1 X91.321 Y26.604 E0.01331
G1 X82.133 Y17.416 E0.31479
G1 X81.584 Y17.416 E0.01331
G1 X91.321 Y27.153 E0.33362
G1 X91.321 Y27.703 E0.01331
G1 X81.035 Y17.416 E0.35244
G1 X80.485 Y17.416 E0.01331
G1 X91.321 Y28.252 E0.37127
G1 X91.321 Y28.801 E0.01331
G1 X79.936 Y17.416 E0.39009
G1 X79.386 Y17.416 E0.01331
G1 X91.321 Y29.351 E0.40892
G1 X91.321 Y29.900 E0.01331
G1 X78.837 Y17.416 E0.42775
G1 X78.287 Y17.416 E0.01331
G1 X91.321 Y30.450 E0.44657
G1 X91.321 Y30.999 E0.01331
G1 X77.738 Y17.416 E0.46540
G1 X77.189 Y17.416 E0.01331
G1 X91.321 Y31.549 E0.48422
G1 X91.321 Y32.098 E0.01331
G1 X76.639 Y17.416 E0.50305
G1 X76.090 Y17.416 E0.01331
G1 X91.321 Y32.647 E0.52187
G1 X91.321 Y33.197 E0.01331
G1 X75.540 Y17.416 E0.54070
G1 X74.991 Y17.416 E0.01331
G1 X91.321 Y33.746 E0.55952
G1 X91.321 Y34.296 E0.01331
G1 X74.441 Y17.416 E0.57835
G1 X73.892 Y17.416 E0.01331
G1 X91.321 Y34.845 E0.59718
G1 X91.321 Y35.395 E0.01331
G1 X73.343 Y17.416 E0.61600
G1 X72.793 Y17.416 E0.01331
G1 X91.321 Y35.944 E0.63483
G1 X91.321 Y36.493 E0.01331
G1 X72.244 Y17.416 E0.65365
G1 X71.694 Y17.416 E0.01331
G1 X91.321 Y37.043 E0.67248
G1 X91.321 Y37.592 E0.01331
G1 X71.145 Y17.416 E0.69130
G1 X70.595 Y17.416 E0.01331
G1 X91.321 Y38.142 E0.71013
G1 X91.321 Y38.691 E0.01331
G1 X70.046 Y17.416 E0.72895
G1 X69.497 Y17.416 E0.01331
G1 X91.321 Y39.241 E0.74778
G1 X91.321 Y39.790 E0.01331
G1 X68.947 Y17.416 E0.76661
G1 X68.398 Y17.416 E0.01331
G1 X91.321 Y40.339 E0.78543
G1 X91.321 Y40.889 E0.01331
G1 X67.848 Y17.416 E0.80426
G1 X67.299 Y17.416 E0.01331
G1 X91.321 Y41.438 E0.82308
G1 X91.321 Y41.988 E0.01331
G1 X66.749 Y17.416 E0.84191
G1 X66.200 Y17.416 E0.01331
G1 X91.321 Y42.537 E0.86073
G1 X91.321 Y43.087 E0.01331
G1 X65.651 Y17.416 E0.87956
G1 X65.101 Y17.416 E0.01331
G1 X91.321 Y43.636 E0.89838
G1 X91.321 Y44.185 E0.01331
G1 X64.552 Y17.416 E0.91721
G1 X64.002 Y17.416 E0.01331
G1 X91.321 Y44.735 E0.93604
G1 X91.321 Y45.284 E0.01331
G1 X63.453 Y17.416 E0.95486
G1 X62.903 Y17.416 E0.01331
G1 X91.321 Y45.834 E0.97369
G1 X91.321 Y46.383 E0.01331
G1 X62.354 Y17.416 E0.99251
G1 X61.805 Y17.416 E0.01331
G1 X91.321 Y46.933 E1.01134
G1 X91.321 Y47.482 E0.01331
G1 X61.255 Y17.416 E1.03016
G1 X60.706 Y17.416 E0.01331
G1 X91.321 Y48.031 E1.04899
G1 X91.321 Y48.581 E0.01331
G1 X60.156 Y17.416 E1.06781
G1 X59.607 Y17.416 E0.01331
G1 X91.321 Y49.130 E1.08664
G1 X91.321 Y49.680 E0.01331
G1 X59.057 Y17.416 E1.10547
G1 X58.508 Y17.416 E0.01331
G1 X91.321 Y50.229 E1.12429
G1 X91.321 Y50.779 E0.01331
G1 X57.959 Y17.416 E1.14312
G1 X57.409 Y17.416 E0.01331
G1 X91.321 Y51.328 E1.16194
G1 X91.321 Y51.877 E0.01331
G1 X56.860 Y17.416 E1.18077
G1 X56.310 Y17.416 E0.01331
G1 X91.321 Y52.427 E1.19959
G1 X91.321 Y52.976 E0.01331
G1 X55.761 Y17.416 E1.21842
G1 X55.211 Y17.416 E0.01331
G1 X91.321 Y53.526 E1.23724
G1 X91.321 Y54.075 E0.01331
G1 X54.662 Y17.416 E1.25607
G1 X54.113 Y17.416 E0.01331
G1 X91.321 Y54.625 E1.27490
G1 X91.321 Y55.174 E0.01331
G1 X53.563 Y17.416 E1.29372
G1 X53.014 Y17.416 E0.01331
G1 X91.321 Y55.723 E1.31255
G1 X91.321 Y56.273 E0.01331
G1 X52.464 Y17.416 E1.33137
G1 X51.915 Y17.416 E0.01331
G1 X91.321 Y56.822 E1.35020
G1 X91.321 Y57.372 E0.01331
G1 X51.365 Y17.416 E1.36902
G1 X50.816 Y17.416 E0.01331
G1 X91.321 Y57.921 E1.38785
G1 X91.321 Y58.471 E0.01331
G1 X50.267 Y17.416 E1.40667
G1 X49.717 Y17.416 E0.01331
G1 X91.321 Y59.020 E1.42550
G1 X91.321 Y59.569 E0.01331
G1 X49.168 Y17.416 E1.44433
G1 X48.618 Y17.416 E0.01331
G1 X91.321 Y60.119 E1.46315
G1 X91.321 Y60.668 E0.01331
G1 X48.069 Y17.416 E1.48198
G1 X47.519 Y17.416 E0.01331
G1 X91.321 Y61.218 E1.50080
G1 X91.321 Y61.767 E0.01331
G1 X46.970 Y17.416 E1.51963
G1 X46.421 Y17.416 E0.01331
G1 X91.321 Y62.317 E1.53845
G1 X91.321 Y62.866 E0.01331
G1 X45.871 Y17.416 E1.55728
G1 X45.322 Y17.416 E0.01331
G1 X91.321 Y63.415 E1.57610
G1 X91.321 Y63.965 E0.01331
G1 X44.772 Y17.416 E1.59493
G1 X44.223 Y17.416 E0.01331
G1 X91.321 Y64.514 E1.61376
G1 X91.321 Y65.064 E0.01331
G1 X43.673 Y17.416 E1.63258
G1 X43.124 Y17.416 E0.01331
G1 X91.321 Y65.613 E1.65141
G1 X91.321 Y66.163 E0.01331
G1 X42.575 Y17.416 E1.67023
G1 X42.025 Y17.416 E0.01331
G1 X91.321 Y66.712 E1.68906
G1 X91.321 Y67.261 E0.01331
G1 X41.476 Y17.416 E1.70788
G1 X40.926 Y17.416 E0.01331
G1 X64.893 Y41.383 E0.82120
G1 X64.084 Y41.123 E0.02061
G1 X40.377 Y17.416 E0.81229
G1 X39.827 Y17.416 E0.01331
G1 X63.445 Y41.034 E0.80922
G1 X62.895 Y41.034 E0.01331
G1 X39.278 Y17.416 E0.80922
G1 X38.729 Y17.416 E0.01331
G1 X62.424 Y41.112 E0.81191
G1 X61.971 Y41.208 E0.01122
G1 X38.179 Y17.416 E0.81521
G1 X37.630 Y17.416 E0.01331
G1 X61.586 Y41.373 E0.82085
G1 X61.206 Y41.542 E0.01008
G1 X37.080 Y17.416 E0.82665
G1 X36.531 Y17.416 E0.01331
G1 X60.878 Y41.764 E0.83424
G1 X60.560 Y41.995 E0.00953
G1 X35.981 Y17.416 E0.84216
G1 X35.432 Y17.416 E0.01331
G1 X60.278 Y42.263 E0.85134
G1 X60.018 Y42.552 E0.00943
G1 X34.883 Y17.416 E0.86124
G1 X34.333 Y17.416 E0.01331
G1 X59.781 Y42.864 E0.87195
G1 X59.580 Y43.213 E0.00974
G1 X33.784 Y17.416 E0.88388
G1 X33.234 Y17.416 E0.01331
G1 X59.394 Y43.576 E0.89635
G1 X59.260 Y43.991 E0.01056
G1 X32.685 Y17.416 E0.91056
G1 X32.135 Y17.416 E0.01331
G1 X59.144 Y44.425 E0.92543
G1 X59.092 Y44.922 E0.01211
G1 X31.586 Y17.416 E0.94247
G1 X31.037 Y17.416 E0.01331
G1 X59.098 Y45.477 E0.96148
G1 X59.179 Y46.109 E0.01542
G1 X30.487 Y17.416 E0.98311
G1 X29.938 Y17.416 E0.01331
G1 X59.477 Y46.956 E1.01214
G1 F5760
G1 X57.926 Y45.404 E-0.76000
G1 E-0.04000 F2100.00000
G1 X61.257 Y48.736 F7200.000
G1 E0.80000 F2100.00000
G1 X88.911 Y76.389 E0.94751 F960.000
G1 X89.273 Y76.202 E0.00988
G1 X62.109 Y49.038 E0.93075
G1 X62.769 Y49.148 E0.01621
G1 X89.614 Y75.993 E0.91981
G1 X89.912 Y75.743 E0.00945
G1 X63.318 Y49.148 E0.91122
G1 X63.803 Y49.084 E0.01185
G1 X90.188 Y75.469 E0.90405
G1 X90.449 Y75.180 E0.00942
G1 X64.256 Y48.988 E0.89747
G1 X64.651 Y48.833 E0.01028
G1 X90.673 Y74.855 E0.89160
G1 X90.880 Y74.512 E0.00970
G1 X65.031 Y48.664 E0.88565
G1 X65.368 Y48.451 E0.00965
G1 X91.040 Y74.124 E0.87963
G1 X91.173 Y73.707 E0.01060
G1 X65.686 Y48.220 E0.87327
G1 X65.976 Y47.961 E0.00943
G1 X91.272 Y73.256 E0.86673
G1 X91.312 Y72.747 E0.01238
G1 X66.237 Y47.672 E0.85918
G1 X66.482 Y47.367 E0.00947
G1 X91.321 Y72.206 E0.85107
G1 X91.321 Y71.657 E0.01331
G1 X66.683 Y47.019 E0.84418
G1 X66.878 Y46.665 E0.00980
G1 X91.321 Y71.107 E0.83750
G1 X91.321 Y70.558 E0.01331
G1 X67.013 Y46.250 E0.83288
G1 X67.140 Y45.828 E0.01069
G1 X91.321 Y70.009 E0.82852
G1 X91.321 Y69.459 E0.01331
G1 X67.192 Y45.331 E0.82673
G1 X67.203 Y44.792 E0.01305
G1 X91.321 Y68.910 E0.82636
G1 X91.321 Y68.360 E0.01331
G1 X67.139 Y44.178 E0.82857
G1 X66.886 Y43.376 E0.02039
G1 X91.321 Y67.811 E0.83724
G1 F5760
G1 X89.769 Y66.259 E-0.76000
G1 E-0.04000 F2100.00000
G1 X88.522 Y76.550 F7200.000
G1 E0.80000 F2100.00000
G1 X29.388 Y17.416 E2.02616 F960.000
G1 X28.839 Y17.416 E0.01331
G1 X88.084 Y76.661 E2.02995
G1 X87.606 Y76.733 E0.01169
G1 X28.289 Y17.416 E2.03243
G1 X27.740 Y17.416 E0.01331
G1 X87.090 Y76.766 E2.03355
G1 X86.540 Y76.766 E0.01331
G1 X27.191 Y17.416 E2.03355
G1 X26.641 Y17.416 E0.01331
G1 X85.991 Y76.766 E2.03355
G1 X85.441 Y76.766 E0.01331
G1 X26.092 Y17.416 E2.03355
G1 X25.542 Y17.416 E0.01331
G1 X84.892 Y76.766 E2.03355
G1 X84.342 Y76.766 E0.01331
G1 X24.993 Y17.416 E2.03355
G1 X24.443 Y17.416 E0.01331
G1 X83.793 Y76.766 E2.03355
G1 X83.244 Y76.766 E0.01331
G1 X23.894 Y17.416 E2.03355
G1 X23.345 Y17.416 E0.01331
G1 X82.694 Y76.766 E2.03355
G1 X82.145 Y76.766 E0.01331
