; generated by Slic3r 1.2.9 on 2016-04-02 at 22:15:35

; external perimeters extrusion width = 0.45mm
; perimeters extrusion width = 0.45mm
; infill extrusion width = 0.45mm
; solid infill extrusion width = 0.45mm
; top infill extrusion width = 0.45mm

M107
M190 S50 ; set bed temperature
M201 X1000 Y1000 E600
M109 S210
M92 E161.3
G28
G92 E0.0
G1 X8.0 F2000
G1 Y60.0 E4.0  F1000.0
G1 Y100.0 E8.5  F1000.0
G92 E0.0
G21 ; set units to millimeters
G90 ; use absolute coordinates
M83 ; use relative distances for extrusion
G1 E-1.50000 F1800.00000
G1 Z0.200 F6000.000
G1 X66.093 Y19.500 F6000.000
G1 E1.50000 F1800.00000
G1 E0.04913 F1800.000 ; pressure advance
G1 X66.485 Y18.184 E0.04648 F2100.000
G1 X67.532 Y17.296 E0.04648
G1 X68.500 Y17.093 E0.03347
G1 X88.500 Y17.093 E0.67698
G1 X89.045 Y17.156 E0.01858
G1 X132.045 Y27.156 E1.49434
G1 X133.239 Y27.835 E0.04648
G1 X133.907 Y29.500 E0.06073
G1 X133.907 Y180.500 E5.11117
G1 X133.516 Y181.816 E0.04648
G1 X132.468 Y182.704 E0.04648
G1 X131.500 Y182.907 E0.03347
G1 X68.500 Y182.907 E2.13247
G1 X67.184 Y182.516 E0.04648
G1 X66.296 Y181.468 E0.04648
G1 X66.093 Y180.500 E0.03347
G1 X66.093 Y19.560 E5.44763
G1 E-0.04913 F1800.000 ; pressure discharge
G1 E-1.50000 F1800.00000
G1 X87.868 Y30.132 F6000.000
G1 E1.50000 F1800.00000
G1 E0.03144 F1800.000 ; pressure advance
G1 X130.868 Y30.132 E1.45550 F1680.000
G1 X130.868 Y179.868 E5.06838
G1 X69.132 Y179.868 E2.08968
G1 X69.132 Y20.132 E5.40687
G1 X87.868 Y20.132 E0.63419
G1 X87.868 Y30.072 E0.33646
G1 X88.275 Y29.725 F6000.000
G1 X131.275 Y29.725 E1.45550 F1680.000
G1 X131.275 Y180.275 E5.09594
G1 X68.725 Y180.275 E2.11724
G1 X68.725 Y19.725 E5.43443
G1 X88.275 Y19.725 E0.66174
G1 X88.275 Y29.665 E0.33646
G1 X88.275 Y30.125 F6000.000
G1 E-0.03144 F1800.000 ; pressure discharge
G1 E-1.50000 F1800.00000
G1 X86.918 Y20.433 F6000.000
G1 E1.50000 F1800.00000
G1 X87.567 Y21.082 E0.03113 F1680.000
G1 X87.567 Y21.659 E0.01954
G1 X86.342 Y20.433 E0.05876
G1 X85.765 Y20.433 E0.01954
G1 X87.567 Y22.235 E0.08640
G1 X87.567 Y22.812 E0.01954
G1 X85.189 Y20.433 E0.11403
G1 X84.612 Y20.433 E0.01954
G1 X87.567 Y23.388 E0.14167
G1 X87.567 Y23.965 E0.01954
G1 X84.036 Y20.433 E0.16930
G1 X83.459 Y20.433 E0.01954
G1 X87.567 Y24.541 E0.19693
G1 X87.567 Y25.118 E0.01954
G1 X82.883 Y20.433 E0.22457
G1 X82.306 Y20.433 E0.01954
G1 X87.567 Y25.694 E0.25220
G1 X87.567 Y26.271 E0.01954
G1 X81.730 Y20.433 E0.27984
G1 X81.153 Y20.433 E0.01954
G1 X87.567 Y26.847 E0.30747
G1 X87.567 Y27.424 E0.01954
G1 X80.577 Y20.433 E0.33511
G1 X80.000 Y20.433 E0.01954
G1 X87.567 Y28.000 E0.36274
G1 X87.567 Y28.577 E0.01954
G1 X79.424 Y20.433 E0.39038
G1 X78.847 Y20.433 E0.01954
G1 X87.567 Y29.153 E0.41801
G1 X87.567 Y29.730 E0.01954
G1 X78.271 Y20.433 E0.44565
G1 X77.694 Y20.433 E0.01954
G1 X130.567 Y73.306 E2.53451
G1 X130.567 Y72.730 E0.01954
G1 X88.271 Y30.433 E2.02752
G1 X88.847 Y30.433 E0.01954
G1 X130.567 Y72.153 E1.99989
G1 X130.567 Y71.577 E0.01954
G1 X89.424 Y30.433 E1.97225
G1 X90.000 Y30.433 E0.01954
G1 X130.567 Y71.000 E1.94462
G1 X130.567 Y70.424 E0.01954
G1 X90.577 Y30.433 E1.91698
G1 X91.153 Y30.433 E0.01954
G1 X130.567 Y69.847 E1.88935
G1 X130.567 Y69.271 E0.01954
G1 X91.730 Y30.433 E1.86172
G1 X92.306 Y30.433 E0.01954
G1 X130.567 Y68.694 E1.83408
G1 X130.567 Y68.118 E0.01954
G1 X92.883 Y30.433 E1.80645
G1 X93.459 Y30.433 E0.01954
G1 X130.567 Y67.541 E1.77881
G1 X130.567 Y66.965 E0.01954
G1 X94.036 Y30.433 E1.75118
G1 X94.612 Y30.433 E0.01954
G1 X130.567 Y66.388 E1.72354
G1 X130.567 Y65.812 E0.01954
G1 X95.189 Y30.433 E1.69591
G1 X95.765 Y30.433 E0.01954
G1 X130.567 Y65.235 E1.66827
G1 X130.567 Y64.659 E0.01954
G1 X96.342 Y30.433 E1.64064
G1 X96.918 Y30.433 E0.01954
G1 X130.567 Y64.082 E1.61300
G1 X130.567 Y63.506 E0.01954
G1 X97.495 Y30.433 E1.58537
G1 X98.071 Y30.433 E0.01954
G1 X130.567 Y62.929 E1.55773
G1 X130.567 Y62.353 E0.01954
G1 X98.648 Y30.433 E1.53010
G1 X99.224 Y30.433 E0.01954
G1 X130.567 Y61.776 E1.50247
G1 X130.567 Y61.200 E0.01954
G1 X99.801 Y30.433 E1.47483
G1 X100.377 Y30.433 E0.01954
G1 X130.567 Y60.623 E1.44720
G1 X130.567 Y60.047 E0.01954
G1 X100.954 Y30.433 E1.41956
G1 X101.530 Y30.433 E0.01954
G1 X130.567 Y59.470 E1.39193
G1 X130.567 Y58.894 E0.01954
G1 X102.107 Y30.433 E1.36429
G1 X102.683 Y30.433 E0.01954
G1 X130.567 Y58.317 E1.33666
G1 X130.567 Y57.741 E0.01954
G1 X103.260 Y30.433 E1.30902
G1 X103.836 Y30.433 E0.01954
G1 X130.567 Y57.164 E1.28139
G1 X130.567 Y56.588 E0.01954
G1 X104.412 Y30.433 E1.25375
G1 X104.989 Y30.433 E0.01954
G1 X130.567 Y56.011 E1.22612
G1 X130.567 Y55.435 E0.01954
G1 X105.565 Y30.433 E1.19848
G1 X106.142 Y30.433 E0.01954
G1 X130.567 Y54.858 E1.17085
G1 X130.567 Y54.282 E0.01954
G1 X106.718 Y30.433 E1.14322
G1 X107.295 Y30.433 E0.01954
G1 X130.567 Y53.705 E1.11558
G1 X130.567 Y53.129 E0.01954
G1 X107.871 Y30.433 E1.08795
G1 X108.448 Y30.433 E0.01954
G1 X130.567 Y52.552 E1.06031
G1 X130.567 Y51.976 E0.01954
G1 X109.024 Y30.433 E1.03268
G1 X109.601 Y30.433 E0.01954
G1 X130.567 Y51.399 E1.00504
G1 X130.567 Y50.823 E0.01954
G1 X110.177 Y30.433 E0.97741
G1 X110.754 Y30.433 E0.01954
G1 X130.567 Y50.246 E0.94977
G1 X130.567 Y49.670 E0.01954
G1 X111.330 Y30.433 E0.92214
G1 X111.907 Y30.433 E0.01954
G1 X130.567 Y49.093 E0.89450
G1 X130.567 Y48.517 E0.01954
G1 X112.483 Y30.433 E0.86687
G1 X113.060 Y30.433 E0.01954
G1 X130.567 Y47.940 E0.83923
G1 X130.567 Y47.364 E0.01954
G1 X113.636 Y30.433 E0.81160
G1 X114.213 Y30.433 E0.01954
G1 X130.567 Y46.788 E0.78397
G1 X130.567 Y46.211 E0.01954
G1 X114.789 Y30.433 E0.75633
G1 X115.366 Y30.433 E0.01954
G1 X130.567 Y45.635 E0.72870
G1 X130.567 Y45.058 E0.01954
G1 X115.942 Y30.433 E0.70106
G1 X116.519 Y30.433 E0.01954
G1 X130.567 Y44.482 E0.67343
G1 X130.567 Y43.905 E0.01954
G1 X117.095 Y30.433 E0.64579
G1 X117.672 Y30.433 E0.01954
G1 X130.567 Y43.329 E0.61816
G1 X130.567 Y42.752 E0.01954
G1 X118.248 Y30.433 E0.59052
G1 X118.825 Y30.433 E0.01954
G1 X130.567 Y42.176 E0.56289
G1 X130.567 Y41.599 E0.01954
G1 X119.401 Y30.433 E0.53525
G1 X119.978 Y30.433 E0.01954
G1 X130.567 Y41.023 E0.50762
G1 X130.567 Y40.446 E0.01954
G1 X120.554 Y30.433 E0.47998
G1 X121.131 Y30.433 E0.01954
G1 X130.567 Y39.870 E0.45235
G1 X130.567 Y39.293 E0.01954
G1 X121.707 Y30.433 E0.42472
G1 X122.284 Y30.433 E0.01954
G1 X130.567 Y38.717 E0.39708
G1 X130.567 Y38.140 E0.01954
G1 X122.860 Y30.433 E0.36945
G1 X123.437 Y30.433 E0.01954
G1 X130.567 Y37.564 E0.34181
G1 X130.567 Y36.987 E0.01954
G1 X124.013 Y30.433 E0.31418
G1 X124.590 Y30.433 E0.01954
G1 X130.567 Y36.411 E0.28654
G1 X130.567 Y35.834 E0.01954
G1 X125.166 Y30.433 E0.25891
G1 X125.743 Y30.433 E0.01954
G1 X130.567 Y35.258 E0.23127
G1 X130.567 Y34.681 E0.01954
G1 X126.319 Y30.433 E0.20364
G1 X126.896 Y30.433 E0.01954
G1 X130.567 Y34.105 E0.17600
G1 X130.567 Y33.528 E0.01954
G1 X127.472 Y30.433 E0.14837
G1 X128.049 Y30.433 E0.01954
G1 X130.567 Y32.952 E0.12073
G1 X130.567 Y32.375 E0.01954
G1 X128.625 Y30.433 E0.09310
G1 X129.202 Y30.433 E0.01954
G1 X130.567 Y31.799 E0.06547
G1 X130.567 Y31.222 E0.01954
G1 X129.778 Y30.433 E0.03783
G1 X130.355 Y30.433 E0.01954
G1 X130.567 Y30.646 E0.01020
G1 E-1.50000 F1800.00000
G1 X77.118 Y20.433 F6000.000
G1 E1.50000 F1800.00000
G1 X130.567 Y73.883 E2.56215 F1680.000
G1 X130.567 Y74.459 E0.01954
G1 X76.541 Y20.433 E2.58978
G1 X75.965 Y20.433 E0.01954
G1 X130.567 Y75.036 E2.61742
G1 X130.567 Y75.612 E0.01954
G1 X75.388 Y20.433 E2.64505
G1 X74.812 Y20.433 E0.01954
G1 X130.567 Y76.189 E2.67269
G1 X130.567 Y76.765 E0.01954
G1 X74.235 Y20.433 E2.70032
G1 X73.659 Y20.433 E0.01954
G1 X130.567 Y77.342 E2.72796
G1 X130.567 Y77.918 E0.01954
G1 X73.082 Y20.433 E2.75559
G1 X72.506 Y20.433 E0.01954
G1 X130.567 Y78.495 E2.78323
G1 X130.567 Y79.071 E0.01954
G1 X71.929 Y20.433 E2.81086
G1 X71.353 Y20.433 E0.01954
G1 X130.567 Y79.648 E2.83849
G1 X130.567 Y80.224 E0.01954
G1 X70.776 Y20.433 E2.86613
G1 X70.200 Y20.433 E0.01954
G1 X130.567 Y80.801 E2.89376
G1 X130.567 Y81.377 E0.01954
G1 X69.623 Y20.433 E2.92140
G1 X69.433 Y20.819 E0.01459
G1 X130.567 Y81.954 E2.93052
G1 X130.567 Y82.530 E0.01954
G1 X69.433 Y21.396 E2.93052
G1 X69.433 Y21.972 E0.01954
G1 X130.567 Y83.107 E2.93052
G1 X130.567 Y83.683 E0.01954
G1 X69.433 Y22.549 E2.93052
G1 X69.433 Y23.125 E0.01954
G1 X130.567 Y84.260 E2.93052
G1 X130.567 Y84.836 E0.01954
G1 X69.433 Y23.702 E2.93052
G1 X69.433 Y24.278 E0.01954
G1 X130.567 Y85.413 E2.93052
G1 X130.567 Y85.989 E0.01954
G1 X69.433 Y24.855 E2.93052
G1 X69.433 Y25.431 E0.01954
G1 X130.567 Y86.566 E2.93052
G1 X130.567 Y87.142 E0.01954
G1 X69.433 Y26.008 E2.93052
G1 X69.433 Y26.584 E0.01954
G1 X130.567 Y87.719 E2.93052
G1 X130.567 Y88.295 E0.01954
G1 X69.433 Y27.161 E2.93052
G1 X69.433 Y27.737 E0.01954
G1 X130.567 Y88.872 E2.93052
G1 X130.567 Y89.448 E0.01954
G1 X69.433 Y28.314 E2.93052
G1 X69.433 Y28.890 E0.01954
G1 X130.567 Y90.025 E2.93052
G1 X130.567 Y90.601 E0.01954
G1 X69.433 Y29.467 E2.93052
G1 X69.433 Y30.043 E0.01954
G1 X130.567 Y91.178 E2.93052
G1 X130.567 Y91.754 E0.01954
G1 X69.433 Y30.620 E2.93052
G1 X69.433 Y31.196 E0.01954
G1 X130.567 Y92.331 E2.93052
G1 X130.567 Y92.907 E0.01954
G1 X69.433 Y31.773 E2.93052
G1 X69.433 Y32.349 E0.01954
G1 X130.567 Y93.484 E2.93052
G1 X130.567 Y94.060 E0.01954
G1 X69.433 Y32.926 E2.93052
G1 X69.433 Y33.502 E0.01954
G1 X130.567 Y94.636 E2.93052
G1 X130.567 Y95.213 E0.01954
G1 X69.433 Y34.079 E2.93052
G1 X69.433 Y34.655 E0.01954
G1 X130.567 Y95.789 E2.93052
G1 X130.567 Y96.366 E0.01954
G1 X69.433 Y35.232 E2.93052
G1 X69.433 Y35.808 E0.01954
G1 X130.567 Y96.942 E2.93052
G1 X130.567 Y97.519 E0.01954
G1 X69.433 Y36.385 E2.93052
G1 X69.433 Y36.961 E0.01954
G1 X130.567 Y98.095 E2.93052
G1 X130.567 Y98.672 E0.01954
G1 X69.433 Y37.538 E2.93052
G1 X69.433 Y38.114 E0.01954
G1 X130.567 Y99.248 E2.93052
G1 X130.567 Y99.825 E0.01954
G1 X69.433 Y38.691 E2.93052
G1 X69.433 Y39.267 E0.01954
G1 X130.567 Y100.401 E2.93052
G1 X130.567 Y100.978 E0.01954
G1 X69.433 Y39.843 E2.93052
G1 X69.433 Y40.420 E0.01954
G1 X130.567 Y101.554 E2.93052
G1 X130.567 Y102.131 E0.01954
G1 X69.433 Y40.996 E2.93052
G1 X69.433 Y41.573 E0.01954
G1 X130.567 Y102.707 E2.93052
G1 X130.567 Y103.284 E0.01954
G1 X69.433 Y42.149 E2.93052
G1 X69.433 Y42.726 E0.01954
G1 X130.567 Y103.860 E2.93052
G1 X130.567 Y104.437 E0.01954
G1 X69.433 Y43.302 E2.93052
G1 X69.433 Y43.879 E0.01954
G1 X130.567 Y105.013 E2.93052
G1 X130.567 Y105.590 E0.01954
G1 X69.433 Y44.455 E2.93052
G1 X69.433 Y45.032 E0.01954
G1 X130.567 Y106.166 E2.93052
G1 X130.567 Y106.743 E0.01954
G1 X69.433 Y45.608 E2.93052
G1 X69.433 Y46.185 E0.01954
G1 X130.567 Y107.319 E2.93052
G1 X130.567 Y107.896 E0.01954
G1 X69.433 Y46.761 E2.93052
G1 X69.433 Y47.338 E0.01954
G1 X130.567 Y108.472 E2.93052
G1 X130.567 Y109.049 E0.01954
G1 X69.433 Y47.914 E2.93052
G1 X69.433 Y48.491 E0.01954
G1 X130.567 Y109.625 E2.93052
G1 X130.567 Y110.202 E0.01954
G1 X69.433 Y49.067 E2.93052
G1 X69.433 Y49.644 E0.01954
G1 X130.567 Y110.778 E2.93052
G1 X130.567 Y111.355 E0.01954
G1 X69.433 Y50.220 E2.93052
G1 X69.433 Y50.797 E0.01954
G1 X130.567 Y111.931 E2.93052
G1 X130.567 Y112.508 E0.01954
G1 X69.433 Y51.373 E2.93052
G1 X69.433 Y51.950 E0.01954
G1 X130.567 Y113.084 E2.93052
G1 X130.567 Y113.661 E0.01954
G1 X69.433 Y52.526 E2.93052
G1 X69.433 Y53.103 E0.01954
G1 X130.567 Y114.237 E2.93052
G1 X130.567 Y114.814 E0.01954
G1 X69.433 Y53.679 E2.93052
G1 X69.433 Y54.256 E0.01954
G1 X130.567 Y115.390 E2.93052
G1 X130.567 Y115.967 E0.01954
G1 X69.433 Y54.832 E2.93052
G1 X69.433 Y55.409 E0.01954
G1 X130.567 Y116.543 E2.93052
G1 X130.567 Y117.120 E0.01954
G1 X69.433 Y55.985 E2.93052
G1 X69.433 Y56.562 E0.01954
G1 X130.567 Y117.696 E2.93052
G1 X130.567 Y118.273 E0.01954
G1 X69.433 Y57.138 E2.93052
G1 X69.433 Y57.715 E0.01954
G1 X130.567 Y118.849 E2.93052
G1 X130.567 Y119.426 E0.01954
G1 X69.433 Y58.291 E2.93052
G1 X69.433 Y58.868 E0.01954
G1 X130.567 Y120.002 E2.93052
G1 X130.567 Y120.579 E0.01954
G1 X69.433 Y59.444 E2.93052
G1 X69.433 Y60.021 E0.01954
G1 X130.567 Y121.155 E2.93052
G1 X130.567 Y121.732 E0.01954
G1 X69.433 Y60.597 E2.93052
G1 X69.433 Y61.174 E0.01954
G1 X130.567 Y122.308 E2.93052
G1 X130.567 Y122.885 E0.01954
G1 X69.433 Y61.750 E2.93052
G1 X69.433 Y62.327 E0.01954
G1 X130.567 Y123.461 E2.93052
G1 X130.567 Y124.038 E0.01954
G1 X69.433 Y62.903 E2.93052
G1 X69.433 Y63.480 E0.01954
G1 X130.567 Y124.614 E2.93052
G1 X130.567 Y125.191 E0.01954
G1 X69.433 Y64.056 E2.93052
G1 X69.433 Y64.633 E0.01954
G1 X130.567 Y125.767 E2.93052
G1 X130.567 Y126.344 E0.01954
G1 X69.433 Y65.209 E2.93052
G1 X69.433 Y65.786 E0.01954
G1 X130.567 Y126.920 E2.93052
G1 X130.567 Y127.497 E0.01954
G1 X69.433 Y66.362 E2.93052
G1 X69.433 Y66.939 E0.01954
G1 X130.567 Y128.073 E2.93052
G1 X130.567 Y128.650 E0.01954
G1 X69.433 Y67.515 E2.93052
G1 X69.433 Y68.092 E0.01954
G1 X130.567 Y129.226 E2.93052
G1 X130.567 Y129.803 E0.01954
G1 X69.433 Y68.668 E2.93052
G1 X69.433 Y69.245 E0.01954
G1 X130.567 Y130.379 E2.93052
G1 X130.567 Y130.956 E0.01954
G1 X69.433 Y69.821 E2.93052
G1 X69.433 Y70.398 E0.01954
G1 X130.567 Y131.532 E2.93052
G1 X130.567 Y132.109 E0.01954
G1 X69.433 Y70.974 E2.93052
G1 X69.433 Y71.551 E0.01954
G1 X130.567 Y132.685 E2.93052
G1 X130.567 Y133.262 E0.01954
G1 X69.433 Y72.127 E2.93052
G1 X69.433 Y72.704 E0.01954
G1 X130.567 Y133.838 E2.93052
G1 X130.567 Y134.415 E0.01954
G1 X69.433 Y73.280 E2.93052
G1 X69.433 Y73.857 E0.01954
G1 X130.567 Y134.991 E2.93052
G1 X130.567 Y135.568 E0.01954
G1 X69.433 Y74.433 E2.93052
G1 X69.433 Y75.010 E0.01954
G1 X130.567 Y136.144 E2.93052
G1 X130.567 Y136.721 E0.01954
G1 X69.433 Y75.586 E2.93052
G1 X69.433 Y76.163 E0.01954
G1 X130.567 Y137.297 E2.93052
G1 X130.567 Y137.874 E0.01954
G1 X69.433 Y76.739 E2.93052
G1 X69.433 Y77.316 E0.01954
G1 X130.567 Y138.450 E2.93052
G1 X130.567 Y139.027 E0.01954
G1 X69.433 Y77.892 E2.93052
G1 X69.433 Y78.469 E0.01954
G1 X130.567 Y139.603 E2.93052
G1 X130.567 Y140.180 E0.01954
G1 X69.433 Y79.045 E2.93052
G1 X69.433 Y79.622 E0.01954
G1 X130.567 Y140.756 E2.93052
G1 X130.567 Y141.332 E0.01954
G1 X69.433 Y80.198 E2.93052
G1 X69.433 Y80.775 E0.01954
G1 X130.567 Y141.909 E2.93052
G1 X130.567 Y142.485 E0.01954
G1 X69.433 Y81.351 E2.93052
G1 X69.433 Y81.928 E0.01954
G1 X130.567 Y143.062 E2.93052
G1 X130.567 Y143.638 E0.01954
G1 X69.433 Y82.504 E2.93052
G1 X69.433 Y83.081 E0.01954
G1 X130.567 Y144.215 E2.93052
G1 X130.567 Y144.791 E0.01954
G1 X69.433 Y83.657 E2.93052
G1 X69.433 Y84.234 E0.01954
G1 X130.567 Y145.368 E2.93052
G1 X130.567 Y145.944 E0.01954
G1 X69.433 Y84.810 E2.93052
G1 X69.433 Y85.387 E0.01954
G1 X130.567 Y146.521 E2.93052
G1 X130.567 Y147.097 E0.01954
G1 X69.433 Y85.963 E2.93052
G1 X69.433 Y86.539 E0.01954
G1 X130.567 Y147.674 E2.93052
G1 X130.567 Y148.250 E0.01954
G1 X69.433 Y87.116 E2.93052
G1 X69.433 Y87.692 E0.01954
G1 X130.567 Y148.827 E2.93052
G1 X130.567 Y149.403 E0.01954
G1 X69.433 Y88.269 E2.93052
G1 X69.433 Y88.845 E0.01954
G1 X130.567 Y149.980 E2.93052
G1 X130.567 Y150.556 E0.01954
G1 X69.433 Y89.422 E2.93052
G1 X69.433 Y89.998 E0.01954
G1 X130.567 Y151.133 E2.93052
G1 X130.567 Y151.709 E0.01954
G1 X69.433 Y90.575 E2.93052
G1 X69.433 Y91.151 E0.01954
G1 X130.567 Y152.286 E2.93052
G1 X130.567 Y152.862 E0.01954
G1 X69.433 Y91.728 E2.93052
G1 X69.433 Y92.304 E0.01954
G1 X130.567 Y153.439 E2.93052
G1 X130.567 Y154.015 E0.01954
G1 X69.433 Y92.881 E2.93052
G1 X69.433 Y93.457 E0.01954
G1 X130.567 Y154.592 E2.93052
G1 X130.567 Y155.168 E0.01954
G1 X69.433 Y94.034 E2.93052
G1 X69.433 Y94.610 E0.01954
G1 X130.567 Y155.745 E2.93052
G1 X130.567 Y156.321 E0.01954
G1 X69.433 Y95.187 E2.93052
G1 X69.433 Y95.763 E0.01954
G1 X130.567 Y156.898 E2.93052
G1 X130.567 Y157.474 E0.01954
G1 X69.433 Y96.340 E2.93052
G1 X69.433 Y96.916 E0.01954
G1 X130.567 Y158.051 E2.93052
G1 X130.567 Y158.627 E0.01954
G1 X69.433 Y97.493 E2.93052
G1 X69.433 Y98.069 E0.01954
G1 X130.567 Y159.204 E2.93052
G1 X130.567 Y159.780 E0.01954
G1 X69.433 Y98.646 E2.93052
G1 X69.433 Y99.222 E0.01954
G1 X130.567 Y160.357 E2.93052
G1 X130.567 Y160.933 E0.01954
G1 X69.433 Y99.799 E2.93052
G1 X69.433 Y100.375 E0.01954
G1 X130.567 Y161.510 E2.93052
G1 X130.567 Y162.086 E0.01954
