; generated by Slic3r 1.2.9 on 2016-04-03 at 19:07:02

; external perimeters extrusion width = 0.45mm
; perimeters extrusion width = 0.45mm
; infill extrusion width = 0.45mm
; solid infill extrusion width = 0.45mm
; top infill extrusion width = 0.45mm

M107
M190 S50 ; set bed temperature
M201 X1000 Y1000 E600
M109 S210
M92 E161.3
G28
G92 E0.0
G1 X8.0 F2000
G1 Y60.0 E4.0  F1000.0
G1 Y100.0 E8.5  F1000.0
G92 E0.0
G21 ; set units to millimeters
G90 ; use absolute coordinates
M83 ; use relative distances for extrusion
G1 E-1.50000 F1800.00000
G1 Z0.200 F6000.000
G1 X54.656 Y31.792 F6000.000
G1 E1.50000 F1800.00000
G1 E0.04911 F1800.000 ; pressure advance
G1 X55.189 Y30.922 E0.03453 F2100.000
G1 X55.377 Y30.657 E0.01099
G1 X66.136 Y17.478 E0.57586
G1 X67.271 Y16.706 E0.04648
G1 X68.000 Y16.593 E0.02497
G1 X132.000 Y16.593 E2.16632
G1 X133.316 Y16.985 E0.04648
G1 X133.865 Y17.478 E0.02497
G1 X144.623 Y30.657 E0.57586
G1 X144.811 Y30.922 E0.01099
G1 X145.344 Y31.792 E0.03453
G1 X145.515 Y32.128 E0.01275
G1 X145.906 Y33.070 E0.03452
G1 X146.023 Y33.429 E0.01281
G1 X146.261 Y34.421 E0.03453
G1 X146.320 Y34.794 E0.01278
G1 X146.407 Y36.000 E0.04093
G1 X146.407 Y161.000 E4.23110
G1 X146.320 Y162.206 E0.04092
G1 X146.261 Y162.579 E0.01279
G1 X146.023 Y163.571 E0.03453
G1 X145.906 Y163.929 E0.01277
G1 X145.515 Y164.872 E0.03455
G1 X145.344 Y165.208 E0.01276
G1 X144.811 Y166.078 E0.03453
G1 X134.005 Y182.333 E0.66070
G1 X132.950 Y183.212 E0.04648
G1 X132.000 Y183.407 E0.03281
G1 X68.000 Y183.407 E2.16632
G1 X66.684 Y183.016 E0.04648
G1 X65.996 Y182.333 E0.03281
G1 X55.237 Y166.154 E0.65768
G1 X54.656 Y165.209 E0.03755
G1 X54.485 Y164.872 E0.01277
G1 X54.095 Y163.930 E0.03452
G1 X53.978 Y163.571 E0.01279
G1 X53.740 Y162.579 E0.03453
G1 X53.681 Y162.206 E0.01278
G1 X53.593 Y161.000 E0.04092
G1 X53.593 Y36.000 E4.23110
G1 X53.681 Y34.794 E0.04092
G1 X53.740 Y34.421 E0.01278
G1 X53.978 Y33.429 E0.03453
G1 X54.095 Y33.070 E0.01281
G1 X54.485 Y32.128 E0.03452
G1 X54.629 Y31.845 E0.01072
G1 E-0.04911 F1800.000 ; pressure discharge
G1 E-1.50000 F1800.00000
G1 X131.368 Y41.868 F6000.000
G1 E1.50000 F1800.00000
G1 E0.03144 F1800.000 ; pressure advance
G1 X131.368 Y155.132 E3.83386 F1680.000
G1 X137.475 Y155.132 E0.20672
G1 X138.418 Y155.206 E0.03200
G1 X139.313 Y155.421 E0.03116
G1 X140.163 Y155.774 E0.03116
G1 X140.948 Y156.255 E0.03116
G1 X141.648 Y156.852 E0.03116
G1 X142.246 Y157.552 E0.03116
G1 X142.727 Y158.337 E0.03116
G1 X143.079 Y159.187 E0.03113
G1 X143.295 Y160.099 E0.03172
G1 X143.366 Y161.000 E0.03061
G1 X143.294 Y161.918 E0.03116
G1 X143.079 Y162.813 E0.03116
G1 X142.727 Y163.663 E0.03116
G1 X142.246 Y164.448 E0.03116
G1 X141.648 Y165.148 E0.03116
G1 X140.948 Y165.746 E0.03116
G1 X140.163 Y166.227 E0.03116
G1 X139.313 Y166.579 E0.03116
G1 X138.418 Y166.794 E0.03116
G1 X137.475 Y166.868 E0.03200
G1 X131.368 Y166.868 E0.20672
G1 X131.368 Y180.368 E0.45696
G1 X68.632 Y180.368 E2.12353
G1 X68.632 Y166.868 E0.45696
G1 X62.525 Y166.868 E0.20672
G1 X61.583 Y166.794 E0.03200
G1 X60.688 Y166.579 E0.03116
G1 X59.837 Y166.227 E0.03116
G1 X59.052 Y165.746 E0.03116
G1 X58.352 Y165.148 E0.03116
G1 X57.755 Y164.448 E0.03116
G1 X57.274 Y163.663 E0.03116
G1 X56.921 Y162.813 E0.03116
G1 X56.706 Y161.918 E0.03116
G1 X56.634 Y161.000 E0.03116
G1 X56.706 Y160.083 E0.03116
G1 X56.921 Y159.188 E0.03116
G1 X57.274 Y158.337 E0.03116
G1 X57.755 Y157.552 E0.03116
G1 X58.352 Y156.852 E0.03116
G1 X59.040 Y156.265 E0.03061
G1 X59.838 Y155.773 E0.03173
G1 X60.688 Y155.421 E0.03113
G1 X61.583 Y155.206 E0.03116
G1 X62.525 Y155.132 E0.03200
G1 X68.632 Y155.132 E0.20672
G1 X68.632 Y41.868 E3.83386
G1 X62.525 Y41.868 E0.20672
G1 X61.583 Y41.794 E0.03200
G1 X60.687 Y41.579 E0.03116
G1 X59.837 Y41.227 E0.03115
G1 X59.052 Y40.746 E0.03115
G1 X58.352 Y40.148 E0.03118
G1 X57.755 Y39.448 E0.03114
G1 X57.274 Y38.663 E0.03116
G1 X56.921 Y37.813 E0.03115
G1 X56.706 Y36.918 E0.03116
G1 X56.634 Y36.000 E0.03116
G1 X56.706 Y35.082 E0.03116
G1 X56.921 Y34.187 E0.03116
G1 X57.274 Y33.337 E0.03115
G1 X57.755 Y32.552 E0.03116
G1 X58.352 Y31.852 E0.03114
G1 X59.052 Y31.254 E0.03118
G1 X59.837 Y30.773 E0.03115
G1 X60.687 Y30.421 E0.03115
G1 X61.583 Y30.206 E0.03116
G1 X62.525 Y30.132 E0.03200
G1 X68.632 Y30.132 E0.20672
G1 X68.632 Y19.632 E0.35541
G1 X131.368 Y19.632 E2.12353
G1 X131.368 Y30.132 E0.35541
G1 X137.475 Y30.132 E0.20672
G1 X138.418 Y30.206 E0.03200
G1 X139.313 Y30.421 E0.03116
G1 X140.163 Y30.773 E0.03115
G1 X140.948 Y31.254 E0.03115
G1 X141.648 Y31.852 E0.03117
G1 X142.246 Y32.552 E0.03114
G1 X142.727 Y33.337 E0.03116
G1 X143.079 Y34.187 E0.03115
G1 X143.294 Y35.082 E0.03116
G1 X143.366 Y36.000 E0.03116
G1 X143.294 Y36.918 E0.03116
G1 X143.079 Y37.813 E0.03116
G1 X142.727 Y38.663 E0.03115
G1 X142.246 Y39.448 E0.03116
G1 X141.648 Y40.148 E0.03114
G1 X140.948 Y40.746 E0.03117
G1 X140.163 Y41.227 E0.03115
G1 X139.313 Y41.579 E0.03115
G1 X138.418 Y41.794 E0.03116
G1 X137.475 Y41.868 E0.03200
G1 X131.428 Y41.868 E0.20469
G1 X131.775 Y42.275 F6000.000
G1 X131.775 Y154.725 E3.80630 F1680.000
G1 X137.491 Y154.725 E0.19349
G1 X138.482 Y154.803 E0.03363
G1 X139.439 Y155.033 E0.03333
G1 X140.349 Y155.410 E0.03333
G1 X141.188 Y155.924 E0.03333
G1 X141.937 Y156.564 E0.03333
G1 X142.576 Y157.312 E0.03333
G1 X143.091 Y158.152 E0.03333
G1 X143.467 Y159.061 E0.03332
G1 X143.699 Y160.035 E0.03389
G1 X143.775 Y161.000 E0.03276
G1 X143.697 Y161.982 E0.03333
G1 X143.467 Y162.939 E0.03333
G1 X143.091 Y163.849 E0.03333
G1 X142.576 Y164.688 E0.03333
G1 X141.937 Y165.437 E0.03333
G1 X141.188 Y166.076 E0.03333
G1 X140.349 Y166.591 E0.03333
G1 X139.439 Y166.967 E0.03333
G1 X138.482 Y167.197 E0.03333
G1 X137.491 Y167.275 E0.03363
G1 X131.775 Y167.275 E0.19349
G1 X131.775 Y180.775 E0.45696
G1 X68.225 Y180.775 E2.15109
G1 X68.225 Y167.275 E0.45696
G1 X62.509 Y167.275 E0.19349
G1 X61.519 Y167.197 E0.03363
G1 X60.561 Y166.967 E0.03333
G1 X59.652 Y166.591 E0.03333
G1 X58.812 Y166.076 E0.03333
G1 X58.064 Y165.437 E0.03333
G1 X57.424 Y164.688 E0.03333
G1 X56.910 Y163.849 E0.03333
G1 X56.533 Y162.939 E0.03333
G1 X56.303 Y161.982 E0.03333
G1 X56.226 Y161.000 E0.03333
G1 X56.303 Y160.019 E0.03333
G1 X56.533 Y159.061 E0.03333
G1 X56.910 Y158.152 E0.03333
G1 X57.424 Y157.312 E0.03333
G1 X58.064 Y156.564 E0.03333
G1 X58.800 Y155.935 E0.03276
G1 X59.652 Y155.410 E0.03389
G1 X60.561 Y155.033 E0.03332
G1 X61.519 Y154.803 E0.03333
G1 X62.509 Y154.725 E0.03363
G1 X68.225 Y154.725 E0.19349
G1 X68.225 Y42.275 E3.80630
G1 X62.509 Y42.275 E0.19349
G1 X61.519 Y42.197 E0.03363
G1 X60.561 Y41.968 E0.03333
G1 X59.652 Y41.591 E0.03332
G1 X58.812 Y41.077 E0.03332
G1 X58.064 Y40.437 E0.03334
G1 X57.424 Y39.689 E0.03331
G1 X56.910 Y38.849 E0.03333
G1 X56.533 Y37.939 E0.03332
G1 X56.303 Y36.982 E0.03333
G1 X56.226 Y36.000 E0.03333
G1 X56.303 Y35.018 E0.03333
G1 X56.533 Y34.061 E0.03333
G1 X56.910 Y33.152 E0.03332
G1 X57.424 Y32.312 E0.03333
G1 X58.064 Y31.564 E0.03331
G1 X58.812 Y30.924 E0.03334
G1 X59.652 Y30.409 E0.03332
G1 X60.561 Y30.033 E0.03332
G1 X61.519 Y29.803 E0.03333
G1 X62.509 Y29.725 E0.03363
G1 X68.225 Y29.725 E0.19349
G1 X68.225 Y19.225 E0.35541
G1 X131.775 Y19.225 E2.15109
G1 X131.775 Y29.725 E0.35541
G1 X137.491 Y29.725 E0.19349
G1 X138.482 Y29.803 E0.03363
G1 X139.439 Y30.033 E0.03333
G1 X140.349 Y30.409 E0.03332
G1 X141.188 Y30.924 E0.03333
G1 X141.937 Y31.564 E0.03334
G1 X142.576 Y32.312 E0.03331
G1 X143.091 Y33.152 E0.03333
G1 X143.467 Y34.061 E0.03332
G1 X143.697 Y35.018 E0.03333
G1 X143.775 Y36.000 E0.03333
G1 X143.697 Y36.982 E0.03333
G1 X143.467 Y37.939 E0.03333
G1 X143.091 Y38.849 E0.03332
G1 X142.576 Y39.689 E0.03333
G1 X141.937 Y40.437 E0.03331
G1 X141.188 Y41.077 E0.03334
G1 X140.349 Y41.591 E0.03333
G1 X139.439 Y41.968 E0.03332
G1 X138.482 Y42.197 E0.03333
G1 X137.491 Y42.275 E0.03363
G1 X131.835 Y42.275 E0.19145
G1 X131.375 Y42.275 F6000.000
G1 E-0.03144 F1800.000 ; pressure discharge
G1 E-1.50000 F1800.00000
G1 X132.135 Y30.433 F6000.000
G1 E1.50000 F1800.00000
G1 X141.553 Y39.851 E0.45123 F1680.000
G1 X141.819 Y39.540 E0.01385
G1 X132.711 Y30.433 E0.43635
G1 X133.288 Y30.433 E0.01952
G1 X142.073 Y39.218 E0.42091
G1 X142.291 Y38.860 E0.01420
G1 X133.864 Y30.433 E0.40378
G1 X134.440 Y30.433 E0.01952
G1 X142.500 Y38.493 E0.38619
G1 X142.669 Y38.086 E0.01494
G1 X135.016 Y30.433 E0.36667
G1 X135.593 Y30.433 E0.01952
G1 X142.824 Y37.664 E0.34647
G1 X142.935 Y37.200 E0.01619
G1 X136.169 Y30.433 E0.32421
G1 X136.745 Y30.433 E0.01952
G1 X143.016 Y36.704 E0.30045
G1 X143.058 Y36.170 E0.01815
G1 X137.321 Y30.433 E0.27485
G1 X137.942 Y30.478 E0.02109
G1 X143.023 Y35.558 E0.24343
G1 X142.911 Y34.870 E0.02363
G1 X138.631 Y30.590 E0.20507
G1 X139.472 Y30.855 E0.02991
G1 X142.645 Y34.028 E0.15199
G1 E-1.50000 F1800.00000
G1 X141.774 Y32.581 F6000.000
G1 E1.50000 F1800.00000
G1 X140.919 Y31.726 E0.04097 F1680.000
G1 E-1.50000 F1800.00000
G1 X131.067 Y20.146 F6000.000
G1 E1.50000 F1800.00000
G1 X130.855 Y19.933 E0.01019 F1680.000
G1 X130.279 Y19.933 E0.01952
G1 X131.067 Y20.722 E0.03780
G1 X131.067 Y21.298 E0.01952
G1 X129.702 Y19.933 E0.06541
G1 X129.126 Y19.933 E0.01952
G1 X131.067 Y21.874 E0.09302
G1 X131.067 Y22.451 E0.01952
G1 X128.550 Y19.933 E0.12062
G1 X127.974 Y19.933 E0.01952
G1 X131.067 Y23.027 E0.14823
G1 X131.067 Y23.603 E0.01952
G1 X127.397 Y19.933 E0.17584
G1 X126.821 Y19.933 E0.01952
G1 X131.067 Y24.179 E0.20345
G1 X131.067 Y24.755 E0.01952
G1 X126.245 Y19.933 E0.23106
G1 X125.669 Y19.933 E0.01952
G1 X131.067 Y25.332 E0.25866
G1 X131.067 Y25.908 E0.01952
G1 X125.093 Y19.933 E0.28627
G1 X124.516 Y19.933 E0.01952
G1 X131.067 Y26.484 E0.31388
G1 X131.067 Y27.060 E0.01952
G1 X123.940 Y19.933 E0.34149
G1 X123.364 Y19.933 E0.01952
G1 X131.067 Y27.637 E0.36910
G1 X131.067 Y28.213 E0.01952
G1 X122.788 Y19.933 E0.39671
G1 X122.211 Y19.933 E0.01952
G1 X131.067 Y28.789 E0.42431
G1 X131.067 Y29.365 E0.01952
G1 X121.635 Y19.933 E0.45192
G1 X121.059 Y19.933 E0.01952
G1 X131.067 Y29.941 E0.47953
G1 X130.983 Y30.433 E0.01690
G1 X140.948 Y40.398 E0.47744
G1 X141.258 Y40.132 E0.01385
G1 X131.559 Y30.433 E0.46471
G1 X131.067 Y30.518 E0.01690
G1 X120.483 Y19.933 E0.50714
G1 X119.907 Y19.933 E0.01952
G1 X140.611 Y40.638 E0.99203
G1 X140.254 Y40.857 E0.01420
G1 X119.330 Y19.933 E1.00252
G1 X118.754 Y19.933 E0.01952
G1 X139.872 Y41.051 E1.01182
G1 X139.465 Y41.220 E0.01494
G1 X118.178 Y19.933 E1.01990
G1 X117.602 Y19.933 E0.01952
G1 X139.026 Y41.357 E1.02649
G1 X138.561 Y41.469 E0.01619
G1 X117.026 Y19.933 E1.03183
G1 X116.449 Y19.933 E0.01952
G1 X138.045 Y41.528 E1.03469
G1 X137.508 Y41.567 E0.01824
G1 X115.873 Y19.933 E1.03656
G1 X115.297 Y19.933 E0.01952
G1 X136.931 Y41.567 E1.03656
G1 X136.355 Y41.567 E0.01952
G1 X114.721 Y19.933 E1.03656
G1 X114.144 Y19.933 E0.01952
G1 X135.779 Y41.567 E1.03656
G1 X135.203 Y41.567 E0.01952
G1 X113.568 Y19.933 E1.03656
G1 X112.992 Y19.933 E0.01952
G1 X134.626 Y41.567 E1.03656
G1 X134.050 Y41.567 E0.01952
G1 X112.416 Y19.933 E1.03656
G1 X111.840 Y19.933 E0.01952
G1 X133.474 Y41.567 E1.03656
G1 X132.898 Y41.567 E0.01952
G1 X111.263 Y19.933 E1.03656
G1 X110.687 Y19.933 E0.01952
G1 X132.322 Y41.567 E1.03656
G1 X131.745 Y41.567 E0.01952
G1 X110.111 Y19.933 E1.03656
G1 X109.535 Y19.933 E0.01952
G1 X131.169 Y41.567 E1.03656
G1 X131.067 Y42.042 E0.01644
G1 X108.958 Y19.933 E1.05930
G1 X108.382 Y19.933 E0.01952
G1 X131.067 Y42.618 E1.08691
G1 X131.067 Y43.194 E0.01952
G1 X107.806 Y19.933 E1.11452
G1 X107.230 Y19.933 E0.01952
G1 X131.067 Y43.771 E1.14212
G1 X131.067 Y44.347 E0.01952
G1 X106.654 Y19.933 E1.16973
G1 X106.077 Y19.933 E0.01952
G1 X131.067 Y44.923 E1.19734
G1 X131.067 Y45.499 E0.01952
G1 X105.501 Y19.933 E1.22495
G1 X104.925 Y19.933 E0.01952
G1 X131.067 Y46.075 E1.25256
G1 X131.067 Y46.652 E0.01952
G1 X104.349 Y19.933 E1.28017
G1 X103.772 Y19.933 E0.01952
G1 X131.067 Y47.228 E1.30777
G1 X131.067 Y47.804 E0.01952
G1 X103.196 Y19.933 E1.33538
G1 X102.620 Y19.933 E0.01952
G1 X131.067 Y48.380 E1.36299
G1 X131.067 Y48.957 E0.01952
G1 X102.044 Y19.933 E1.39060
G1 X101.468 Y19.933 E0.01952
G1 X131.067 Y49.533 E1.41821
G1 X131.067 Y50.109 E0.01952
G1 X100.891 Y19.933 E1.44581
G1 X100.315 Y19.933 E0.01952
G1 X131.067 Y50.685 E1.47342
G1 X131.067 Y51.261 E0.01952
G1 X99.739 Y19.933 E1.50103
G1 X99.163 Y19.933 E0.01952
G1 X131.067 Y51.838 E1.52864
G1 X131.067 Y52.414 E0.01952
G1 X98.587 Y19.933 E1.55625
G1 X98.010 Y19.933 E0.01952
G1 X131.067 Y52.990 E1.58386
G1 X131.067 Y53.566 E0.01952
G1 X97.434 Y19.933 E1.61146
G1 X96.858 Y19.933 E0.01952
G1 X131.067 Y54.143 E1.63907
G1 X131.067 Y54.719 E0.01952
G1 X96.282 Y19.933 E1.66668
G1 X95.705 Y19.933 E0.01952
G1 X131.067 Y55.295 E1.69429
G1 X131.067 Y55.871 E0.01952
G1 X95.129 Y19.933 E1.72190
G1 X94.553 Y19.933 E0.01952
G1 X131.067 Y56.447 E1.74950
G1 X131.067 Y57.024 E0.01952
G1 X93.977 Y19.933 E1.77711
G1 X93.401 Y19.933 E0.01952
G1 X131.067 Y57.600 E1.80472
G1 X131.067 Y58.176 E0.01952
G1 X92.824 Y19.933 E1.83233
G1 X92.248 Y19.933 E0.01952
G1 X131.067 Y58.752 E1.85994
G1 X131.067 Y59.328 E0.01952
G1 X91.672 Y19.933 E1.88754
G1 X91.096 Y19.933 E0.01952
G1 X131.067 Y59.905 E1.91515
G1 X131.067 Y60.481 E0.01952
G1 X90.519 Y19.933 E1.94276
G1 X89.943 Y19.933 E0.01952
G1 X131.067 Y61.057 E1.97037
G1 X131.067 Y61.633 E0.01952
G1 X89.367 Y19.933 E1.99798
G1 X88.791 Y19.933 E0.01952
G1 X131.067 Y62.210 E2.02559
G1 X131.067 Y62.786 E0.01952
G1 X88.215 Y19.933 E2.05319
G1 X87.638 Y19.933 E0.01952
G1 X131.067 Y63.362 E2.08080
G1 X131.067 Y63.938 E0.01952
G1 X87.062 Y19.933 E2.10841
G1 X86.486 Y19.933 E0.01952
G1 X131.067 Y64.514 E2.13602
G1 X131.067 Y65.091 E0.01952
G1 X85.910 Y19.933 E2.16363
G1 X85.334 Y19.933 E0.01952
G1 X131.067 Y65.667 E2.19123
G1 X131.067 Y66.243 E0.01952
G1 X84.757 Y19.933 E2.21884
G1 X84.181 Y19.933 E0.01952
G1 X131.067 Y66.819 E2.24645
G1 X131.067 Y67.396 E0.01952
G1 X83.605 Y19.933 E2.27406
G1 X83.029 Y19.933 E0.01952
G1 X131.067 Y67.972 E2.30167
G1 X131.067 Y68.548 E0.01952
G1 X82.452 Y19.933 E2.32927
G1 X81.876 Y19.933 E0.01952
G1 X131.067 Y69.124 E2.35688
G1 X131.067 Y69.700 E0.01952
G1 X81.300 Y19.933 E2.38449
G1 X80.724 Y19.933 E0.01952
G1 X131.067 Y70.277 E2.41210
G1 X131.067 Y70.853 E0.01952
G1 X80.148 Y19.933 E2.43971
G1 X79.571 Y19.933 E0.01952
G1 X131.067 Y71.429 E2.46732
G1 X131.067 Y72.005 E0.01952
G1 X78.995 Y19.933 E2.49492
G1 X78.419 Y19.933 E0.01952
G1 X131.067 Y72.581 E2.52253
G1 X131.067 Y73.158 E0.01952
G1 X77.843 Y19.933 E2.55014
G1 X77.266 Y19.933 E0.01952
G1 X131.067 Y73.734 E2.57775
G1 X131.067 Y74.310 E0.01952
G1 X76.690 Y19.933 E2.60536
G1 X76.114 Y19.933 E0.01952
G1 X131.067 Y74.886 E2.63296
G1 X131.067 Y75.463 E0.01952
G1 X75.538 Y19.933 E2.66057
G1 X74.962 Y19.933 E0.01952
G1 X131.067 Y76.039 E2.68818
G1 X131.067 Y76.615 E0.01952
G1 X74.385 Y19.933 E2.71579
G1 X73.809 Y19.933 E0.01952
G1 X131.067 Y77.191 E2.74340
G1 X131.067 Y77.767 E0.01952
G1 X73.233 Y19.933 E2.77100
G1 X72.657 Y19.933 E0.01952
G1 X131.067 Y78.344 E2.79861
G1 X131.067 Y78.920 E0.01952
G1 X72.081 Y19.933 E2.82622
G1 X71.504 Y19.933 E0.01952
G1 X131.067 Y79.496 E2.85383
G1 X131.067 Y80.072 E0.01952
G1 X70.928 Y19.933 E2.88144
G1 X70.352 Y19.933 E0.01952
G1 X131.067 Y80.649 E2.90905
G1 X131.067 Y81.225 E0.01952
G1 X69.776 Y19.933 E2.93665
G1 X69.199 Y19.933 E0.01952
G1 X131.067 Y81.801 E2.96426
G1 X131.067 Y82.377 E0.01952
G1 X68.933 Y20.243 E2.97703
G1 X68.933 Y20.819 E0.01952
G1 X131.067 Y82.953 E2.97703
G1 X131.067 Y83.530 E0.01952
G1 X68.933 Y21.395 E2.97703
G1 X68.933 Y21.971 E0.01952
G1 X131.067 Y84.106 E2.97703
G1 X131.067 Y84.682 E0.01952
G1 X68.933 Y22.548 E2.97703
G1 X68.933 Y23.124 E0.01952
G1 X131.067 Y85.258 E2.97703
G1 X131.067 Y85.834 E0.01952
G1 X68.933 Y23.700 E2.97703
G1 X68.933 Y24.276 E0.01952
G1 X131.067 Y86.411 E2.97703
G1 X131.067 Y86.987 E0.01952
G1 X68.933 Y24.852 E2.97703
G1 X68.933 Y25.429 E0.01952
G1 X131.067 Y87.563 E2.97703
G1 X131.067 Y88.139 E0.01952
G1 X68.933 Y26.005 E2.97703
G1 X68.933 Y26.581 E0.01952
G1 X131.067 Y88.716 E2.97703
G1 X131.067 Y89.292 E0.01952
G1 X68.933 Y27.157 E2.97703
G1 X68.933 Y27.734 E0.01952
G1 X131.067 Y89.868 E2.97703
